; generated by PrusaSlicer 2.8.1+win64 on 2024-12-14 at 22:24:36 UTC


;
;
; 

; external perimeters extrusion width = 0.45mm
; perimeters extrusion width = 0.45mm
; infill extrusion width = 0.45mm
; solid infill extrusion width = 0.45mm
; top infill extrusion width = 0.40mm
; first layer extrusion width = 0.42mm

M73 P0 R61
M201 X9000 Y9000 Z500 E10000 ; sets maximum accelerations, mm/sec^2
M203 X500 Y500 Z12 E120 ; sets maximum feedrates, mm / sec
M204 S2000 T1500 ; sets acceleration (S) and retract acceleration (R), mm/sec^2
M205 X10.00 Y10.00 Z0.20 E4.50 ; sets the jerk limits, mm/sec
M205 S0 T0 ; sets the minimum extruding and travel feed rate, mm/sec

; printing object Arduino Uno Holder.stl id:0 copy 0
; stop printing object Arduino Uno Holder.stl id:0 copy 0

;TYPE:Custom
M862.3 P "MK2.5S" ; printer model check
M862.1 P0.4 ; nozzle diameter check
M115 U3.14.0 ; tell printer latest fw version
G90 ; use absolute coordinates
M83 ; extruder relative mode
M104 S215 ; set extruder temp
M140 S60 ; set bed temp
M190 S60 ; wait for bed temp
M109 S215 ; wait for extruder temp
G28 W ; home all without mesh bed level
G80 X86.6229 Y75.1229 W76.7542 H59.7542 ; mesh bed levelling

G1 Z0.2 F720
G1 Y-3 F1000 ; go outside print area
G92 E0
G1 X60 E9 F1000 ; intro line
G1 X100 E12.5 F1000 ; intro line

G92 E0
G21 ; set units to millimeters
G90 ; use absolute coordinates
M83 ; use relative distances for extrusion

M900 K0.05 ; Filament gcode LA 1.5
M900 K30 ; Filament gcode LA 1.0




M107
;LAYER_CHANGE
;Z:0.2
;HEIGHT:0.2
G1 E-.8 F2100
G1 Z.6 F720
G1 X87.202 Y76.252 F10800
G1 Z.2 F720
G1 E.8 F2100
M204 S800
;TYPE:Skirt/Brim
;WIDTH:0.42
G1 F1200
G1 X88.235 Y75.449 E.04102
G1 X89 Y75.311 E.02437
G1 X161 Y75.311 E2.25751
G1 X162.248 Y75.702 E.04101
G1 X163.051 Y76.735 E.04102
G1 X163.189 Y77.5 E.02437
G1 X163.189 Y132.5 E1.72449
G1 X162.798 Y133.748 E.04101
G1 X161.765 Y134.551 E.04102
G1 X161 Y134.689 E.02437
G1 X89 Y134.689 E2.25751
G1 X87.752 Y134.298 E.04101
G1 X86.949 Y133.265 E.04102
G1 X86.811 Y132.5 E.02437
G1 X86.811 Y77.5 E1.72449
G1 X87.184 Y76.309 E.03913
M204 S1000
;WIPE_START
G1 F8640
G1 X87.202 Y76.252 E-.0138
G1 X88.235 Y75.449 E-.30211
G1 X89 Y75.311 E-.17949
G1 X90.319 Y75.311 E-.3046
;WIPE_END
G1 Z.6 F720
; printing object Arduino Uno Holder.stl id:0 copy 0
G1 X142.747 Y112.62 F10800
G1 Z.2 F720
G1 E.8 F2100
M204 S800
;TYPE:Perimeter
;WIDTH:0.419999
G1 F1200
G1 X142.129 Y112.349 E.02116
G1 X141.529 Y111.934 E.02287
G1 X141.018 Y111.413 E.02288
G1 X140.615 Y110.805 E.02287
G1 X140.335 Y110.132 E.02285
G1 X140.187 Y109.418 E.02286
G1 X140.177 Y108.689 E.02286
G1 X140.305 Y107.971 E.02287
G1 X140.566 Y107.29 E.02287
G1 X140.952 Y106.671 E.02287
G1 X141.448 Y106.137 E.02285
G1 X142.036 Y105.705 E.02288
G1 X142.695 Y105.393 E.02286
G1 X143.401 Y105.211 E.02286
G1 X144.129 Y105.166 E.02287
G1 X144.852 Y105.26 E.02286
G1 X145.544 Y105.489 E.02285
G1 X146.181 Y105.844 E.02286
G1 X146.739 Y106.314 E.02287
G1 X147.144 Y106.814 E.02017
G1 X147.45 Y107.349 E.01932
G1 X147.581 Y107.624 E.00955
G1 X147.756 Y108.221 E.01951
G1 X147.836 Y108.946 E.02287
G1 X147.776 Y109.673 E.02287
G1 X147.581 Y110.376 E.02287
G1 X147.256 Y111.028 E.02284
G1 X146.813 Y111.608 E.02288
G1 X146.269 Y112.093 E.02285
G1 X145.642 Y112.467 E.02289
G1 X144.852 Y112.74 E.02621
G1 X144.236 Y112.829 E.01951
G1 X143.507 Y112.804 E.02287
G1 X142.802 Y112.643 E.02267
M204 S1000
G1 X142.802 Y112.643 F10800
G1 X142.869 Y112.268
M204 S800
;TYPE:External perimeter
G1 F1200
G1 X142.285 Y112.006 E.02007
G1 X141.748 Y111.627 E.02061
G1 X141.291 Y111.153 E.02064
G1 X140.933 Y110.601 E.02063
G1 X140.685 Y109.992 E.02062
G1 X140.557 Y109.347 E.02062
G1 X140.554 Y108.689 E.02063
G1 X140.675 Y108.042 E.02064
G1 X140.916 Y107.43 E.02062
G1 X141.269 Y106.875 E.02062
G1 X141.721 Y106.397 E.02063
G1 X142.254 Y106.012 E.02062
G1 X142.851 Y105.736 E.02062
G1 X143.49 Y105.578 E.02064
G1 X144.147 Y105.543 E.02063
G1 X144.798 Y105.633 E.02061
G1 X145.421 Y105.845 E.02063
G1 X145.992 Y106.171 E.02062
G1 X146.492 Y106.599 E.02064
G1 X146.848 Y107.047 E.01794
G1 X147.219 Y107.731 E.0244
G1 X147.394 Y108.328 E.01951
G1 X147.46 Y108.982 E.02061
G1 X147.401 Y109.637 E.02062
G1 X147.219 Y110.269 E.02062
G1 X146.921 Y110.856 E.02064
G1 X146.517 Y111.375 E.02062
G1 X146.022 Y111.808 E.02062
G1 X145.454 Y112.14 E.02063
G1 X144.833 Y112.358 E.02064
G1 X144.258 Y112.444 E.01823
G1 X143.525 Y112.427 E.02299
G1 X142.926 Y112.285 E.0193
M204 S1000
;WIPE_START
G1 F8640
G1 X142.869 Y112.268 E-.01373
G1 X142.285 Y112.006 E-.1478
G1 X141.748 Y111.627 E-.15177
G1 X141.291 Y111.153 E-.15203
G1 X140.933 Y110.601 E-.15192
G1 X140.685 Y109.992 E-.15183
G1 X140.659 Y109.861 E-.03092
;WIPE_END
G1 Z.6 F720
G1 X155.718 Y125.545 F10800
G1 Z.2 F720
G1 E.8 F2100
M204 S800
;TYPE:Perimeter
G1 F1200
G1 X155.379 Y125.131 E.01678
G1 X155.128 Y124.575 E.01913
G1 X155.03 Y123.974 E.01909
G1 X155.105 Y123.292 E.02151
G1 X155.313 Y122.784 E.01721
G1 X155.654 Y122.31 E.01831
G1 X156.133 Y121.915 E.01947
G1 X156.688 Y121.664 E.0191
G1 X157.254 Y121.571 E.01798
G1 X157.886 Y121.625 E.01989
G1 X158.467 Y121.842 E.01945
G1 X158.962 Y122.197 E.0191
G1 X159.348 Y122.669 E.01912
;WIDTH:0.462951
G1 X159.619 Y123.216 E.02132
;WIDTH:0.4917
G1 X159.653 Y123.288 E.00297
;WIDTH:0.520449
G1 X159.687 Y123.361 E.0032
G1 X159.736 Y123.9 E.02149
G1 X159.687 Y124.439 E.02149
G1 X159.599 Y124.627 E.00824
;WIDTH:0.486965
G1 X159.51 Y124.815 E.00768
;WIDTH:0.453482
G1 X159.422 Y125.003 E.00709
;WIDTH:0.419999
G1 X159.066 Y125.498 E.01912
G1 X158.595 Y125.885 E.01911
G1 X158.039 Y126.136 E.01913
G1 X157.438 Y126.234 E.01909
G1 X156.831 Y126.174 E.01912
G1 X156.261 Y125.958 E.01911
G1 X155.765 Y125.603 E.01912
G1 X155.756 Y125.591 E.00047
M204 S1000
G1 X155.756 Y125.591 F10800
G1 X155.98 Y125.284
M204 S800
;TYPE:External perimeter
G1 F1200
G1 X155.96 Y125.269 E.00078
G1 X155.654 Y124.859 E.01604
G1 X155.464 Y124.384 E.01604
G1 X155.403 Y123.875 E.01607
G1 X155.469 Y123.391 E.01532
G1 X155.662 Y122.935 E.01553
G1 X155.967 Y122.523 E.01607
G1 X156.362 Y122.215 E.0157
G1 X156.833 Y122.013 E.01607
G1 X157.348 Y121.944 E.01629
G1 X157.895 Y122.013 E.01729
G1 X158.365 Y122.215 E.01604
G1 X158.767 Y122.531 E.01603
G1 X159.074 Y122.941 E.01606
G1 X159.264 Y123.416 E.01604
G1 X159.324 Y123.925 E.01607
G1 X159.251 Y124.431 E.01603
G1 X159.049 Y124.901 E.01604
G1 X158.732 Y125.304 E.01608
G1 X158.323 Y125.61 E.01602
G1 X157.847 Y125.8 E.01607
G1 X157.339 Y125.86 E.01604
G1 X156.833 Y125.787 E.01603
G1 X156.362 Y125.585 E.01607
G1 X156.027 Y125.321 E.01337
M204 S1000
;WIPE_START
G1 F8640
G1 X155.98 Y125.284 E-.01381
G1 X155.96 Y125.269 E-.00577
G1 X155.654 Y124.859 E-.11813
G1 X155.464 Y124.384 E-.11813
G1 X155.403 Y123.875 E-.11837
G1 X155.469 Y123.391 E-.11279
G1 X155.662 Y122.935 E-.11433
G1 X155.967 Y122.523 E-.11836
G1 X156.241 Y122.309 E-.08031
;WIPE_END
G1 Z.6 F720
G1 X156.497 Y98.248 F10800
G1 Z.2 F720
G1 E.8 F2100
M204 S800
;TYPE:Perimeter
G1 F1200
G1 X156.05 Y98.081 E.01496
G1 X155.869 Y97.985 E.00642
G1 X155.456 Y97.664 E.0164
G1 X155.115 Y97.231 E.01728
G1 X154.864 Y96.675 E.01913
G1 X154.766 Y96.074 E.01909
G1 X154.826 Y95.467 E.01912
G1 X155.028 Y94.931 E.01796
G1 X155.391 Y94.41 E.01991
G1 X155.869 Y94.015 E.01944
G1 X156.425 Y93.764 E.01913
G1 X156.99 Y93.671 E.01795
G1 X157.622 Y93.725 E.01989
G1 X158.203 Y93.942 E.01945
G1 X158.698 Y94.297 E.0191
G1 X159.085 Y94.769 E.01914
G1 X159.336 Y95.325 E.01913
G1 X159.434 Y95.926 E.01909
G1 X159.374 Y96.533 E.01912
G1 X159.158 Y97.103 E.01911
G1 X158.803 Y97.598 E.0191
G1 X158.331 Y97.985 E.01914
G1 X157.775 Y98.236 E.01913
G1 X157.174 Y98.334 E.01909
G1 X156.567 Y98.274 E.01912
G1 X156.554 Y98.269 E.00044
M204 S1000
G1 X156.554 Y98.269 F10800
G1 X156.593 Y97.891
M204 S800
;TYPE:External perimeter
G1 F1200
G1 X156.141 Y97.71 E.01527
G1 X155.731 Y97.404 E.01604
G1 X155.415 Y97.001 E.01606
G1 X155.213 Y96.531 E.01604
G1 X155.14 Y96.025 E.01603
G1 X155.2 Y95.516 E.01607
G1 X155.392 Y95.045 E.01595
G1 X155.694 Y94.634 E.01599
G1 X156.099 Y94.315 E.01616
G1 X156.569 Y94.113 E.01604
G1 X157.039 Y94.044 E.01489
G1 X157.58 Y94.1 E.01705
G1 X158.059 Y94.29 E.01616
G1 X158.469 Y94.596 E.01604
G1 X158.785 Y94.999 E.01606
G1 X158.987 Y95.469 E.01604
G1 X159.06 Y95.975 E.01603
G1 X159 Y96.484 E.01607
G1 X158.81 Y96.959 E.01604
G1 X158.504 Y97.369 E.01604
G1 X158.101 Y97.685 E.01606
G1 X157.631 Y97.887 E.01604
G1 X157.125 Y97.96 E.01603
G1 X156.651 Y97.904 E.01497
M204 S1000
;WIPE_START
G1 F8640
G1 X156.593 Y97.891 E-.01372
G1 X156.141 Y97.71 E-.11242
G1 X155.731 Y97.404 E-.11813
G1 X155.415 Y97.001 E-.11825
G1 X155.213 Y96.531 E-.11812
G1 X155.14 Y96.025 E-.11805
G1 X155.2 Y95.516 E-.11834
G1 X155.335 Y95.183 E-.08297
;WIPE_END
G1 Z.6 F720
G1 X108.315 Y79.837 F10800
G1 Z.2 F720
G1 E.8 F2100
M204 S800
;TYPE:Perimeter
G1 F1200
G1 X108.536 Y80.325 E.0168
G1 X108.634 Y80.926 E.01909
G1 X108.574 Y81.533 E.01912
G1 X108.358 Y82.103 E.01911
G1 X108.003 Y82.598 E.0191
G1 X107.531 Y82.985 E.01914
G1 X106.975 Y83.236 E.01913
G1 X106.293 Y83.339 E.02163
G1 X105.767 Y83.274 E.01662
G1 X105.197 Y83.058 E.01911
G1 X104.702 Y82.703 E.0191
G1 X104.315 Y82.231 E.01914
G1 X104.064 Y81.675 E.01913
G1 X103.966 Y81.074 E.01909
G1 X104.026 Y80.467 E.01912
G1 X104.228 Y79.931 E.01796
G1 X104.591 Y79.41 E.01991
G1 X105.069 Y79.015 E.01944
;WIDTH:0.439279
G1 X105.621 Y78.756 E.0201
G1 X106.19 Y78.669 E.01897
;WIDTH:0.451048
G1 X106.824 Y78.709 E.02156
G1 X107.403 Y78.942 E.02118
;WIDTH:0.419999
G1 X107.898 Y79.297 E.0191
G1 X108.285 Y79.769 E.01914
G1 X108.291 Y79.782 E.00045
M204 S1000
G1 X108.291 Y79.782 F10800
G1 X107.995 Y80.021
M204 S800
;TYPE:External perimeter
G1 F1200
G1 X108.01 Y80.041 E.00078
G1 X108.2 Y80.516 E.01604
G1 X108.26 Y81.025 E.01607
G1 X108.187 Y81.531 E.01603
G1 X107.985 Y82.001 E.01604
G1 X107.675 Y82.398 E.01579
G1 X107.272 Y82.704 E.01587
G1 X106.804 Y82.896 E.01586
G1 X106.298 Y82.962 E.016
G1 X105.792 Y82.895 E.016
G1 X105.32 Y82.7 E.01601
G1 X104.919 Y82.393 E.01583
G1 X104.601 Y81.981 E.01632
G1 X104.405 Y81.51 E.016
G1 X104.34 Y80.975 E.0169
G1 X104.413 Y80.469 E.01603
G1 X104.598 Y80.035 E.01479
G1 X104.931 Y79.597 E.01725
G1 X105.341 Y79.29 E.01606
G1 X105.808 Y79.101 E.0158
G1 X106.285 Y79.044 E.01506
G1 X106.831 Y79.113 E.01726
G1 X107.301 Y79.315 E.01604
G1 X107.704 Y79.631 E.01606
G1 X107.959 Y79.973 E.01338
M204 S1000
;WIPE_START
G1 F8640
G1 X107.995 Y80.021 E-.01385
G1 X108.01 Y80.041 E-.00577
G1 X108.2 Y80.516 E-.11813
G1 X108.26 Y81.025 E-.11834
G1 X108.187 Y81.531 E-.11805
G1 X107.985 Y82.001 E-.11812
G1 X107.675 Y82.398 E-.1163
G1 X107.272 Y82.704 E-.11684
G1 X106.973 Y82.827 E-.0746
;WIPE_END
G1 Z.6 F720
G1 X102.324 Y107.92 F10800
G1 Z.2 F720
G1 E.8 F2100
M204 S800
;TYPE:Perimeter
G1 F1200
G1 X102.566 Y107.29 E.02116
G1 X102.952 Y106.671 E.02287
G1 X103.448 Y106.137 E.02285
G1 X104.036 Y105.705 E.02288
G1 X104.695 Y105.393 E.02286
G1 X105.401 Y105.211 E.02286
G1 X106.129 Y105.166 E.02287
G1 X106.957 Y105.285 E.02623
G1 X107.549 Y105.49 E.01964
G1 X108.181 Y105.844 E.02271
G1 X108.739 Y106.314 E.02287
G1 X109.198 Y106.881 E.02287
G1 X109.541 Y107.525 E.02288
G1 X109.756 Y108.221 E.02284
G1 X109.836 Y108.946 E.02287
G1 X109.776 Y109.673 E.02287
G1 X109.581 Y110.376 E.02287
G1 X109.256 Y111.028 E.02284
G1 X108.813 Y111.608 E.02288
G1 X108.269 Y112.093 E.02285
G1 X107.642 Y112.467 E.02289
G1 X106.957 Y112.715 E.02284
G1 X106.236 Y112.829 E.02289
G1 X105.641 Y112.81 E.01867
G1 X105.401 Y112.789 E.00755
G1 X104.796 Y112.642 E.01952
G1 X104.129 Y112.349 E.02284
M73 P0 R60
G1 X103.529 Y111.934 E.02287
G1 X103.018 Y111.413 E.02288
G1 X102.615 Y110.805 E.02287
G1 X102.335 Y110.132 E.02285
G1 X102.187 Y109.418 E.02286
G1 X102.177 Y108.689 E.02286
G1 X102.304 Y107.977 E.02268
M204 S1000
G1 X102.304 Y107.977 F10800
G1 X102.682 Y108.025
M204 S800
;TYPE:External perimeter
G1 F1200
G1 X102.916 Y107.43 E.02005
G1 X103.269 Y106.875 E.02062
G1 X103.721 Y106.397 E.02063
G1 X104.254 Y106.012 E.02062
G1 X104.851 Y105.736 E.02062
G1 X105.49 Y105.578 E.02064
G1 X106.147 Y105.543 E.02063
G1 X106.833 Y105.642 E.02173
G1 X107.423 Y105.846 E.01957
G1 X107.992 Y106.171 E.02055
G1 X108.492 Y106.599 E.02064
G1 X108.901 Y107.114 E.02062
G1 X109.206 Y107.697 E.02063
G1 X109.394 Y108.328 E.02064
G1 X109.46 Y108.982 E.02061
G1 X109.401 Y109.637 E.02062
G1 X109.219 Y110.269 E.02062
G1 X108.921 Y110.856 E.02064
G1 X108.517 Y111.375 E.02062
G1 X108.022 Y111.808 E.02062
G1 X107.454 Y112.14 E.02063
G1 X106.833 Y112.358 E.02064
G1 X106.183 Y112.455 E.02061
G1 X105.659 Y112.434 E.01644
G1 X104.885 Y112.276 E.02477
G1 X104.285 Y112.006 E.02063
G1 X103.748 Y111.627 E.02061
G1 X103.291 Y111.153 E.02064
G1 X102.933 Y110.601 E.02063
G1 X102.685 Y109.992 E.02062
G1 X102.557 Y109.347 E.02062
G1 X102.554 Y108.689 E.02063
G1 X102.667 Y108.083 E.01933
M204 S1000
;WIPE_START
G1 F8640
G1 X102.682 Y108.025 E-.01383
G1 X102.916 Y107.43 E-.14763
G1 X103.269 Y106.875 E-.15188
G1 X103.721 Y106.397 E-.1519
G1 X104.254 Y106.012 E-.15182
G1 X104.851 Y105.736 E-.15187
G1 X104.982 Y105.704 E-.03107
;WIPE_END
G1 Z.6 F720
G1 X104.916 Y130.584 F10800
G1 Z.2 F720
G1 E.8 F2100
M204 S800
G1 F1200
G1 X104.615 Y130.201 E.01527
G1 X104.413 Y129.731 E.01604
G1 X104.34 Y129.225 E.01603
G1 X104.4 Y128.716 E.01607
G1 X104.591 Y128.247 E.01588
G1 X104.894 Y127.834 E.01606
G1 X105.299 Y127.515 E.01616
G1 X105.769 Y127.313 E.01604
G1 X106.268 Y127.243 E.0158
G1 X106.78 Y127.3 E.01615
G1 X107.259 Y127.49 E.01616
G1 X107.669 Y127.796 E.01604
G1 X107.985 Y128.199 E.01606
G1 X108.187 Y128.669 E.01604
G1 X108.26 Y129.175 E.01603
G1 X108.2 Y129.684 E.01607
G1 X108.01 Y130.159 E.01604
G1 X107.704 Y130.569 E.01604
G1 X107.301 Y130.885 E.01606
G1 X106.831 Y131.087 E.01604
G1 X106.325 Y131.16 E.01603
G1 X105.816 Y131.1 E.01607
G1 X105.341 Y130.91 E.01604
G1 X104.959 Y130.624 E.01496
M204 S1000
;WIPE_START
G1 F8640
G1 X104.916 Y130.584 E-.01356
G1 X104.615 Y130.201 E-.11248
G1 X104.413 Y129.731 E-.11812
G1 X104.34 Y129.225 E-.11805
G1 X104.4 Y128.716 E-.11834
G1 X104.591 Y128.247 E-.11693
G1 X104.894 Y127.834 E-.11827
G1 X105.18 Y127.608 E-.08425
;WIPE_END
G1 Z.6 F720
G1 X106.878 Y131.591 F10800
G1 Z.2 F720
G1 E.8 F2100
M204 S800
;TYPE:Perimeter
;WIDTH:0.664706
G1 F1200
G1 X106.589 Y131.608 E.01497
;WIDTH:0.629319
G1 X106.3 Y131.626 E.01412
;WIDTH:0.627077
G1 X106.026 Y131.609 E.01333
;WIDTH:0.660222
G1 X105.752 Y131.593 E.01409
M204 S1000
;WIPE_START
G1 F8640
G1 X106.878 Y131.591 E-.26
G1 X106.589 Y131.608 E-.06685
G1 X106.3 Y131.626 E-.06686
G1 X106.026 Y131.609 E-.06339
G1 X105.752 Y131.593 E-.06338
;WIPE_END
G1 E-.27952 F2100
G1 Z.6 F720
G1 X89.787 Y131.713 F10800
G1 Z.2 F720
G1 E.8 F2100
M204 S800
;WIDTH:0.419999
G1 F1200
G1 X89.787 Y78.287 E1.67513
G1 X105.067 Y78.287 E.47909
M73 P1 R60
;WIDTH:0.452002
G1 X105.738 Y78.303 E.02283
G1 X106.264 Y78.287 E.0179
;WIDTH:0.451048
G1 X106.846 Y78.303 E.01976
G1 X107.533 Y78.287 E.02332
;WIDTH:0.419999
G1 X160.213 Y78.287 E1.65174
G1 X160.213 Y86.665 E.26269
G1 X160.213 Y122.64 E1.12797
;WIDTH:0.453483
G1 X160.196 Y122.87 E.00787
;WIDTH:0.486966
G1 X160.179 Y123.099 E.00848
;WIDTH:0.520449
G1 X160.163 Y123.329 E.00915
G1 X160.18 Y123.9 E.02268
;WIDTH:0.523239
G1 X160.161 Y124.507 E.02425
G1 X160.179 Y124.725 E.00874
;WIDTH:0.488826
G1 X160.196 Y124.943 E.00811
;WIDTH:0.454413
G1 X160.213 Y125.16 E.00745
;WIDTH:0.419999
G1 X160.213 Y131.713 E.20546
G1 X107.494 Y131.713 E1.65296
;WIDTH:0.468941
G1 X107.37 Y131.688 E.00448
;WIDTH:0.517882
G1 X107.247 Y131.664 E.00495
;WIDTH:0.566824
G1 X107.124 Y131.64 E.00546
;WIDTH:0.615765
G1 X107.001 Y131.615 E.00598
;WIDTH:0.664706
G1 X106.878 Y131.591 E.00648
G1 X106.941 Y131.548 E.00394
;WIDTH:0.617503
G1 X107.004 Y131.505 E.00364
;WIDTH:0.5703
G1 X107.136 Y131.425 E.00677
;WIDTH:0.532725
G1 X107.268 Y131.345 E.00629
;WIDTH:0.49515
G1 X107.399 Y131.265 E.00577
;WIDTH:0.457575
G1 X107.531 Y131.185 E.00532
;WIDTH:0.419999
G1 X108.003 Y130.798 E.01914
G1 X108.358 Y130.303 E.0191
G1 X108.574 Y129.733 E.01911
G1 X108.634 Y129.126 E.01912
G1 X108.536 Y128.525 E.01909
