; generated by PrusaSlicer 2.8.1+win64 on 2024-12-19 at 00:55:26 UTC


;
;
; 

; external perimeters extrusion width = 0.60mm
; perimeters extrusion width = 0.43mm
; infill extrusion width = 0.45mm
; solid infill extrusion width = 0.70mm
; top infill extrusion width = 0.45mm
; first layer extrusion width = 0.42mm

M73 P0 R119
M201 X9000 Y9000 Z500 E10000 ; sets maximum accelerations, mm/sec^2
M203 X500 Y500 Z12 E120 ; sets maximum feedrates, mm / sec
M204 S2000 T1500 ; sets acceleration (S) and retract acceleration (R), mm/sec^2
M205 X10.00 Y10.00 Z0.20 E4.50 ; sets the jerk limits, mm/sec
M205 S0 T0 ; sets the minimum extruding and travel feed rate, mm/sec

; printing object Base side plate 2 v2.stl id:0 copy 0
; stop printing object Base side plate 2 v2.stl id:0 copy 0

;TYPE:Custom
M862.3 P "MK2.5S" ; printer model check
M862.1 P0.4 ; nozzle diameter check
M115 U3.14.0 ; tell printer latest fw version
G90 ; use absolute coordinates
M83 ; extruder relative mode
M104 S215 ; set extruder temp
M140 S60 ; set bed temp
M190 S60 ; wait for bed temp
M109 S215 ; wait for extruder temp
G28 W ; home all without mesh bed level
G80 X12.6229 Y72.6229 W224.754 H64.7542 ; mesh bed levelling

G1 Z0.2 F720
G1 Y-3 F1000 ; go outside print area
G92 E0
G1 X60 E9 F1000 ; intro line
G1 X100 E12.5 F1000 ; intro line

G92 E0
G21 ; set units to millimeters
G90 ; use absolute coordinates
M83 ; use relative distances for extrusion

M900 K0.05 ; Filament gcode LA 1.5
M900 K30 ; Filament gcode LA 1.0




M107
;LAYER_CHANGE
;Z:0.2
;HEIGHT:0.2
G1 E-.8 F2100
G1 Z.6 F720
G1 X14.235 Y72.949 F10800
G1 Z.2 F720
G1 E.8 F2100
M204 S800
;TYPE:Skirt/Brim
;WIDTH:0.42
G1 F1200
G1 X15 Y72.811 E.02437
G1 X235 Y72.811 E6.89795
G1 X236.248 Y73.202 E.04101
G1 X237.051 Y74.235 E.04102
G1 X237.189 Y75 E.02437
G1 X237.189 Y95 E.62709
G1 X236.798 Y96.248 E.04101
G1 X235.601 Y97.104 E.04614
G1 X95.601 Y137.104 E4.56525
G1 X95 Y137.189 E.01903
G1 X15 Y137.189 E2.50834
G1 X13.752 Y136.798 E.04101
G1 X12.949 Y135.765 E.04102
G1 X12.811 Y135 E.02437
G1 X12.811 Y75 E1.88126
G1 X13.202 Y73.752 E.04101
G1 X14.188 Y72.986 E.03915
M204 S1000
;WIPE_START
G1 F8640
G1 X14.235 Y72.949 E-.01381
G1 X15 Y72.811 E-.17949
G1 X17.628 Y72.811 E-.6067
;WIPE_END
G1 Z.6 F720
; printing object Base side plate 2 v2.stl id:0 copy 0
G1 X85.162 Y127.001 F10800
G1 Z.2 F720
G1 E.8 F2100
M204 S800
;TYPE:Perimeter
;WIDTH:0.419999
G1 F1200
G1 X85.161 Y126.995 E.00019
G1 X85.226 Y126.467 E.01668
G1 X85.44 Y125.902 E.01894
G1 X85.794 Y125.406 E.01911
G1 X86.264 Y125.019 E.01909
G1 X86.817 Y124.768 E.01904
G1 X87.365 Y124.674 E.01743
G1 X88.022 Y124.725 E.02066
G1 X88.603 Y124.942 E.01945
G1 X89.098 Y125.297 E.0191
G1 X89.485 Y125.769 E.01914
G1 X89.736 Y126.325 E.01913
G1 X89.834 Y126.926 E.01909
G1 X89.774 Y127.533 E.01912
G1 X89.572 Y128.071 E.01802
G1 X89.209 Y128.59 E.01986
G1 X88.731 Y128.985 E.01944
G1 X88.175 Y129.236 E.01913
G1 X87.574 Y129.334 E.01909
G1 X86.967 Y129.274 E.01912
G1 X86.397 Y129.058 E.01911
G1 X85.902 Y128.703 E.0191
G1 X85.515 Y128.231 E.01914
G1 X85.264 Y127.675 E.01913
G1 X85.226 Y127.533 E.00461
G1 X85.169 Y127.06 E.01494
M204 S1000
G1 X85.169 Y127.06 F10800
G1 X85.543 Y127
M204 S800
;TYPE:External perimeter
G1 F1200
G1 X85.54 Y126.975 E.00079
G1 X85.613 Y126.469 E.01603
G1 X85.815 Y125.999 E.01604
G1 X86.131 Y125.597 E.01603
G1 X86.531 Y125.294 E.01573
G1 X86.996 Y125.104 E.01575
G1 X87.487 Y125.044 E.01551
G1 X87.989 Y125.101 E.01584
G1 X88.459 Y125.29 E.01588
G1 X88.869 Y125.596 E.01604
G1 X89.185 Y125.999 E.01606
G1 X89.387 Y126.469 E.01604
G1 X89.46 Y126.975 E.01603
G1 X89.4 Y127.484 E.01607
G1 X89.201 Y127.967 E.01638
G1 X88.869 Y128.403 E.01718
G1 X88.459 Y128.71 E.01606
G1 X87.992 Y128.899 E.0158
G1 X87.475 Y128.96 E.01632
G1 X86.969 Y128.887 E.01603
G1 X86.499 Y128.685 E.01604
G1 X86.096 Y128.369 E.01606
G1 X85.79 Y127.959 E.01604
G1 X85.6 Y127.484 E.01604
G1 X85.55 Y127.06 E.01339
M204 S1000
;WIPE_START
G1 F8640
G1 X85.543 Y127 E-.01395
G1 X85.54 Y126.975 E-.00581
G1 X85.613 Y126.469 E-.11805
G1 X85.815 Y125.999 E-.11812
G1 X86.131 Y125.597 E-.11807
G1 X86.531 Y125.294 E-.11587
G1 X86.996 Y125.104 E-.11599
G1 X87.487 Y125.044 E-.11422
G1 X87.831 Y125.083 E-.07992
;WIPE_END
G1 Z.6 F720
G1 X75.246 Y120.399 F10800
G1 Z.2 F720
G1 E.8 F2100
M204 S800
;TYPE:Perimeter
G1 F1200
G1 X75.333 Y120.92 E.01656
G1 X75.274 Y121.527 E.01912
G1 X75.072 Y122.071 E.01819
G1 X74.709 Y122.59 E.01986
G1 X74.231 Y122.985 E.01944
G1 X73.675 Y123.236 E.01913
G1 X73.074 Y123.334 E.01909
G1 X72.467 Y123.274 E.01912
G1 X71.897 Y123.058 E.01911
G1 X71.402 Y122.703 E.0191
G1 X71.015 Y122.231 E.01914
G1 X70.764 Y121.675 E.01913
G1 X70.666 Y121.074 E.01909
G1 X70.663 Y120.953 E.0038
G1 X70.73 Y120.445 E.01607
G1 X70.942 Y119.897 E.01842
G1 X71.297 Y119.402 E.0191
G1 X71.769 Y119.015 E.01914
G1 X72.325 Y118.764 E.01913
G1 X72.892 Y118.67 E.01802
G1 X73.522 Y118.725 E.01983
G1 X74.103 Y118.942 E.01945
G1 X74.598 Y119.297 E.0191
G1 X74.978 Y119.76 E.01878
G1 X75.232 Y120.317 E.01919
G1 X75.236 Y120.339 E.0007
M204 S1000
G1 X75.236 Y120.339 F10800
G1 X74.889 Y120.494
M204 S800
;TYPE:External perimeter
G1 F1200
G1 X74.959 Y120.969 E.01505
G1 X74.901 Y121.478 E.01606
G1 X74.713 Y121.948 E.01587
G1 X74.406 Y122.366 E.01626
G1 X74.001 Y122.685 E.01616
G1 X73.531 Y122.887 E.01604
G1 X73.025 Y122.96 E.01603
G1 X72.516 Y122.9 E.01607
G1 X72.041 Y122.71 E.01604
G1 X71.631 Y122.404 E.01604
G1 X71.315 Y122.001 E.01606
G1 X71.113 Y121.531 E.01604
G1 X71.039 Y120.984 E.01731
G1 X71.106 Y120.489 E.01566
G1 X71.298 Y120.024 E.01577
G1 X71.605 Y119.621 E.01588
G1 X72.007 Y119.308 E.01597
G1 X72.469 Y119.113 E.01572
G1 X72.964 Y119.043 E.01567
G1 X73.48 Y119.1 E.01628
G1 X73.959 Y119.29 E.01616
G1 X74.369 Y119.596 E.01604
G1 X74.679 Y119.99 E.01572
G1 X74.873 Y120.437 E.01528
M204 S1000
;WIPE_START
G1 F8640
G1 X74.889 Y120.494 E-.01367
G1 X74.959 Y120.969 E-.11086
G1 X74.901 Y121.478 E-.11829
G1 X74.713 Y121.948 E-.11688
G1 X74.406 Y122.366 E-.11975
G1 X74.001 Y122.685 E-.11904
G1 X73.531 Y122.887 E-.11812
G1 X73.173 Y122.939 E-.08339
;WIPE_END
G1 Z.6 F720
G1 X71.354 Y103.645 F10800
G1 Z.2 F720
G1 E.8 F2100
M204 S800
;TYPE:Perimeter
G1 F1200
G1 X71.015 Y103.231 E.01678
G1 X70.765 Y102.676 E.01909
G1 X70.666 Y102.074 E.01913
G1 X70.741 Y101.392 E.02151
G1 X70.942 Y100.897 E.01675
G1 X71.297 Y100.402 E.0191
G1 X71.769 Y100.015 E.01914
G1 X72.325 Y99.764 E.01913
G1 X72.892 Y99.67 E.01802
G1 X73.522 Y99.725 E.01983
G1 X74.043 Y99.917 E.01741
G1 X74.231 Y100.015 E.00665
G1 X74.635 Y100.328 E.01602
G1 X74.985 Y100.769 E.01765
G1 X75.208 Y101.258 E.01685
G1 X75.274 Y101.467 E.00687
G1 X75.338 Y101.963 E.01568
G1 X75.274 Y102.533 E.01798
G1 X75.058 Y103.103 E.01911
G1 X74.703 Y103.598 E.0191
G1 X74.231 Y103.985 E.01914
G1 X73.675 Y104.236 E.01913
G1 X73.074 Y104.334 E.01909
G1 X72.467 Y104.274 E.01912
G1 X71.897 Y104.058 E.01911
G1 X71.402 Y103.703 E.0191
G1 X71.392 Y103.691 E.00049
M204 S1000
G1 X71.392 Y103.691 F10800
G1 X71.616 Y103.384
M204 S800
;TYPE:External perimeter
G1 F1200
G1 X71.315 Y103.001 E.01527
G1 X71.113 Y102.531 E.01604
G1 X71.04 Y102.025 E.01603
G1 X71.105 Y101.491 E.01687
G1 X71.297 Y101.027 E.01574
G1 X71.602 Y100.624 E.01585
G1 X71.999 Y100.315 E.01577
G1 X72.469 Y100.113 E.01604
G1 X72.966 Y100.043 E.01574
G1 X73.48 Y100.1 E.01621
G1 X73.959 Y100.29 E.01616
G1 X74.369 Y100.596 E.01604
G1 X74.685 Y100.999 E.01606
G1 X74.887 Y101.469 E.01604
G1 X74.96 Y101.975 E.01603
G1 X74.9 Y102.484 E.01607
G1 X74.71 Y102.959 E.01604
G1 X74.404 Y103.369 E.01604
G1 X74.001 Y103.685 E.01606
G1 X73.531 Y103.887 E.01604
G1 X73.025 Y103.96 E.01603
G1 X72.516 Y103.9 E.01607
G1 X72.041 Y103.71 E.01604
G1 X71.659 Y103.424 E.01496
M204 S1000
;WIPE_START
G1 F8640
G1 X71.616 Y103.384 E-.01356
G1 X71.315 Y103.001 E-.11248
G1 X71.113 Y102.531 E-.11812
G1 X71.04 Y102.025 E-.11805
G1 X71.105 Y101.491 E-.12421
G1 X71.297 Y101.027 E-.11595
G1 X71.602 Y100.624 E-.1167
G1 X71.878 Y100.408 E-.08093
;WIPE_END
G1 Z.6 F720
G1 X89.515 Y81.837 F10800
G1 Z.2 F720
G1 E.8 F2100
M204 S800
;TYPE:Perimeter
G1 F1200
G1 X89.736 Y82.325 E.0168
G1 X89.834 Y82.926 E.01909
G1 X89.774 Y83.533 E.01912
G1 X89.572 Y84.071 E.01802
G1 X89.209 Y84.59 E.01986
G1 X88.731 Y84.984 E.01942
G1 X88.175 Y85.236 E.01914
G1 X87.662 Y85.323 E.01631
G1 X87.426 Y85.334 E.00741
G1 X86.9 Y85.261 E.01665
G1 X86.397 Y85.058 E.01701
G1 X85.952 Y84.741 E.01713
G1 X85.797 Y84.598 E.00661
G1 X85.492 Y84.198 E.01577
G1 X85.264 Y83.675 E.01789
G1 X85.166 Y83.074 E.01909
G1 X85.226 Y82.467 E.01912
G1 X85.442 Y81.897 E.01911
G1 X85.797 Y81.402 E.0191
G1 X85.902 Y81.297 E.00466
G1 X86.397 Y80.942 E.0191
G1 X86.943 Y80.73 E.01836
G1 X87.466 Y80.666 E.01652
G1 X88.022 Y80.725 E.01753
G1 X88.603 Y80.942 E.01945
G1 X89.098 Y81.297 E.0191
G1 X89.485 Y81.769 E.01914
G1 X89.491 Y81.782 E.00045
M204 S1000
G1 X89.491 Y81.782 F10800
G1 X89.195 Y82.021
M204 S800
;TYPE:External perimeter
G1 F1200
G1 X89.21 Y82.041 E.00078
G1 X89.4 Y82.516 E.01604
G1 X89.46 Y83.025 E.01607
G1 X89.391 Y83.521 E.0157
G1 X89.201 Y83.967 E.0152
G1 X88.902 Y84.371 E.01576
G1 X88.502 Y84.685 E.01594
G1 X88.031 Y84.887 E.01607
G1 X87.525 Y84.96 E.01603
G1 X87.016 Y84.9 E.01607
G1 X86.541 Y84.71 E.01604
G1 X86.131 Y84.404 E.01604
G1 X85.815 Y84.001 E.01606
G1 X85.613 Y83.531 E.01604
G1 X85.54 Y83.025 E.01603
G1 X85.6 Y82.516 E.01607
G1 X85.79 Y82.041 E.01604
G1 X86.131 Y81.596 E.01758
G1 X86.541 Y81.29 E.01604
G1 X87.008 Y81.101 E.0158
G1 X87.487 Y81.044 E.01512
G1 X88.031 Y81.113 E.01719
G1 X88.501 Y81.315 E.01604
G1 X88.904 Y81.631 E.01606
G1 X89.159 Y81.973 E.01338
M204 S1000
;WIPE_START
G1 F8640
G1 X89.195 Y82.021 E-.01385
G1 X89.21 Y82.041 E-.00577
G1 X89.4 Y82.516 E-.11813
G1 X89.46 Y83.025 E-.11834
G1 X89.391 Y83.521 E-.11563
G1 X89.201 Y83.967 E-.11194
G1 X88.902 Y84.371 E-.11605
G1 X88.502 Y84.685 E-.11742
G1 X88.172 Y84.827 E-.08287
;WIPE_END
G1 Z.6 F720
G1 X34.397 Y104.247 F10800
G1 Z.2 F720
G1 E.8 F2100
M204 S800
;TYPE:Perimeter
G1 F1200
G1 X33.897 Y104.058 E.01676
G1 X33.402 Y103.703 E.0191
G1 X32.963 Y103.149 E.02216
G1 X32.764 Y102.675 E.01612
G1 X32.666 Y102.074 E.01909
G1 X32.726 Y101.467 E.01912
G1 X32.942 Y100.897 E.01911
G1 X33.297 Y100.402 E.0191
G1 X33.769 Y100.015 E.01914
G1 X34.325 Y99.764 E.01913
G1 X34.892 Y99.67 E.01802
G1 X35.522 Y99.725 E.01983
G1 X36.103 Y99.942 E.01945
G1 X36.598 Y100.297 E.0191
G1 X36.985 Y100.769 E.01914
G1 X37.236 Y101.325 E.01913
G1 X37.334 Y101.926 E.01909
G1 X37.274 Y102.533 E.01912
G1 X37.058 Y103.103 E.01911
G1 X36.703 Y103.598 E.0191
G1 X36.231 Y103.985 E.01914
G1 X35.675 Y104.236 E.01913
G1 X35.074 Y104.334 E.01909
G1 X34.467 Y104.274 E.01912
G1 X34.454 Y104.269 E.00044
M204 S1000
G1 X34.454 Y104.269 F10800
G1 X34.493 Y103.891
M204 S800
;TYPE:External perimeter
G1 F1200
G1 X34.041 Y103.71 E.01527
G1 X33.631 Y103.404 E.01604
G1 X33.297 Y102.974 E.01707
G1 X33.103 Y102.5 E.01606
G1 X33.038 Y102 E.01581
G1 X33.103 Y101.5 E.01581
G1 X33.297 Y101.026 E.01606
G1 X33.605 Y100.621 E.01595
G1 X34.01 Y100.307 E.01607
G1 X34.48 Y100.109 E.01599
G1 X34.987 Y100.044 E.01603
G1 X35.493 Y100.102 E.01597
G1 X35.959 Y100.29 E.01576
G1 X36.369 Y100.596 E.01604
G1 X36.685 Y100.999 E.01606
G1 X36.887 Y101.469 E.01604
G1 X36.96 Y101.975 E.01603
G1 X36.9 Y102.484 E.01607
G1 X36.71 Y102.958 E.01601
G1 X36.404 Y103.369 E.01607
G1 X36.001 Y103.685 E.01606
G1 X35.531 Y103.887 E.01604
G1 X35.025 Y103.96 E.01603
G1 X34.551 Y103.904 E.01497
M204 S1000
;WIPE_START
G1 F8640
G1 X34.493 Y103.891 E-.01372
G1 X34.041 Y103.71 E-.11242
G1 X33.631 Y103.404 E-.11813
G1 X33.297 Y102.974 E-.12572
G1 X33.103 Y102.5 E-.11826
G1 X33.038 Y102 E-.11642
G1 X33.103 Y101.5 E-.11642
G1 X33.233 Y101.184 E-.07891
;WIPE_END
G1 Z.6 F720
G1 X37.015 Y122.164 F10800
G1 Z.2 F720
G1 E.8 F2100
M204 S800
;TYPE:Perimeter
G1 F1200
G1 X36.703 Y122.598 E.01676
G1 X36.231 Y122.985 E.01914
G1 X35.675 Y123.236 E.01913
G1 X35.074 Y123.334 E.01909
G1 X34.467 Y123.274 E.01912
G1 X33.897 Y123.058 E.01911
G1 X33.402 Y122.703 E.0191
G1 X33.015 Y122.231 E.01914
G1 X32.778 Y121.707 E.01803
G1 X32.667 Y121.084 E.01984
G1 X32.726 Y120.467 E.01943
G1 X32.942 Y119.897 E.01911
G1 X33.297 Y119.402 E.0191
G1 X33.769 Y119.015 E.01914
G1 X34.325 Y118.764 E.01913
G1 X34.892 Y118.67 E.01802
G1 X35.522 Y118.725 E.01983
G1 X36.103 Y118.942 E.01945
G1 X36.598 Y119.297 E.0191
G1 X36.984 Y119.769 E.01912
G1 X37.236 Y120.325 E.01914
G1 X37.334 Y120.926 E.01909
G1 X37.274 Y121.533 E.01912
G1 X37.058 Y122.103 E.01911
G1 X37.05 Y122.115 E.00045
M204 S1000
G1 X37.05 Y122.115 F10800
G1 X36.695 Y121.979
M204 S800
;TYPE:External perimeter
G1 F1200
G1 X36.404 Y122.369 E.01526
G1 X36.001 Y122.685 E.01606
G1 X35.531 Y122.887 E.01604
G1 X35.025 Y122.96 E.01603
G1 X34.516 Y122.9 E.01607
G1 X34.041 Y122.71 E.01604
G1 X33.631 Y122.404 E.01604
G1 X33.315 Y122.001 E.01606
G1 X33.117 Y121.534 E.0159
G1 X33.04 Y121.028 E.01605
G1 X33.1 Y120.516 E.01616
G1 X33.29 Y120.041 E.01604
G1 X33.596 Y119.631 E.01604
G1 X33.999 Y119.315 E.01606
G1 X34.469 Y119.113 E.01604
G1 X34.964 Y119.043 E.01567
G1 X35.48 Y119.1 E.01628
G1 X35.959 Y119.29 E.01616
G1 X36.369 Y119.596 E.01604
G1 X36.685 Y119.998 E.01603
G1 X36.887 Y120.469 E.01607
G1 X36.96 Y120.975 E.01603
G1 X36.9 Y121.484 E.01607
G1 X36.723 Y121.926 E.01493
M204 S1000
;WIPE_START
G1 F8640
G1 X36.695 Y121.979 E-.01384
G1 X36.404 Y122.369 E-.11236
G1 X36.001 Y122.685 E-.11825
G1 X35.531 Y122.887 E-.11812
G1 X35.025 Y122.96 E-.11805
G1 X34.516 Y122.9 E-.11834
G1 X34.041 Y122.71 E-.11813
G1 X33.753 Y122.495 E-.08291
;WIPE_END
G1 Z.6 F720
G1 X44.247 Y131.603 F10800
G1 Z.2 F720
G1 E.8 F2100
M204 S800
;TYPE:Perimeter
G1 F1200
G1 X44.058 Y132.103 E.01676
G1 X43.703 Y132.598 E.0191
G1 X43.231 Y132.985 E.01914
G1 X42.675 Y133.236 E.01913
G1 X42.074 Y133.334 E.01909
G1 X41.467 Y133.274 E.01912
G1 X40.897 Y133.058 E.01911
G1 X40.402 Y132.703 E.0191
G1 X40.015 Y132.231 E.01914
G1 X39.778 Y131.707 E.01803
G1 X39.667 Y131.084 E.01984
G1 X39.747 Y130.374 E.0224
G1 X39.942 Y129.897 E.01616
G1 X40.297 Y129.402 E.0191
G1 X40.769 Y129.015 E.01914
G1 X41.325 Y128.764 E.01913
G1 X41.892 Y128.67 E.01802
G1 X42.522 Y128.725 E.01983
G1 X43.103 Y128.942 E.01945
G1 X43.598 Y129.297 E.0191
G1 X43.985 Y129.769 E.01914
G1 X44.236 Y130.325 E.01913
G1 X44.334 Y130.926 E.01909
G1 X44.274 Y131.533 E.01912
G1 X44.269 Y131.546 E.00044
M204 S1000
G1 X44.269 Y131.546 F10800
G1 X43.891 Y131.507
M204 S800
;TYPE:External perimeter
G1 F1200
G1 X43.71 Y131.959 E.01527
G1 X43.404 Y132.369 E.01604
G1 X43.001 Y132.685 E.01606
G1 X42.531 Y132.887 E.01604
G1 X42.025 Y132.96 E.01603
G1 X41.516 Y132.9 E.01607
G1 X41.041 Y132.71 E.01604
G1 X40.631 Y132.404 E.01604
G1 X40.315 Y132.001 E.01606
G1 X40.114 Y131.519 E.01637
M73 P0 R118
G1 X40.04 Y130.976 E.01718
G1 X40.107 Y130.485 E.01554
G1 X40.3 Y130.021 E.01576
G1 X40.612 Y129.614 E.01608
G1 X41.018 Y129.302 E.01605
G1 X41.49 Y129.106 E.01602
G1 X41.987 Y129.044 E.0157
G1 X42.486 Y129.1 E.01574
G1 X42.959 Y129.29 E.01598
G1 X43.369 Y129.596 E.01604
G1 X43.685 Y129.999 E.01606
G1 X43.887 Y130.469 E.01604
G1 X43.96 Y130.975 E.01603
G1 X43.904 Y131.449 E.01497
M204 S1000
;WIPE_START
G1 F8640
G1 X43.891 Y131.507 E-.01372
G1 X43.71 Y131.959 E-.11242
G1 X43.404 Y132.369 E-.11813
G1 X43.001 Y132.685 E-.11825
G1 X42.531 Y132.887 E-.11812
G1 X42.025 Y132.96 E-.11805
G1 X41.516 Y132.9 E-.11834
G1 X41.182 Y132.767 E-.08297
;WIPE_END
G1 Z.6 F720
G1 X15.787 Y75.787 F10800
G1 Z.2 F720
G1 E.8 F2100
M204 S800
;TYPE:Perimeter
G1 F1200
G1 X234.213 Y75.787 E6.84858
G1 X234.213 Y86.401 E.33279
G1 X234.213 Y94.406 E.25099
G1 X94.89 Y134.213 E4.54317
G1 X15.787 Y134.213 E2.48021
G1 X15.787 Y75.847 E1.83002
M204 S1000
G1 X15.41 Y75.41 F10800
M73 P1 R118
M204 S800
;TYPE:External perimeter
G1 F1200
G1 X234.59 Y75.41 E6.87222
G1 X234.59 Y86.401 E.34461
G1 X234.59 Y94.691 E.25993
G1 X94.943 Y134.59 E4.55373
G1 X15.41 Y134.59 E2.4937
G1 X15.41 Y75.47 E1.85366
M204 S1000
;WIPE_START
G1 F8640
G1 X15.41 Y75.41 E-.01385
G1 X18.815 Y75.41 E-.78615
;WIPE_END
G1 Z.6 F720
G1 X234.043 Y76.719 F10800
G1 Z.2 F720
G1 E.8 F2100
M204 S800
