; generated by PrusaSlicer 2.8.1+win64 on 2024-10-28 at 23:44:01 UTC


;
;
; 

; external perimeters extrusion width = 0.45mm
; perimeters extrusion width = 0.45mm
; infill extrusion width = 0.45mm
; solid infill extrusion width = 0.45mm
; top infill extrusion width = 0.45mm
; first layer extrusion width = 0.42mm

M73 P0 R111
M201 X9000 Y9000 Z500 E10000 ; sets maximum accelerations, mm/sec^2
M203 X500 Y500 Z12 E120 ; sets maximum feedrates, mm / sec
M204 S2000 T1500 ; sets acceleration (S) and retract acceleration (R), mm/sec^2
M205 X10.00 Y10.00 Z0.20 E4.50 ; sets the jerk limits, mm/sec
M205 S0 T0 ; sets the minimum extruding and travel feed rate, mm/sec

; printing object Base side plate 2.stl id:0 copy 0
; stop printing object Base side plate 2.stl id:0 copy 0

;TYPE:Custom
M862.3 P "MK2.5S" ; printer model check
M862.1 P0.4 ; nozzle diameter check
M115 U3.14.0 ; tell printer latest fw version
G90 ; use absolute coordinates
M83 ; extruder relative mode
M104 S215 ; set extruder temp
M140 S60 ; set bed temp
M190 S60 ; wait for bed temp
M109 S215 ; wait for extruder temp
G28 W ; home all without mesh bed level
G80 X82.6229 Y72.6229 W84.7542 H64.7542 ; mesh bed levelling

G1 Z0.2 F720
G1 Y-3 F1000 ; go outside print area
G92 E0
G1 X60 E9 F1000 ; intro line
G1 X100 E12.5 F1000 ; intro line

G92 E0
G21 ; set units to millimeters
G90 ; use absolute coordinates
M83 ; use relative distances for extrusion

M900 K0.05 ; Filament gcode LA 1.5
M900 K30 ; Filament gcode LA 1.0




M107
;LAYER_CHANGE
;Z:0.2
;HEIGHT:0.2
G1 E-.8 F2100
G1 Z.6 F720
G1 X83.202 Y73.752 F10800
G1 Z.2 F720
G1 E.8 F2100
M204 S800
;TYPE:Skirt/Brim
;WIDTH:0.42
G1 F1200
G1 X84.235 Y72.949 E.04102
G1 X85 Y72.811 E.02437
G1 X165 Y72.811 E2.50834
G1 X166.248 Y73.202 E.04101
G1 X167.051 Y74.235 E.04102
G1 X167.189 Y75 E.02437
G1 X167.189 Y135 E1.88126
G1 X166.798 Y136.248 E.04101
G1 X165.765 Y137.051 E.04102
G1 X165 Y137.189 E.02437
G1 X85 Y137.189 E2.50834
G1 X83.752 Y136.798 E.04101
G1 X82.949 Y135.765 E.04102
G1 X82.811 Y135 E.02437
G1 X82.811 Y75 E1.88126
G1 X83.184 Y73.809 E.03913
M204 S1000
;WIPE_START
G1 F8640
G1 X83.202 Y73.752 E-.0138
G1 X84.235 Y72.949 E-.30211
G1 X85 Y72.811 E-.17949
G1 X86.319 Y72.811 E-.3046
;WIPE_END
G1 Z.6 F720
; printing object Base side plate 2.stl id:0 copy 0
G1 X140.985 Y100.836 F10800
G1 Z.2 F720
G1 E.8 F2100
M204 S800
;TYPE:Perimeter
;WIDTH:0.419999
G1 F1200
G1 X141.297 Y100.402 E.01676
G1 X141.769 Y100.015 E.01914
G1 X142.325 Y99.764 E.01913
G1 X142.892 Y99.67 E.01802
G1 X143.522 Y99.725 E.01983
G1 X144.043 Y99.917 E.01741
G1 X144.231 Y100.015 E.00665
G1 X144.635 Y100.328 E.01602
G1 X144.985 Y100.769 E.01765
G1 X145.236 Y101.325 E.01913
G1 X145.334 Y101.926 E.01909
G1 X145.274 Y102.533 E.01912
G1 X145.058 Y103.103 E.01911
G1 X144.703 Y103.598 E.0191
G1 X144.231 Y103.985 E.01914
G1 X143.675 Y104.236 E.01913
G1 X143.074 Y104.334 E.01909
G1 X142.467 Y104.274 E.01912
G1 X141.897 Y104.058 E.01911
G1 X141.402 Y103.703 E.0191
G1 X141.015 Y103.231 E.01914
G1 X140.942 Y103.103 E.00462
G1 X140.748 Y102.631 E.016
G1 X140.666 Y102.074 E.01765
G1 X140.726 Y101.467 E.01912
G1 X140.942 Y100.897 E.01911
G1 X140.95 Y100.885 E.00045
M204 S1000
G1 X140.95 Y100.885 F10800
G1 X141.302 Y101.019
M204 S800
;TYPE:External perimeter
G1 F1200
G1 X141.602 Y100.624 E.01555
G1 X141.999 Y100.315 E.01577
G1 X142.469 Y100.113 E.01604
G1 X142.966 Y100.043 E.01574
G1 X143.48 Y100.1 E.01621
G1 X143.959 Y100.29 E.01616
G1 X144.369 Y100.596 E.01604
G1 X144.685 Y100.999 E.01606
G1 X144.887 Y101.469 E.01604
G1 X144.96 Y101.975 E.01603
G1 X144.9 Y102.484 E.01607
G1 X144.71 Y102.959 E.01604
G1 X144.404 Y103.369 E.01604
G1 X144.001 Y103.685 E.01606
G1 X143.531 Y103.887 E.01604
G1 X143.025 Y103.96 E.01603
G1 X142.516 Y103.9 E.01607
G1 X142.041 Y103.71 E.01604
G1 X141.631 Y103.404 E.01604
G1 X141.29 Y102.959 E.01758
G1 X141.101 Y102.492 E.0158
G1 X141.038 Y101.992 E.0158
G1 X141.105 Y101.491 E.01585
G1 X141.277 Y101.074 E.01414
M204 S1000
;WIPE_START
G1 F8640
G1 X141.302 Y101.019 E-.01395
G1 X141.602 Y100.624 E-.11453
G1 X141.999 Y100.315 E-.11616
G1 X142.469 Y100.113 E-.11812
G1 X142.966 Y100.043 E-.11589
G1 X143.48 Y100.1 E-.11941
G1 X143.959 Y100.29 E-.11899
G1 X144.247 Y100.505 E-.08295
;WIPE_END
G1 Z.6 F720
G1 X140.985 Y122.163 F10800
G1 Z.2 F720
G1 E.8 F2100
M204 S800
;TYPE:Perimeter
G1 F1200
G1 X140.778 Y121.707 E.0157
G1 X140.667 Y121.084 E.01984
G1 X140.725 Y120.475 E.01918
G1 X140.942 Y119.897 E.01936
G1 X141.015 Y119.769 E.00462
G1 X141.323 Y119.37 E.0158
G1 X141.769 Y119.015 E.01787
G1 X142.325 Y118.764 E.01913
G1 X142.892 Y118.67 E.01802
G1 X143.522 Y118.725 E.01983
G1 X144.103 Y118.942 E.01945
G1 X144.598 Y119.297 E.0191
G1 X144.985 Y119.769 E.01914
G1 X145.232 Y120.317 E.01885
G1 X145.333 Y120.92 E.01917
G1 X145.274 Y121.533 E.01931
G1 X145.061 Y122.098 E.01893
G1 X144.706 Y122.594 E.01912
G1 X144.231 Y122.985 E.01929
G1 X143.675 Y123.236 E.01913
G1 X143.074 Y123.334 E.01909
G1 X142.467 Y123.274 E.01912
G1 X141.897 Y123.058 E.01911
G1 X141.402 Y122.703 E.0191
G1 X141.015 Y122.231 E.01914
G1 X141.009 Y122.218 E.00045
M204 S1000
G1 X141.009 Y122.218 F10800
G1 X141.305 Y121.978
M204 S800
;TYPE:External perimeter
G1 F1200
G1 X141.117 Y121.533 E.01515
G1 X141.04 Y121.028 E.01602
G1 X141.099 Y120.524 E.01591
G1 X141.315 Y119.999 E.0178
G1 X141.623 Y119.603 E.01573
G1 X142.029 Y119.296 E.01596
G1 X142.491 Y119.105 E.01567
G1 X142.987 Y119.044 E.01567
M73 P0 R110
G1 X143.496 Y119.102 E.01606
G1 X143.971 Y119.296 E.01609
G1 X144.375 Y119.601 E.01587
G1 X144.685 Y119.999 E.01582
G1 X144.884 Y120.461 E.01577
G1 X144.959 Y120.969 E.0161
G1 X144.9 Y121.484 E.01625
G1 X144.712 Y121.954 E.01587
G1 X144.407 Y122.364 E.01602
G1 X144.001 Y122.685 E.01623
G1 X143.531 Y122.887 E.01604
G1 X143.025 Y122.96 E.01603
G1 X142.516 Y122.9 E.01607
G1 X142.041 Y122.71 E.01604
G1 X141.631 Y122.404 E.01604
G1 X141.336 Y122.029 E.01496
M204 S1000
;WIPE_START
G1 F8640
G1 X141.305 Y121.978 E-.01378
G1 X141.117 Y121.533 E-.11155
G1 X141.04 Y121.028 E-.11795
G1 X141.099 Y120.524 E-.11717
G1 X141.315 Y119.999 E-.13108
G1 X141.623 Y119.603 E-.11584
G1 X142.029 Y119.296 E-.11753
G1 X142.33 Y119.172 E-.0751
;WIPE_END
G1 Z.6 F720
G1 X157.5 Y129.327 F10800
G1 Z.2 F720
G1 E.8 F2100
M204 S800
;TYPE:Perimeter
G1 F1200
G1 X156.967 Y129.274 E.01679
G1 X156.397 Y129.058 E.01911
G1 X155.902 Y128.703 E.0191
G1 X155.515 Y128.231 E.01914
G1 X155.278 Y127.707 E.01803
G1 X155.167 Y127.084 E.01984
G1 X155.226 Y126.473 E.01925
G1 X155.428 Y125.929 E.01819
G1 X155.791 Y125.41 E.01986
G1 X156.264 Y125.019 E.01924
G1 X156.396 Y124.942 E.00479
G1 X156.881 Y124.744 E.01643
G1 X157.392 Y124.67 E.01619
G1 X158.022 Y124.725 E.01983
G1 X158.603 Y124.942 E.01945
G1 X159.098 Y125.297 E.0191
G1 X159.485 Y125.769 E.01914
G1 X159.736 Y126.325 E.01913
G1 X159.834 Y126.926 E.01909
G1 X159.774 Y127.533 E.01912
G1 X159.572 Y128.071 E.01802
G1 X159.209 Y128.59 E.01986
G1 X158.731 Y128.985 E.01944
G1 X158.175 Y129.236 E.01913
G1 X157.574 Y129.334 E.01909
G1 X157.559 Y129.333 E.00047
M204 S1000
G1 X157.559 Y129.333 F10800
G1 X157.5 Y128.957
M204 S800
;TYPE:External perimeter
G1 F1200
G1 X157.475 Y128.96 E.00079
G1 X156.969 Y128.887 E.01603
G1 X156.499 Y128.685 E.01604
G1 X156.096 Y128.369 E.01606
G1 X155.79 Y127.959 E.01604
G1 X155.614 Y127.519 E.01486
G1 X155.539 Y127.02 E.01582
G1 X155.599 Y126.522 E.01573
G1 X155.787 Y126.052 E.01587
G1 X156.094 Y125.634 E.01626
G1 X156.541 Y125.29 E.01769
G1 X157.016 Y125.1 E.01604
G1 X157.487 Y125.044 E.01487
G1 X158.005 Y125.104 E.01635
G1 X158.501 Y125.315 E.0169
G1 X158.904 Y125.631 E.01606
G1 X159.21 Y126.041 E.01604
G1 X159.4 Y126.516 E.01604
G1 X159.46 Y127.025 E.01607
G1 X159.387 Y127.531 E.01603
G1 X159.201 Y127.967 E.01486
G1 X158.874 Y128.399 E.01699
G1 X158.459 Y128.71 E.01626
G1 X157.992 Y128.899 E.0158
G1 X157.56 Y128.95 E.01364
M204 S1000
;WIPE_START
G1 F8640
G1 X157.5 Y128.957 E-.01395
G1 X157.475 Y128.96 E-.00581
G1 X156.969 Y128.887 E-.11805
G1 X156.499 Y128.685 E-.11812
G1 X156.096 Y128.369 E-.11825
G1 X155.79 Y127.959 E-.11813
G1 X155.614 Y127.519 E-.10942
G1 X155.539 Y127.02 E-.11651
G1 X155.582 Y126.669 E-.08176
;WIPE_END
G1 Z.6 F720
G1 X155.489 Y84.161 F10800
G1 Z.2 F720
G1 E.8 F2100
M204 S800
;TYPE:Perimeter
G1 F1200
G1 X155.386 Y83.97 E.0068
G1 X155.241 Y83.575 E.01319
G1 X155.162 Y83.037 E.01705
G1 X155.226 Y82.467 E.01798
G1 X155.428 Y81.929 E.01802
G1 X155.791 Y81.41 E.01986
G1 X156.269 Y81.015 E.01944
G1 X156.825 Y80.764 E.01913
G1 X157.392 Y80.67 E.01802
G1 X158.022 Y80.725 E.01983
G1 X158.603 Y80.942 E.01945
G1 X159.098 Y81.297 E.0191
G1 X159.485 Y81.769 E.01914
G1 X159.736 Y82.325 E.01913
G1 X159.834 Y82.926 E.01909
G1 X159.774 Y83.533 E.01912
G1 X159.572 Y84.071 E.01802
G1 X159.209 Y84.59 E.01986
G1 X158.731 Y84.985 E.01944
G1 X158.175 Y85.236 E.01913
G1 X157.574 Y85.334 E.01909
G1 X156.967 Y85.274 E.01912
G1 X156.825 Y85.236 E.00461
G1 X156.333 Y85.027 E.01676
G1 X155.902 Y84.703 E.01691
G1 X155.555 Y84.283 E.01708
G1 X155.518 Y84.214 E.00245
M204 S1000
G1 X155.518 Y84.214 F10800
G1 X155.801 Y83.981
M204 S800
;TYPE:External perimeter
G1 F1200
G1 X155.8 Y83.98 E.00004
G1 X155.614 Y83.519 E.01559
G1 X155.538 Y83.012 E.01607
G1 X155.605 Y82.493 E.01641
G1 X155.799 Y82.033 E.01565
G1 X156.131 Y81.597 E.01718
G1 X156.541 Y81.29 E.01606
G1 X157.008 Y81.101 E.0158
G1 X157.487 Y81.044 E.01512
G1 X158.031 Y81.113 E.01719
G1 X158.501 Y81.315 E.01604
G1 X158.904 Y81.631 E.01606
G1 X159.21 Y82.041 E.01604
G1 X159.4 Y82.516 E.01604
G1 X159.46 Y83.025 E.01607
G1 X159.387 Y83.531 E.01603
G1 X159.201 Y83.967 E.01486
G1 X158.869 Y84.403 E.01718
G1 X158.459 Y84.71 E.01606
G1 X157.984 Y84.9 E.01604
G1 X157.475 Y84.96 E.01607
G1 X156.969 Y84.887 E.01603
G1 X156.499 Y84.686 E.01603
G1 X156.105 Y84.379 E.01566
G1 X155.838 Y84.029 E.0138
M204 S1000
;WIPE_START
G1 F8640
G1 X155.801 Y83.981 E-.01399
G1 X155.8 Y83.98 E-.00033
G1 X155.614 Y83.519 E-.11478
G1 X155.538 Y83.012 E-.11838
G1 X155.605 Y82.493 E-.12083
G1 X155.799 Y82.033 E-.11527
G1 X156.131 Y81.597 E-.12654
G1 X156.541 Y81.29 E-.11827
G1 X156.829 Y81.174 E-.07161
;WIPE_END
G1 Z.6 F720
G1 X102.753 Y101.397 F10800
G1 Z.2 F720
G1 E.8 F2100
M204 S800
;TYPE:Perimeter
G1 F1200
G1 X102.942 Y100.897 E.01676
G1 X103.297 Y100.402 E.0191
G1 X103.769 Y100.015 E.01914
G1 X104.325 Y99.764 E.01913
G1 X104.892 Y99.67 E.01802
G1 X105.522 Y99.725 E.01983
G1 X106.103 Y99.942 E.01945
G1 X106.598 Y100.297 E.0191
G1 X106.985 Y100.769 E.01914
G1 X107.236 Y101.325 E.01913
G1 X107.334 Y101.926 E.01909
G1 X107.274 Y102.533 E.01912
G1 X107.058 Y103.103 E.01911
G1 X106.703 Y103.598 E.0191
G1 X106.231 Y103.985 E.01914
G1 X105.675 Y104.236 E.01913
G1 X105.074 Y104.334 E.01909
G1 X104.467 Y104.274 E.01912
G1 X103.897 Y104.058 E.01911
G1 X103.402 Y103.703 E.0191
G1 X103.015 Y103.231 E.01914
G1 X102.764 Y102.675 E.01913
G1 X102.666 Y102.074 E.01909
G1 X102.726 Y101.467 E.01912
G1 X102.731 Y101.454 E.00044
M204 S1000
G1 X102.731 Y101.454 F10800
G1 X103.109 Y101.493
M204 S800
;TYPE:External perimeter
G1 F1200
G1 X103.29 Y101.041 E.01527
G1 X103.596 Y100.631 E.01604
G1 X103.999 Y100.315 E.01606
G1 X104.469 Y100.113 E.01604
G1 X104.964 Y100.043 E.01567
G1 X105.48 Y100.1 E.01628
G1 X105.959 Y100.29 E.01616
G1 X106.369 Y100.596 E.01604
G1 X106.685 Y100.999 E.01606
G1 X106.887 Y101.469 E.01604
G1 X106.96 Y101.975 E.01603
G1 X106.9 Y102.484 E.01607
G1 X106.71 Y102.959 E.01604
G1 X106.404 Y103.369 E.01604
G1 X106.001 Y103.685 E.01606
G1 X105.531 Y103.887 E.01604
G1 X105.025 Y103.96 E.01603
G1 X104.516 Y103.9 E.01607
G1 X104.041 Y103.71 E.01604
G1 X103.631 Y103.404 E.01604
G1 X103.315 Y103.001 E.01606
G1 X103.113 Y102.531 E.01604
G1 X103.04 Y102.025 E.01603
G1 X103.096 Y101.551 E.01497
M204 S1000
;WIPE_START
G1 F8640
G1 X103.109 Y101.493 E-.01372
G1 X103.29 Y101.041 E-.11242
G1 X103.596 Y100.631 E-.11813
G1 X103.999 Y100.315 E-.11825
G1 X104.469 Y100.113 E-.11812
G1 X104.964 Y100.043 E-.11543
G1 X105.48 Y100.1 E-.11987
G1 X105.818 Y100.234 E-.08406
;WIPE_END
G1 Z.6 F720
G1 X102.985 Y119.836 F10800
G1 Z.2 F720
G1 E.8 F2100
M204 S800
;TYPE:Perimeter
G1 F1200
G1 X103.297 Y119.402 E.01676
G1 X103.769 Y119.015 E.01914
G1 X104.325 Y118.764 E.01913
G1 X104.892 Y118.67 E.01802
G1 X105.522 Y118.725 E.01983
G1 X106.103 Y118.942 E.01945
G1 X106.598 Y119.297 E.0191
G1 X106.985 Y119.769 E.01914
G1 X107.236 Y120.325 E.01913
G1 X107.334 Y120.926 E.01909
G1 X107.274 Y121.533 E.01912
G1 X107.058 Y122.103 E.01911
G1 X106.703 Y122.598 E.0191
G1 X106.231 Y122.985 E.01914
G1 X105.675 Y123.236 E.01913
G1 X105.074 Y123.334 E.01909
G1 X104.467 Y123.274 E.01912
G1 X103.897 Y123.058 E.01911
G1 X103.402 Y122.703 E.0191
G1 X103.015 Y122.231 E.01914
G1 X102.778 Y121.707 E.01803
G1 X102.667 Y121.084 E.01984
G1 X102.726 Y120.467 E.01943
G1 X102.942 Y119.897 E.01911
G1 X102.95 Y119.885 E.00045
M204 S1000
G1 X102.95 Y119.885 F10800
G1 X103.305 Y120.021
M204 S800
;TYPE:External perimeter
G1 F1200
G1 X103.596 Y119.631 E.01526
G1 X103.999 Y119.315 E.01606
G1 X104.469 Y119.113 E.01604
G1 X104.964 Y119.043 E.01567
G1 X105.48 Y119.1 E.01628
G1 X105.959 Y119.29 E.01616
G1 X106.369 Y119.596 E.01604
G1 X106.685 Y119.999 E.01606
G1 X106.887 Y120.469 E.01604
G1 X106.96 Y120.975 E.01603
G1 X106.9 Y121.484 E.01607
G1 X106.71 Y121.959 E.01604
G1 X106.404 Y122.369 E.01604
G1 X106.001 Y122.685 E.01606
G1 X105.531 Y122.887 E.01604
G1 X105.025 Y122.96 E.01603
G1 X104.516 Y122.9 E.01607
G1 X104.041 Y122.71 E.01604
G1 X103.631 Y122.404 E.01604
G1 X103.315 Y122.001 E.01606
G1 X103.117 Y121.534 E.0159
G1 X103.04 Y121.028 E.01605
G1 X103.1 Y120.516 E.01616
G1 X103.277 Y120.074 E.01493
M204 S1000
;WIPE_START
G1 F8640
G1 X103.305 Y120.021 E-.01384
G1 X103.596 Y119.631 E-.11236
G1 X103.999 Y119.315 E-.11825
G1 X104.469 Y119.113 E-.11812
G1 X104.964 Y119.043 E-.11543
G1 X105.48 Y119.1 E-.11987
G1 X105.959 Y119.29 E-.11899
G1 X106.247 Y119.506 E-.08314
;WIPE_END
G1 Z.6 F720
G1 X111.398 Y128.752 F10800
G1 Z.2 F720
G1 E.8 F2100
M204 S800
;TYPE:Perimeter
G1 F1200
G1 X111.892 Y128.67 E.0157
G1 X112.522 Y128.725 E.01983
G1 X113.103 Y128.942 E.01945
G1 X113.598 Y129.297 E.0191
G1 X113.985 Y129.769 E.01914
G1 X114.236 Y130.325 E.01913
G1 X114.334 Y130.926 E.01909
G1 X114.274 Y131.533 E.01912
G1 X114.072 Y132.071 E.01802
G1 X113.709 Y132.59 E.01986
G1 X113.598 Y132.703 E.00497
G1 X113.103 Y133.058 E.0191
G1 X112.557 Y133.27 E.01836
G1 X112 Y133.339 E.0176
G1 X111.467 Y133.274 E.01684
G1 X110.897 Y133.058 E.01911
G1 X110.402 Y132.703 E.0191
G1 X110.015 Y132.231 E.01914
G1 X109.764 Y131.675 E.01913
G1 X109.666 Y131.074 E.01909
G1 X109.726 Y130.467 E.01912
G1 X109.942 Y129.897 E.01911
G1 X110.297 Y129.402 E.0191
G1 X110.769 Y129.015 E.01914
G1 X111.325 Y128.764 E.01913
G1 X111.339 Y128.762 E.00044
M204 S1000
G1 X111.339 Y128.762 F10800
G1 X111.492 Y129.107
M204 S800
;TYPE:External perimeter
G1 F1200
G1 X111.504 Y129.102 E.00041
G1 X111.987 Y129.044 E.01525
G1 X112.486 Y129.1 E.01574
G1 X112.959 Y129.29 E.01598
G1 X113.369 Y129.596 E.01604
G1 X113.685 Y129.999 E.01606
G1 X113.887 Y130.469 E.01604
G1 X113.96 Y130.975 E.01603
G1 X113.9 Y131.484 E.01607
G1 X113.701 Y131.967 E.01638
G1 X113.369 Y132.403 E.01718
G1 X112.959 Y132.71 E.01606
G1 X112.492 Y132.899 E.0158
G1 X111.975 Y132.96 E.01632
G1 X111.469 Y132.887 E.01603
G1 X110.999 Y132.685 E.01604
G1 X110.596 Y132.369 E.01606
G1 X110.29 Y131.959 E.01604
G1 X110.1 Y131.484 E.01604
G1 X110.04 Y130.975 E.01607
G1 X110.11 Y130.477 E.01577
G1 X110.307 Y130.01 E.01589
G1 X110.621 Y129.605 E.01607
G1 X111.029 Y129.295 E.01607
G1 X111.437 Y129.129 E.01381
M204 S1000
;WIPE_START
G1 F8640
G1 X111.492 Y129.107 E-.01368
G1 X111.504 Y129.102 E-.003
G1 X111.987 Y129.044 E-.11233
G1 X112.486 Y129.1 E-.11594
G1 X112.959 Y129.29 E-.1177
G1 X113.369 Y129.596 E-.11813
G1 X113.685 Y129.999 E-.11825
G1 X113.887 Y130.469 E-.11812
G1 X113.938 Y130.824 E-.08285
;WIPE_END
G1 Z.6 F720
G1 X164.213 Y134.213 F10800
G1 Z.2 F720
G1 E.8 F2100
M204 S800
;TYPE:Perimeter
G1 F1200
G1 X85.787 Y134.213 E2.45899
G1 X85.787 Y75.787 E1.8319
G1 X164.213 Y75.787 E2.45899
G1 X164.213 Y78.904 E.09773
