; generated by PrusaSlicer 2.8.1+win64 on 2024-11-14 at 05:09:01 UTC


;
;
; 

; external perimeters extrusion width = 0.45mm
; perimeters extrusion width = 0.45mm
; infill extrusion width = 0.45mm
; solid infill extrusion width = 0.45mm
; top infill extrusion width = 0.45mm
; support material extrusion width = 0.35mm
; first layer extrusion width = 0.42mm

M73 P0 R55
M201 X9000 Y9000 Z500 E10000 ; sets maximum accelerations, mm/sec^2
M203 X500 Y500 Z12 E120 ; sets maximum feedrates, mm / sec
M204 S2000 T1500 ; sets acceleration (S) and retract acceleration (R), mm/sec^2
M205 X10.00 Y10.00 Z0.20 E4.50 ; sets the jerk limits, mm/sec
M205 S0 T0 ; sets the minimum extruding and travel feed rate, mm/sec

; printing object Conduit.stl id:0 copy 0
; stop printing object Conduit.stl id:0 copy 0

;TYPE:Custom
M862.3 P "MK2.5S" ; printer model check
M862.1 P0.4 ; nozzle diameter check
M115 U3.14.0 ; tell printer latest fw version
G90 ; use absolute coordinates
M83 ; extruder relative mode
M104 S215 ; set extruder temp
M140 S60 ; set bed temp
M190 S60 ; wait for bed temp
M109 S215 ; wait for extruder temp
G28 W ; home all without mesh bed level
G80 X107.251 Y87.2472 W35.4986 H39.6804 ; mesh bed levelling

G1 Z0.2 F720
G1 Y-3 F1000 ; go outside print area
G92 E0
G1 X60 E9 F1000 ; intro line
G1 X100 E12.5 F1000 ; intro line

G92 E0
G21 ; set units to millimeters
G90 ; use absolute coordinates
M83 ; use relative distances for extrusion

M900 K0.05 ; Filament gcode LA 1.5
M900 K30 ; Filament gcode LA 1.0




M107
;LAYER_CHANGE
;Z:0.2
;HEIGHT:0.2
G1 E-.8 F2100
G1 Z.6 F720
G1 X111.209 Y94.128 F10800
G1 Z.2 F720
G1 E.8 F2100
M204 S800
;TYPE:Skirt/Brim
;WIDTH:0.42
G1 F1200
G1 X112.627 Y92.536 E.06685
G1 X114.514 Y90.911 E.07808
G1 X115.48 Y90.241 E.03686
G1 X117.344 Y89.193 E.06705
G1 X119.657 Y88.268 E.07811
G1 X120.788 Y87.949 E.03685
G1 X122.891 Y87.562 E.06705
G1 X125.379 Y87.439 E.0781
G1 X127.692 Y87.641 E.0728
G1 X129.795 Y88.101 E.0675
G1 X131.061 Y88.512 E.04173
G1 X133.182 Y89.455 E.07278
G1 X135.161 Y90.669 E.07279
G1 X136.838 Y92.019 E.0675
G1 X137.787 Y92.952 E.04173
G1 X139.164 Y94.606 E.06748
G1 X139.921 Y95.727 E.04241
G1 X141.005 Y97.756 E.07213
G1 X141.771 Y99.767 E.06747
G1 X142.119 Y101.052 E.04174
G1 X142.474 Y103.175 E.06749
G1 X142.562 Y105.495 E.07279
G1 X142.474 Y106.823 E.04173
G1 X142.08 Y109.111 E.07279
G1 X137.359 Y124.912 E.51707
G1 X136.591 Y126.105 E.04449
G1 X134.902 Y126.739 E.05657
G1 X115.098 Y126.739 E.62094
G1 X113.734 Y126.347 E.0445
G1 X112.64 Y124.91 E.05663
G1 X108.068 Y109.658 E.49924
G1 X107.605 Y107.4 E.07227
G1 X107.44 Y105.084 E.0728
G1 X107.582 Y102.766 E.07282
G1 X108.029 Y100.488 E.07279
G1 X108.843 Y98.12 E.07851
G1 X109.799 Y96.206 E.06708
G1 X110.508 Y95.08 E.04172
G1 X111.173 Y94.176 E.03519
M204 S1000
G1 X111.173 Y94.176 F10800
G1 X111.477 Y94.399
M204 S800
G1 F1200
G1 X111.499 Y94.369 E.00117
G1 X112.9 Y92.796 E.06605
G1 X114.731 Y91.22 E.07575
G1 X115.676 Y90.564 E.03607
G1 X117.518 Y89.527 E.06628
G1 X119.762 Y88.63 E.07577
G1 X120.868 Y88.317 E.03604
G1 X122.947 Y87.935 E.06628
G1 X125.361 Y87.815 E.07578
G1 X127.481 Y87.991 E.0667
G1 X128.741 Y88.223 E.04017
G1 X130.785 Y88.813 E.0667
G1 X132.869 Y89.717 E.07123
G1 X134.816 Y90.887 E.07122
G1 X135.84 Y91.658 E.04019
G1 X137.405 Y93.098 E.06668
G1 X138.866 Y94.838 E.07124
G1 X139.585 Y95.899 E.04019
G1 X140.658 Y97.901 E.07122
G1 X141.415 Y99.89 E.06673
G1 X141.75 Y101.126 E.04015
G1 X142.1 Y103.225 E.06672
G1 X142.184 Y105.495 E.07122
G1 X142.1 Y106.773 E.04016
G1 X141.716 Y109.013 E.07126
G1 X136.998 Y124.804 E.51674
G1 X136.264 Y125.886 E.04099
G1 X134.902 Y126.362 E.04524
G1 X115.098 Y126.362 E.62094
G1 X113.85 Y125.971 E.04101
G1 X113.001 Y124.802 E.0453
G1 X108.396 Y109.423 E.50335
G1 X107.976 Y107.338 E.06669
G1 X107.817 Y105.071 E.07125
G1 X107.957 Y102.804 E.07122
G1 X108.396 Y100.575 E.07123
G1 X109.186 Y98.277 E.07619
G1 X110.13 Y96.386 E.06627
G1 X110.813 Y95.302 E.04017
G1 X111.441 Y94.447 E.03326
M204 S1000
;WIPE_START
G1 F8640
G1 X111.477 Y94.399 E-.01385
G1 X111.499 Y94.369 E-.00859
G1 X112.9 Y92.796 E-.48639
G1 X113.856 Y91.973 E-.29117
;WIPE_END
G1 Z.6 F720
; printing object Conduit.stl id:0 copy 0
G1 X115.683 Y117.358 F10800
G1 Z.2 F720
G1 E.8 F2100
M204 S800
;TYPE:Support material
G1 F1200
G1 X117.43 Y118.499 E.06542
G1 X119.238 Y119.365 E.06286
G1 X120.216 Y119.72 E.03262
G1 X122.231 Y120.228 E.06516
G1 X124.215 Y120.459 E.06263
G1 X125.264 Y120.477 E.0329
G1 X126.31 Y120.423 E.03284
G1 X128.276 Y120.129 E.06233
G1 X130.28 Y119.552 E.06539
G1 X131.241 Y119.167 E.03246
G1 X133.024 Y118.239 E.06302
G1 X134.902 Y116.893 E.07245
G1 X134.902 Y124.173 E.22826
G1 X115.098 Y124.173 E.62094
G1 X115.098 Y116.886 E.22848
G1 X115.639 Y117.322 E.02179
M204 S1000
;WIPE_START
G1 F8640
G1 X115.098 Y116.886 E-.16044
G1 X115.098 Y119.656 E-.63956
;WIPE_END
G1 Z.6 F720
G1 X134.217 Y124.004 F10800
G1 Z.2 F720
G1 E.8 F2100
M204 S800
G1 F1200
G1 X134.217 Y117.853 E.19286
G1 X133.799 Y118.14 E.0159
G1 X133.799 Y123.834 E.17853
G1 X133.38 Y123.834 E.01314
G1 X133.38 Y118.414 E.16994
G1 X132.961 Y118.664 E.0153
G1 X132.961 Y123.834 E.1621
G1 X132.542 Y123.834 E.01314
G1 X132.542 Y118.9 E.1547
G1 X132.123 Y119.121 E.01485
G1 X132.123 Y123.834 E.14777
G1 X131.704 Y123.834 E.01314
G1 X131.704 Y119.321 E.1415
G1 X131.285 Y119.516 E.01449
G1 X131.285 Y123.834 E.13539
G1 X130.866 Y123.834 E.01314
G1 X130.866 Y119.684 E.13012
G1 X130.447 Y119.851 E.01414
G1 X130.447 Y123.834 E.12488
G1 X130.028 Y123.834 E.01314
G1 X130.028 Y119.992 E.12046
G1 X129.609 Y120.128 E.01381
G1 X129.609 Y123.834 E.1162
G1 X129.19 Y123.834 E.01314
G1 X129.19 Y120.249 E.11241
G1 X128.771 Y120.356 E.01356
G1 X128.771 Y123.834 E.10905
G1 X128.352 Y123.834 E.01314
G1 X128.352 Y120.46 E.10579
G1 X127.933 Y120.537 E.01336
G1 X127.933 Y123.834 E.10338
G1 X127.514 Y123.834 E.01314
G1 X127.514 Y120.614 E.10096
G1 X127.095 Y120.674 E.01327
G1 X127.095 Y123.834 E.09908
G1 X126.676 Y123.834 E.01314
G1 X126.676 Y120.722 E.09757
G1 X126.257 Y120.768 E.01322
G1 X126.257 Y123.834 E.09613
G1 X125.838 Y123.834 E.01314
G1 X125.838 Y120.788 E.09551
G1 X125.419 Y120.809 E.01315
G1 X125.419 Y123.834 E.09485
G1 X125 Y123.834 E.01314
G1 X125 Y120.812 E.09475
G1 X124.581 Y120.805 E.01314
G1 X124.581 Y123.834 E.09497
G1 X124.162 Y123.834 E.01314
G1 X124.162 Y120.795 E.09529
G1 X123.743 Y120.76 E.01318
G1 X123.743 Y123.834 E.09638
G1 X123.324 Y123.834 E.01314
G1 X123.324 Y120.725 E.09748
G1 X122.905 Y120.672 E.01324
G1 X122.905 Y123.834 E.09914
G1 X122.486 Y123.834 E.01314
G1 X122.486 Y120.61 E.10109
G1 X122.067 Y120.542 E.01331
G1 X122.067 Y123.834 E.10322
G1 X121.648 Y123.834 E.01314
G1 X121.648 Y120.45 E.1061
G1 X121.229 Y120.359 E.01344
G1 X121.229 Y123.834 E.10896
G1 X120.81 Y123.834 E.01314
G1 X120.81 Y120.245 E.11253
G1 X120.391 Y120.124 E.01367
G1 X120.391 Y123.834 E.11632
G1 X119.972 Y123.834 E.01314
G1 X119.972 Y119.993 E.12043
G1 X119.553 Y119.841 E.01398
G1 X119.553 Y123.834 E.1252
G1 X119.134 Y123.834 E.01314
G1 X119.134 Y119.689 E.12996
G1 X118.715 Y119.506 E.01434
G1 X118.715 Y123.834 E.1357
G1 X118.296 Y123.834 E.01314
G1 X118.296 Y119.322 E.14147
G1 X117.877 Y119.114 E.01467
G1 X117.877 Y123.834 E.14799
G1 X117.458 Y123.834 E.01314
G1 X117.458 Y118.896 E.15483
G1 X117.039 Y118.661 E.01506
G1 X117.039 Y123.834 E.1622
G1 X116.62 Y123.834 E.01314
G1 X116.62 Y118.406 E.17019
G1 X116.201 Y118.138 E.01559
G1 X116.201 Y123.834 E.17859
G1 X115.783 Y123.834 E.01311
G1 X115.783 Y117.636 E.19433
M204 S1000
;WIPE_START
G1 F8640
M73 P1 R55
G1 X115.783 Y121.101 E-.8
;WIPE_END
G1 Z.6 F720
G1 X125.224 Y119.194 F10800
G1 Z.2 F720
G1 E.8 F2100
M204 S800
;TYPE:Perimeter
;WIDTH:0.419999
G1 F1200
G1 X124.771 Y119.202 E.01421
G1 X123.821 Y119.154 E.02982
G1 X122.897 Y119.047 E.02916
G1 X121.977 Y118.877 E.02933
G1 X121.059 Y118.645 E.02969
G1 X120.169 Y118.356 E.02934
G1 X119.296 Y118.006 E.02949
G1 X118.451 Y117.602 E.02937
G1 X117.632 Y117.141 E.02947
G1 X116.846 Y116.627 E.02945
G1 X116.095 Y116.063 E.02945
G1 X115.384 Y115.45 E.02943
G1 X114.714 Y114.791 E.02947
G1 X114.089 Y114.09 E.02945
G1 X113.512 Y113.348 E.02947
G1 X112.986 Y112.571 E.02942
G1 X112.511 Y111.76 E.02947
G1 X112.092 Y110.919 E.02946
G1 X111.729 Y110.053 E.02944
G1 X111.424 Y109.165 E.02944
G1 X111.178 Y108.258 E.02947
G1 X110.993 Y107.337 E.02945
G1 X110.869 Y106.406 E.02945
G1 X110.807 Y105.469 E.02944
G1 X110.807 Y104.529 E.02947
G1 X110.869 Y103.592 E.02944
G1 X110.993 Y102.661 E.02945
G1 X111.178 Y101.74 E.02945
G1 X111.424 Y100.833 E.02947
G1 X111.729 Y99.945 E.02944
G1 X112.092 Y99.079 E.02944
G1 X112.511 Y98.238 E.02946
G1 X112.986 Y97.427 E.02947
G1 X113.512 Y96.65 E.02942
G1 X114.089 Y95.908 E.02947
G1 X114.714 Y95.207 E.02945
G1 X115.384 Y94.548 E.02947
G1 X116.095 Y93.935 E.02943
G1 X116.846 Y93.371 E.02945
G1 X117.632 Y92.857 E.02945
G1 X118.451 Y92.396 E.02947
G1 X119.298 Y91.991 E.02944
G1 X120.17 Y91.642 E.02945
G1 X121.064 Y91.352 E.02947
G1 X121.974 Y91.121 E.02944
G1 X122.898 Y90.951 E.02946
G1 X123.831 Y90.843 E.02945
G1 X124.769 Y90.796 E.02945
G1 X125.708 Y90.812 E.02945
G1 X126.645 Y90.889 E.02948
G1 X127.573 Y91.029 E.02943
G1 X128.491 Y91.229 E.02946
G1 X129.394 Y91.489 E.02946
G1 X130.277 Y91.809 E.02945
G1 X131.137 Y92.186 E.02944
G1 X131.97 Y92.62 E.02945
G1 X132.773 Y93.107 E.02945
G1 X133.542 Y93.647 E.02946
G1 X134.274 Y94.236 E.02946
G1 X134.965 Y94.872 E.02945
G1 X135.613 Y95.553 E.02947
G1 X136.214 Y96.274 E.02943
G1 X136.766 Y97.034 E.02945
G1 X137.266 Y97.829 E.02945
G1 X137.713 Y98.655 E.02945
G1 X138.105 Y99.509 E.02946
G1 X138.439 Y100.387 E.02945
G1 X138.715 Y101.285 E.02946
G1 X138.93 Y102.199 E.02944
G1 X139.085 Y103.126 E.02947
G1 X139.178 Y104.06 E.02943
G1 X139.209 Y104.999 E.02946
G1 X139.178 Y105.938 E.02946
G1 X139.085 Y106.872 E.02943
G1 X138.93 Y107.799 E.02947
G1 X138.715 Y108.713 E.02944
G1 X138.439 Y109.611 E.02946
G1 X138.105 Y110.489 E.02945
G1 X137.713 Y111.343 E.02946
G1 X137.266 Y112.169 E.02945
G1 X136.766 Y112.964 E.02945
G1 X136.214 Y113.724 E.02945
G1 X135.612 Y114.445 E.02945
G1 X134.965 Y115.126 E.02945
G1 X134.274 Y115.762 E.02945
G1 X133.542 Y116.351 E.02946
G1 X132.773 Y116.891 E.02946
G1 X131.969 Y117.379 E.02949
G1 X131.138 Y117.811 E.02937
G1 X130.281 Y118.187 E.02934
G1 X129.385 Y118.511 E.02987
G1 X128.484 Y118.771 E.0294
G1 X127.573 Y118.97 E.02924
G1 X126.633 Y119.11 E.0298
G1 X125.706 Y119.186 E.02916
G1 X125.284 Y119.193 E.01323
M204 S1000
G1 X125.284 Y119.193 F10800
G1 X125.243 Y119.571
M204 S800
;TYPE:External perimeter
G1 F1200
G1 X124.765 Y119.579 E.01499
G1 X123.79 Y119.53 E.03061
G1 X122.841 Y119.42 E.02995
G1 X121.897 Y119.246 E.0301
G1 X120.954 Y119.007 E.0305
G1 X120.041 Y118.71 E.0301
G1 X119.145 Y118.352 E.03025
G1 X118.277 Y117.936 E.03018
G1 X117.436 Y117.463 E.03025
G1 X116.629 Y116.936 E.03022
G1 X115.859 Y116.356 E.03023
G1 X115.128 Y115.727 E.03024
G1 X114.441 Y115.051 E.03022
G1 X113.799 Y114.331 E.03025
G1 X113.207 Y113.57 E.03023
G1 X112.667 Y112.772 E.03021
G1 X112.18 Y111.939 E.03025
G1 X111.749 Y111.076 E.03025
G1 X111.376 Y110.187 E.03023
G1 X111.063 Y109.275 E.03023
G1 X110.811 Y108.344 E.03024
G1 X110.621 Y107.399 E.03022
G1 X110.494 Y106.443 E.03024
G1 X110.43 Y105.481 E.03023
G1 X110.43 Y104.517 E.03023
G1 X110.494 Y103.555 E.03023
G1 X110.621 Y102.599 E.03024
G1 X110.811 Y101.654 E.03022
G1 X111.063 Y100.723 E.03024
G1 X111.376 Y99.811 E.03023
G1 X111.749 Y98.922 E.03023
G1 X112.18 Y98.059 E.03025
G1 X112.667 Y97.226 E.03025
G1 X113.207 Y96.428 E.03021
G1 X113.799 Y95.667 E.03023
G1 X114.441 Y94.947 E.03025
G1 X115.128 Y94.271 E.03022
G1 X115.859 Y93.642 E.03024
G1 X116.629 Y93.062 E.03023
G1 X117.437 Y92.535 E.03025
G1 X118.277 Y92.062 E.03023
G1 X119.147 Y91.645 E.03025
G1 X120.042 Y91.287 E.03022
G1 X120.959 Y90.989 E.03023
G1 X121.894 Y90.753 E.03024
G1 X122.842 Y90.578 E.03023
G1 X123.8 Y90.467 E.03024
G1 X124.763 Y90.419 E.03023
G1 X125.727 Y90.435 E.03023
G1 X126.688 Y90.515 E.03024
G1 X127.642 Y90.658 E.03025
G1 X128.584 Y90.863 E.03023
G1 X129.51 Y91.131 E.03023
G1 X130.417 Y91.459 E.03024
G1 X131.3 Y91.846 E.03023
G1 X132.155 Y92.291 E.03022
G1 X132.98 Y92.792 E.03026
G1 X133.769 Y93.345 E.03021
G1 X134.52 Y93.95 E.03024
G1 X135.229 Y94.603 E.03022
G1 X135.894 Y95.302 E.03025
G1 X136.511 Y96.043 E.03023
G1 X137.078 Y96.823 E.03024
G1 X137.592 Y97.639 E.03024
G1 X138.051 Y98.487 E.03023
G1 X138.453 Y99.363 E.03022
G1 X138.796 Y100.264 E.03023
G1 X139.079 Y101.186 E.03024
G1 X139.3 Y102.125 E.03025
G1 X139.459 Y103.076 E.03023
G1 X139.554 Y104.035 E.03022
G1 X139.586 Y104.999 E.03024
G1 X139.554 Y105.963 E.03024
G1 X139.459 Y106.922 E.03022
G1 X139.3 Y107.873 E.03023
G1 X139.079 Y108.812 E.03025
G1 X138.796 Y109.734 E.03024
G1 X138.453 Y110.635 E.03023
G1 X138.051 Y111.511 E.03022
G1 X137.592 Y112.359 E.03023
G1 X137.078 Y113.175 E.03024
G1 X136.511 Y113.955 E.03024
G1 X135.894 Y114.696 E.03023
G1 X135.229 Y115.395 E.03025
G1 X134.52 Y116.048 E.03022
G1 X133.769 Y116.653 E.03024
G1 X132.979 Y117.206 E.03024
G1 X132.154 Y117.708 E.03028
G1 X131.301 Y118.151 E.03014
G1 X130.421 Y118.537 E.03013
G1 X129.501 Y118.87 E.03068
G1 X128.577 Y119.136 E.03015
G1 X127.642 Y119.34 E.03001
G1 X126.676 Y119.484 E.03062
G1 X125.725 Y119.563 E.02992
G1 X125.303 Y119.57 E.01323
M204 S1000
;WIPE_START
G1 F8640
G1 X125.243 Y119.571 E-.01386
G1 X124.765 Y119.579 E-.11039
G1 X123.79 Y119.53 E-.22541
G1 X122.841 Y119.42 E-.22059
G1 X121.897 Y119.246 E-.22164
G1 X121.863 Y119.237 E-.00811
;WIPE_END
G1 Z.6 F720
G1 X133.272 Y93.656 F10800
G1 Z.2 F720
G1 E.8 F2100
M204 S800
;TYPE:Solid infill
;WIDTH:0.422897
G1 F1200
G1 X135.071 Y95.454 E.08036
G1 X135.664 Y96.121 E.0282
G1 X136.228 Y96.845 E.029
G1 X136.825 Y97.746 E.03415
G1 X132.249 Y93.17 E.20447
G1 X131.404 Y92.691 E.03069
G1 X131.074 Y92.533 E.01156
G1 X137.471 Y98.93 E.28583
G1 X137.615 Y99.217 E.01015
G1 X137.899 Y99.894 E.0232
G1 X130.114 Y92.109 E.34785
G1 X129.725 Y91.954 E.01323
G1 X129.274 Y91.808 E.01498
G1 X138.199 Y100.732 E.39877
G1 X138.418 Y101.489 E.0249
M73 P1 R54
G1 X128.514 Y91.585 E.44253
G1 X127.809 Y91.417 E.0229
G1 X138.582 Y102.19 E.48136
G1 X138.706 Y102.851 E.02125
G1 X127.151 Y91.296 E.5163
G1 X126.536 Y91.218 E.01959
G1 X138.788 Y103.471 E.54747
G1 X138.837 Y104.057 E.01858
G1 X125.943 Y91.163 E.57613
G1 X125.378 Y91.135 E.01787
G1 X138.869 Y104.627 E.60283
G1 X138.869 Y105.164 E.01697
G1 X124.84 Y91.134 E.62687
G1 X124.311 Y91.144 E.01672
G1 X138.854 Y105.686 E.64979
G1 X138.821 Y106.19 E.01596
G1 X123.815 Y91.185 E.67048
G1 X123.324 Y91.231 E.01558
G1 X138.769 Y106.675 E.6901
G1 X138.705 Y107.15 E.01514
G1 X122.856 Y91.301 E.70817
G1 X122.395 Y91.377 E.01476
G1 X138.623 Y107.605 E.72511
G1 X138.533 Y108.052 E.01441
G1 X121.954 Y91.473 E.74079
G1 X121.518 Y91.574 E.01414
G1 X138.426 Y108.482 E.75549
G1 X138.311 Y108.905 E.01385
G1 X121.101 Y91.694 E.76901
G1 X120.685 Y91.816 E.0137
G1 X138.183 Y109.314 E.78185
G1 X138.045 Y109.714 E.01337
G1 X120.291 Y91.959 E.79331
G1 X119.896 Y92.102 E.01327
G1 X137.898 Y110.104 E.80437
G1 X137.74 Y110.483 E.01297
G1 X119.521 Y92.264 E.81407
G1 X119.147 Y92.428 E.0129
M73 P2 R54
G1 X137.577 Y110.857 E.82347
G1 X137.398 Y111.216 E.01267
G1 X118.786 Y92.604 E.83163
G1 X118.433 Y92.788 E.01258
G1 X137.219 Y111.574 E.8394
G1 X137.022 Y111.915 E.01244
G1 X118.086 Y92.979 E.84611
G1 X117.752 Y93.182 E.01235
G1 X136.824 Y112.254 E.85218
G1 X136.615 Y112.582 E.01229
G1 X117.417 Y93.385 E.85779
G1 X117.101 Y93.606 E.01218
G1 X136.398 Y112.902 E.86221
G1 X136.177 Y113.219 E.01221
G1 X116.785 Y93.828 E.86646
G1 X116.481 Y94.06 E.01208
G1 X135.941 Y113.521 E.86954
G1 X135.706 Y113.823 E.01209
G1 X116.183 Y94.3 E.87233
G1 X115.889 Y94.544 E.01207
G1 X135.456 Y114.111 E.8743
G1 X135.203 Y114.395 E.01202
G1 X115.61 Y94.801 E.87548
G1 X115.33 Y95.059 E.01203
G1 X134.943 Y114.672 E.87636
G1 X134.672 Y114.938 E.012
G1 X115.064 Y95.331 E.87611
G1 X114.802 Y95.606 E.012
G1 X134.401 Y115.205 E.87573
G1 X134.112 Y115.453 E.01203
G1 X114.547 Y95.888 E.87421
G1 X114.303 Y96.182 E.01207
G1 X133.824 Y115.702 E.87222
