; generated by PrusaSlicer 2.8.1+win64 on 2024-11-06 at 01:24:47 UTC


;
;
; 

; external perimeters extrusion width = 0.45mm
; perimeters extrusion width = 0.45mm
; infill extrusion width = 0.45mm
; solid infill extrusion width = 0.45mm
; top infill extrusion width = 0.45mm
; first layer extrusion width = 0.42mm

M73 P0 R29
M201 X9000 Y9000 Z500 E10000 ; sets maximum accelerations, mm/sec^2
M203 X500 Y500 Z12 E120 ; sets maximum feedrates, mm / sec
M204 S2000 T1500 ; sets acceleration (S) and retract acceleration (R), mm/sec^2
M205 X10.00 Y10.00 Z0.20 E4.50 ; sets the jerk limits, mm/sec
M205 S0 T0 ; sets the minimum extruding and travel feed rate, mm/sec

; printing object DIY CNC Pen Plotter with Automatic Tool Change - STEP file v5.stl id:0 copy 0
; stop printing object DIY CNC Pen Plotter with Automatic Tool Change - STEP file v5.stl id:0 copy 0

;TYPE:Custom
M862.3 P "MK2.5S" ; printer model check
M862.1 P0.4 ; nozzle diameter check
M115 U3.14.0 ; tell printer latest fw version
G90 ; use absolute coordinates
M83 ; extruder relative mode
M104 S215 ; set extruder temp
M140 S60 ; set bed temp
M190 S60 ; wait for bed temp
M109 S215 ; wait for extruder temp
G28 W ; home all without mesh bed level
G80 X97.7644 Y96.5729 W54.4713 H16.8542 ; mesh bed levelling

G1 Z0.2 F720
G1 Y-3 F1000 ; go outside print area
G92 E0
G1 X60 E9 F1000 ; intro line
G1 X100 E12.5 F1000 ; intro line
M73 P0 R28

G92 E0
G21 ; set units to millimeters
G90 ; use absolute coordinates
M83 ; use relative distances for extrusion

M900 K0.05 ; Filament gcode LA 1.5
M900 K30 ; Filament gcode LA 1.0




M107
;LAYER_CHANGE
;Z:0.2
;HEIGHT:0.2
G1 E-.8 F2100
G1 Z.6 F720
G1 X98.344 Y97.702 F10800
G1 Z.2 F720
G1 E.8 F2100
M204 S800
;TYPE:Skirt/Brim
;WIDTH:0.42
G1 F1200
G1 X99.377 Y96.899 E.04102
G1 X100.141 Y96.761 E.02434
G1 X149.859 Y96.761 E1.55887
G1 X151.107 Y97.152 E.04101
G1 X151.909 Y98.185 E.041
G1 X152.047 Y98.95 E.02437
G1 X152.047 Y111.05 E.37939
G1 X151.656 Y112.298 E.04101
G1 X150.623 Y113.101 E.04102
G1 X149.859 Y113.239 E.02434
G1 X100.141 Y113.239 E1.55887
G1 X98.893 Y112.848 E.04101
G1 X98.091 Y111.815 E.041
G1 X97.953 Y111.05 E.02437
G1 X97.953 Y98.95 E.37939
G1 X98.326 Y97.759 E.03913
M204 S1000
;WIPE_START
G1 F8640
G1 X98.344 Y97.702 E-.0138
G1 X99.377 Y96.899 E-.30211
G1 X100.141 Y96.761 E-.17926
G1 X101.461 Y96.761 E-.30483
;WIPE_END
G1 Z.6 F720
; printing object DIY CNC Pen Plotter with Automatic Tool Change - STEP file v5.stl id:0 copy 0
G1 X137.602 Y107.248 F10800
G1 Z.2 F720
G1 E.8 F2100
M204 S800
;TYPE:Perimeter
;WIDTH:0.419999
G1 F1200
G1 X137.074 Y107.334 E.01677
G1 X136.467 Y107.274 E.01912
G1 X135.897 Y107.058 E.01911
G1 X135.402 Y106.703 E.0191
G1 X135.04 Y106.263 E.01786
G1 X134.809 Y105.784 E.01667
G1 X134.726 Y105.533 E.00829
G1 X134.661 Y105 E.01684
G1 X134.691 Y104.735 E.00836
G1 X134.765 Y104.325 E.01306
G1 X134.997 Y103.808 E.01777
G1 X135.323 Y103.371 E.01709
G1 X135.769 Y103.015 E.01789
G1 X136.325 Y102.764 E.01913
G1 X136.893 Y102.67 E.01805
G1 X137.523 Y102.725 E.01983
G1 X138.103 Y102.942 E.01942
G1 X138.598 Y103.297 E.0191
G1 X138.985 Y103.769 E.01914
G1 X139.236 Y104.325 E.01913
G1 X139.334 Y104.926 E.01909
G1 X139.274 Y105.533 E.01912
G1 X139.058 Y106.103 E.01911
G1 X138.703 Y106.598 E.0191
G1 X138.231 Y106.985 E.01914
G1 X137.675 Y107.236 E.01913
G1 X137.661 Y107.238 E.00044
M204 S1000
G1 X137.661 Y107.238 F10800
G1 X137.507 Y106.892
M204 S800
;TYPE:External perimeter
G1 F1200
G1 X137.492 Y106.899 E.00052
G1 X136.977 Y106.961 E.01626
G1 X136.474 Y106.889 E.01593
G1 X136.006 Y106.691 E.01593
G1 X135.605 Y106.379 E.01593
G1 X135.297 Y105.974 E.01595
G1 X135.104 Y105.504 E.01593
G1 X135.038 Y105 E.01594
G1 X135.065 Y104.784 E.00683
G1 X135.158 Y104.361 E.01358
G1 X135.365 Y103.944 E.0146
G1 X135.631 Y103.597 E.01371
G1 X136.032 Y103.294 E.01576
G1 X136.499 Y103.103 E.01582
G1 X136.988 Y103.044 E.01544
G1 X137.531 Y103.113 E.01716
G1 X138.001 Y103.315 E.01604
G1 X138.404 Y103.631 E.01606
G1 X138.71 Y104.041 E.01604
G1 X138.9 Y104.516 E.01604
G1 X138.961 Y105.013 E.0157
G1 X138.887 Y105.531 E.01641
G1 X138.685 Y106.001 E.01604
G1 X138.369 Y106.404 E.01606
G1 X137.959 Y106.71 E.01604
G1 X137.563 Y106.87 E.01339
M204 S1000
;WIPE_START
G1 F8640
G1 X137.507 Y106.892 E-.01389
G1 X137.492 Y106.899 E-.00382
G1 X136.977 Y106.961 E-.11977
G1 X136.474 Y106.889 E-.11733
G1 X136.006 Y106.691 E-.11734
G1 X135.605 Y106.379 E-.11732
G1 X135.297 Y105.974 E-.11749
G1 X135.104 Y105.504 E-.11732
G1 X135.061 Y105.179 E-.07572
;WIPE_END
G1 Z.6 F720
G1 X149.072 Y110.263 F10800
G1 Z.2 F720
G1 E.8 F2100
M204 S800
;TYPE:Perimeter
G1 F1200
G1 X137.048 Y110.263 E.377
G1 X135.742 Y110.104 E.04125
G1 X134.557 Y109.655 E.03973
G1 X133.514 Y108.935 E.03974
G1 X132.673 Y107.986 E.03976
G1 X132.084 Y106.864 E.03973
G1 X131.781 Y105.634 E.03972
G1 X131.781 Y104.366 E.03976
G1 X132.084 Y103.136 E.03972
M73 P1 R28
G1 X132.673 Y102.014 E.03973
G1 X133.514 Y101.065 E.03976
G1 X134.557 Y100.345 E.03974
G1 X135.742 Y99.896 E.03973
G1 X137.048 Y99.737 E.04125
G1 X149.072 Y99.737 E.377
G1 X149.072 Y104.61 E.15279
G1 X149.072 Y110.203 E.17536
M204 S1000
G1 X149.072 Y110.203 F10800
G1 X149.449 Y110.64
M204 S800
;TYPE:External perimeter
G1 F1200
G1 X137.025 Y110.64 E.38955
G1 X135.651 Y110.473 E.0434
G1 X134.38 Y109.991 E.04262
G1 X133.262 Y109.219 E.0426
G1 X132.361 Y108.202 E.0426
G1 X131.729 Y106.999 E.04261
G1 X131.404 Y105.679 E.04262
G1 X131.404 Y104.321 E.04258
G1 X131.729 Y103.001 E.04262
G1 X132.361 Y101.798 E.04261
G1 X133.262 Y100.781 E.0426
G1 X134.38 Y100.009 E.0426
G1 X135.651 Y99.527 E.04262
G1 X137.025 Y99.36 E.0434
G1 X149.449 Y99.36 E.38955
G1 X149.449 Y104.61 E.16461
G1 X149.449 Y110.58 E.18718
M204 S1000
;WIPE_START
G1 F8640
G1 X149.449 Y110.64 E-.01385
G1 X146.044 Y110.64 E-.78615
;WIPE_END
G1 Z.6 F720
G1 X148.902 Y100.677 F10800
G1 Z.2 F720
G1 E.8 F2100
M204 S800
;TYPE:Solid infill
;WIDTH:0.423806
G1 F1200
G1 X148.301 Y100.076 E.02692
G1 X147.763 Y100.076 E.01704
G1 X148.732 Y101.046 E.04342
G1 X148.732 Y101.585 E.01707
G1 X147.224 Y100.076 E.06756
G1 X146.685 Y100.076 E.01707
G1 X148.732 Y102.123 E.09168
G1 X148.732 Y102.662 E.01707
G1 X146.147 Y100.076 E.1158
G1 X145.608 Y100.076 E.01707
G1 X148.732 Y103.201 E.13994
G1 X148.732 Y103.739 E.01704
G1 X145.069 Y100.076 E.16406
G1 X144.531 Y100.076 E.01704
G1 X148.732 Y104.278 E.18818
G1 X148.732 Y104.817 E.01707
G1 X143.992 Y100.076 E.21232
G1 X143.453 Y100.076 E.01707
G1 X148.732 Y105.355 E.23644
G1 X148.732 Y105.894 E.01707
G1 X142.915 Y100.076 E.26056
G1 X142.376 Y100.076 E.01707
G1 X148.732 Y106.433 E.2847
G1 X148.732 Y106.971 E.01704
G1 X141.837 Y100.076 E.30882
G1 X141.299 Y100.076 E.01704
G1 X148.732 Y107.51 E.33294
G1 X148.732 Y108.049 E.01707
G1 X140.76 Y100.076 E.35708
G1 X140.221 Y100.076 E.01707
G1 X148.732 Y108.587 E.3812
G1 X148.732 Y109.126 E.01707
G1 X139.683 Y100.076 E.40532
G1 X139.144 Y100.076 E.01707
G1 X148.732 Y109.665 E.42946
G1 X148.732 Y109.924 E.0082
G1 X148.453 Y109.924 E.00884
G1 X138.605 Y100.076 E.44108
G1 X138.067 Y100.076 E.01704
G1 X147.914 Y109.924 E.44106
G1 X147.375 Y109.924 E.01707
G1 X137.528 Y100.076 E.44106
G1 X136.998 Y100.085 E.01679
G1 X146.837 Y109.924 E.44068
G1 X146.298 Y109.924 E.01707
G1 X136.518 Y100.143 E.43806
G1 X136.037 Y100.202 E.01535
G1 X145.759 Y109.924 E.43544
G1 X145.221 Y109.924 E.01704
G1 X139.572 Y104.275 E.25301
G1 X139.368 Y103.758 E.0176
G1 X139.26 Y103.57 E.00687
G1 X138.966 Y103.187 E.01529
G1 X138.813 Y103.034 E.00685
G1 X138.43 Y102.74 E.01529
G1 X138.242 Y102.632 E.00687
G1 X137.726 Y102.429 E.01756
G1 X135.607 Y100.31 E.09491
G1 X135.216 Y100.458 E.01324
G1 X137.093 Y102.335 E.08407
G1 X136.864 Y102.332 E.00725
G1 X136.589 Y102.37 E.00879
G1 X134.826 Y100.606 E.07899
G1 X134.716 Y100.648 E.00373
G1 X134.487 Y100.806 E.00881
G1 X136.157 Y102.476 E.0748
G1 X135.771 Y102.628 E.01314
G1 X134.168 Y101.026 E.07177
G1 X133.849 Y101.246 E.01227
M73 P2 R28
G1 X135.445 Y102.841 E.07146
G1 X135.146 Y103.081 E.01214
G1 X133.574 Y101.509 E.07041
G1 X133.321 Y101.795 E.01209
G1 X134.901 Y103.375 E.07077
G1 X134.675 Y103.687 E.0122
G1 X133.068 Y102.08 E.07198
G1 X132.955 Y102.208 E.00541
G1 X132.852 Y102.403 E.00698
G1 X134.508 Y104.059 E.07417
G1 X134.447 Y104.203 E.00495
G1 X134.384 Y104.473 E.00878
G1 X132.667 Y102.756 E.0769
G1 X132.481 Y103.11 E.01266
G1 X134.326 Y104.954 E.08261
G1 X134.387 Y105.554 E.0191
G1 X132.202 Y103.369 E.09786
M204 S1000
;WIPE_START
G1 F8640
G1 X134.387 Y105.554 E-.7135
G1 X134.349 Y105.181 E-.0865
;WIPE_END
G1 Z.6 F720
G1 X139.474 Y104.716 F10800
G1 Z.2 F720
G1 E.8 F2100
M204 S800
G1 F1200
G1 X144.682 Y109.924 E.23326
G1 X144.143 Y109.924 E.01707
G1 X139.63 Y105.41 E.20216
G1 X139.609 Y105.586 E.00561
G1 X139.531 Y105.85 E.00872
G1 X143.605 Y109.924 E.18247
G1 X143.066 Y109.924 E.01707
G1 X139.373 Y106.231 E.16541
G1 X139.26 Y106.43 E.00725
G1 X139.162 Y106.558 E.00511
G1 X142.527 Y109.924 E.15074
G1 X141.989 Y109.924 E.01704
G1 X138.922 Y106.857 E.13737
G1 X138.631 Y107.105 E.01211
G1 X141.45 Y109.924 E.12626
G1 X140.911 Y109.924 E.01707
G1 X138.314 Y107.326 E.11634
G1 X137.942 Y107.493 E.01291
G1 X140.373 Y109.924 E.10888
G1 X139.834 Y109.924 E.01707
G1 X137.526 Y107.616 E.10337
G1 X137.049 Y107.677 E.01523
G1 X139.295 Y109.924 E.10062
G1 X138.757 Y109.924 E.01704
G1 X136.188 Y107.355 E.11506
M204 S1000
;WIPE_START
G1 F8640
G1 X138.638 Y109.804 E-.8
;WIPE_END
G1 Z.6 F720
G1 X138.388 Y110.093 F10800
G1 Z.2 F720
G1 E.8 F2100
M204 S800
G1 F1200
G1 X132.236 Y103.941 E.27554
G1 X132.129 Y104.373 E.0141
G1 X137.679 Y109.924 E.2486
G1 X137.141 Y109.924 E.01704
G1 X132.121 Y104.903 E.22486
G1 X132.121 Y105.442 E.01707
G1 X136.538 Y109.859 E.19783
G1 X135.925 Y109.785 E.01956
G1 X132.248 Y106.108 E.16469
G1 X132.404 Y106.743 E.02071
G1 X132.47 Y106.869 E.0045
G1 X135.099 Y109.498 E.11775
G1 X134.716 Y109.352 E.01298
G1 X133.744 Y108.682 E.03739
G1 X132.662 Y107.599 E.04848
M204 S1000
;WIPE_START
G1 F8640
G1 X133.744 Y108.682 E-.35349
G1 X134.716 Y109.352 E-.27259
G1 X135.099 Y109.498 E-.09464
G1 X134.856 Y109.255 E-.07928
;WIPE_END
G1 Z.6 F720
G1 X111.836 Y107.015 F10800
G1 Z.2 F720
G1 E.8 F2100
M204 S800
;TYPE:Perimeter
;WIDTH:0.419999
G1 F1200
G1 X111.402 Y106.703 E.01676
G1 X111.015 Y106.231 E.01914
G1 X110.765 Y105.675 E.01911
G1 X110.666 Y105.074 E.0191
G1 X110.726 Y104.467 E.01912
G1 X110.929 Y103.928 E.01806
G1 X111.291 Y103.41 E.01981
G1 X111.769 Y103.015 E.01944
G1 X111.897 Y102.942 E.00462
G1 X112.443 Y102.73 E.01836
G1 X112.944 Y102.666 E.01584
G1 X113.523 Y102.725 E.01825
G1 X114.103 Y102.942 E.01942
G1 X114.598 Y103.297 E.0191
G1 X114.96 Y103.737 E.01786
G1 X115.191 Y104.216 E.01667
G1 X115.274 Y104.467 E.00829
G1 X115.339 Y105 E.01684
G1 X115.274 Y105.533 E.01684
G1 X115.058 Y106.103 E.01911
G1 X114.703 Y106.598 E.0191
G1 X114.231 Y106.985 E.01914
G1 X113.675 Y107.236 E.01913
G1 X113.074 Y107.334 E.01909
G1 X112.467 Y107.274 E.01912
G1 X111.897 Y107.058 E.01911
G1 X111.885 Y107.05 E.00045
M204 S1000
G1 X111.885 Y107.05 F10800
G1 X112.021 Y106.695
M204 S800
;TYPE:External perimeter
G1 F1200
G1 X111.631 Y106.404 E.01526
G1 X111.315 Y106.001 E.01606
G1 X111.113 Y105.531 E.01604
G1 X111.04 Y105.025 E.01603
G1 X111.1 Y104.516 E.01607
G1 X111.3 Y104.032 E.01642
G1 X111.631 Y103.597 E.01714
G1 X112.041 Y103.29 E.01606
G1 X112.508 Y103.101 E.0158
G1 X112.988 Y103.044 E.01516
G1 X113.501 Y103.103 E.01619
G1 X113.968 Y103.294 E.01582
G1 X114.369 Y103.596 E.01574
G1 X114.685 Y103.999 E.01606
G1 X114.887 Y104.469 E.01604
G1 X114.96 Y104.975 E.01603
G1 X114.9 Y105.484 E.01607
G1 X114.71 Y105.959 E.01604
G1 X114.404 Y106.369 E.01604
G1 X114.001 Y106.685 E.01606
G1 X113.531 Y106.887 E.01604
G1 X113.025 Y106.96 E.01603
G1 X112.516 Y106.9 E.01607
G1 X112.074 Y106.723 E.01493
M204 S1000
;WIPE_START
G1 F8640
G1 X112.021 Y106.695 E-.01384
G1 X111.631 Y106.404 E-.11236
G1 X111.315 Y106.001 E-.11825
G1 X111.113 Y105.531 E-.11812
G1 X111.04 Y105.025 E-.11805
G1 X111.1 Y104.516 E-.11834
G1 X111.3 Y104.032 E-.12092
G1 X111.51 Y103.756 E-.08012
;WIPE_END
G1 Z.6 F720
G1 X100.929 Y99.737 F10800
G1 Z.2 F720
G1 E.8 F2100
M204 S800
;TYPE:Perimeter
G1 F1200
G1 X112.973 Y99.74 E.37763
G1 X114.258 Y99.896 E.04059
G1 X115.443 Y100.345 E.03973
G1 X116.486 Y101.065 E.03974
G1 X117.327 Y102.014 E.03976
G1 X117.916 Y103.136 E.03973
G1 X118.176 Y104.194 E.03416
G1 X118.219 Y104.544 E.01106
G1 X118.219 Y105.634 E.03418
G1 X117.916 Y106.864 E.03972
G1 X117.327 Y107.986 E.03973
G1 X116.486 Y108.935 E.03976
G1 X115.443 Y109.655 E.03974
G1 X114.258 Y110.104 E.03973
G1 X112.952 Y110.263 E.04125
G1 X100.929 Y110.263 E.37697
G1 X100.929 Y99.797 E.32815
M204 S1000
G1 X100.929 Y99.797 F10800
G1 X100.551 Y99.36
M204 S800
;TYPE:External perimeter
G1 F1200
G1 X112.995 Y99.362 E.39017
G1 X114.349 Y99.527 E.04277
G1 X115.62 Y100.009 E.04262
G1 X116.738 Y100.781 E.0426
G1 X117.639 Y101.798 E.0426
G1 X118.271 Y103.001 E.04261
G1 X118.596 Y104.321 E.04262
G1 X118.596 Y104.544 E.00699
G1 X118.596 Y105.679 E.03559
G1 X118.271 Y106.999 E.04262
G1 X117.639 Y108.202 E.04261
G1 X116.738 Y109.219 E.0426
G1 X115.62 Y109.991 E.0426
G1 X114.349 Y110.473 E.04262
G1 X112.975 Y110.64 E.0434
G1 X100.551 Y110.64 E.38955
G1 X100.551 Y99.42 E.35179
M204 S1000
;WIPE_START
G1 F8640
G1 X100.551 Y99.36 E-.01385
G1 X103.956 Y99.361 E-.78615
;WIPE_END
G1 Z.6 F720
G1 X115.59 Y100.652 F10800
G1 Z.2 F720
G1 E.8 F2100
M204 S800
;TYPE:Solid infill
;WIDTH:0.423806
G1 F1200
G1 X116.27 Y101.332 E.03046
G1 X117.045 Y102.208 E.03704
G1 X117.53 Y103.131 E.03302
G1 X114.901 Y100.502 E.11775
G1 X114.176 Y100.228 E.02455
G1 X114.075 Y100.215 E.00323
G1 X117.753 Y103.893 E.16473
G1 X117.879 Y104.408 E.01679
G1 X117.879 Y104.558 E.00475
G1 X113.462 Y100.141 E.19783
G1 X112.862 Y100.079 E.0191
G1 X117.879 Y105.097 E.22473
G1 X117.871 Y105.627 E.01679
G1 X112.323 Y100.079 E.24849
G1 X111.784 Y100.079 E.01707
G1 X117.764 Y106.059 E.26784
G1 X117.658 Y106.491 E.01409
M73 P3 R28
G1 X115.608 Y104.441 E.09182
G1 X115.674 Y105.046 E.01927
G1 X117.518 Y106.89 E.08259
G1 X117.333 Y107.244 E.01265
G1 X115.616 Y105.527 E.0769
G1 X115.553 Y105.797 E.00878
G1 X115.492 Y105.941 E.00495
G1 X117.148 Y107.597 E.07417
G1 X117.045 Y107.792 E.00698
G1 X116.932 Y107.92 E.00541
G1 X115.331 Y106.319 E.07171
G1 X115.101 Y106.627 E.01217
G1 X116.679 Y108.206 E.0707
G1 X116.426 Y108.491 E.01207
G1 X114.854 Y106.919 E.07041
G1 X114.555 Y107.159 E.01214
G1 X116.15 Y108.754 E.07144
G1 X115.832 Y108.974 E.01225
G1 X114.23 Y107.373 E.07173
G1 X113.844 Y107.525 E.01314
G1 X115.513 Y109.194 E.07475
G1 X115.284 Y109.352 E.00881
G1 X115.174 Y109.394 E.00373
G1 X113.41 Y107.63 E.07901
G1 X113.103 Y107.673 E.00982
G1 X112.915 Y107.673 E.00595
G1 X114.915 Y109.674 E.0896
M204 S1000
;WIPE_START
G1 F8640
G1 X112.915 Y107.673 E-.65325
G1 X113.103 Y107.673 E-.04341
G1 X113.41 Y107.63 E-.07158
G1 X113.507 Y107.727 E-.03176
;WIPE_END
G1 Z.6 F720
G1 X111.076 Y99.909 F10800
G1 Z.2 F720
G1 E.8 F2100
M204 S800
G1 F1200
G1 X113.554 Y102.387 E.11099
G1 X112.96 Y102.332 E.01889
G1 X110.707 Y100.078 E.10093
G1 X110.168 Y100.078 E.01707
G1 X112.473 Y102.384 E.10326
G1 X112.202 Y102.448 E.00882
G1 X112.058 Y102.507 E.00493
G1 X109.629 Y100.078 E.10879
G1 X109.09 Y100.078 E.01707
G1 X111.686 Y102.674 E.11627
G1 X111.368 Y102.895 E.01226
G1 X108.551 Y100.078 E.12617
G1 X108.013 Y100.078 E.01704
G1 X111.079 Y103.144 E.13732
G1 X110.842 Y103.446 E.01216
G1 X107.474 Y100.078 E.15085
G1 X106.935 Y100.078 E.01707
G1 X110.629 Y103.771 E.16543
G1 X110.469 Y104.15 E.01303
G1 X106.396 Y100.078 E.1824
G1 X105.858 Y100.078 E.01704
G1 X110.372 Y104.592 E.20218
G1 X110.326 Y105.085 E.01568
G1 X105.319 Y100.077 E.22428
G1 X104.78 Y100.077 E.01707
G1 X110.428 Y105.725 E.25297
G1 X110.632 Y106.242 E.0176
G1 X110.74 Y106.43 E.00687
G1 X111.034 Y106.813 E.01529
G1 X111.187 Y106.966 E.00685
G1 X111.57 Y107.26 E.01529
G1 X111.758 Y107.368 E.00687
G1 X112.275 Y107.572 E.0176
G1 X114.393 Y109.69 E.09486
G1 X114.176 Y109.772 E.00735
G1 X113.963 Y109.798 E.0068
G1 X104.241 Y100.077 E.43542
G1 X103.703 Y100.077 E.01704
