; generated by PrusaSlicer 2.8.1+win64 on 2024-10-28 at 23:46:16 UTC


;
;
; 

; external perimeters extrusion width = 0.45mm
; perimeters extrusion width = 0.45mm
; infill extrusion width = 0.45mm
; solid infill extrusion width = 0.45mm
; top infill extrusion width = 0.45mm
; first layer extrusion width = 0.42mm

M73 P0 R18
M201 X9000 Y9000 Z500 E10000 ; sets maximum accelerations, mm/sec^2
M203 X500 Y500 Z12 E120 ; sets maximum feedrates, mm / sec
M204 S2000 T1500 ; sets acceleration (S) and retract acceleration (R), mm/sec^2
M205 X10.00 Y10.00 Z0.20 E4.50 ; sets the jerk limits, mm/sec
M205 S0 T0 ; sets the minimum extruding and travel feed rate, mm/sec

; printing object GT2 Belt End Connector v2.stl id:0 copy 0
; stop printing object GT2 Belt End Connector v2.stl id:0 copy 0
; printing object GT2 Belt End Connector v2.stl id:0 copy 1
; stop printing object GT2 Belt End Connector v2.stl id:0 copy 1

;TYPE:Custom
M862.3 P "MK2.5S" ; printer model check
M862.1 P0.4 ; nozzle diameter check
M115 U3.14.0 ; tell printer latest fw version
G90 ; use absolute coordinates
M83 ; extruder relative mode
M104 S215 ; set extruder temp
M140 S60 ; set bed temp
M190 S60 ; wait for bed temp
M109 S215 ; wait for extruder temp
G28 W ; home all without mesh bed level
G80 X114.246 Y87.8458 W21.5083 H34.3083 ; mesh bed levelling

G1 Z0.2 F720
G1 Y-3 F1000 ; go outside print area
G92 E0
G1 X60 E9 F1000 ; intro line
G1 X100 E12.5 F1000 ; intro line

G92 E0
G21 ; set units to millimeters
G90 ; use absolute coordinates
M83 ; use relative distances for extrusion

M900 K0.05 ; Filament gcode LA 1.5
M900 K30 ; Filament gcode LA 1.0




M107
;LAYER_CHANGE
;Z:0.2
;HEIGHT:0.2
G1 E-.8 F2100
G1 Z.6 F720
G1 X114.827 Y89.237 F10800
G1 Z.2 F720
G1 E.8 F2100
M204 S800
;TYPE:Skirt/Brim
;WIDTH:0.42
G1 F1200
G1 X115.883 Y88.29 E.04447
G1 X117 Y88.034 E.03593
G1 X133 Y88.034 E.50167
G1 X134.363 Y88.427 E.04448
G1 X135.31 Y89.483 E.04447
G1 X135.566 Y90.6 E.03593
G1 X135.566 Y119.4 E.903
G1 X135.173 Y120.763 E.04448
G1 X134.117 Y121.71 E.04447
G1 X133 Y121.966 E.03593
G1 X117 Y121.966 E.50167
G1 X115.637 Y121.573 E.04448
G1 X114.69 Y120.517 E.04447
G1 X114.434 Y119.4 E.03593
G1 X114.434 Y90.6 E.903
G1 X114.81 Y89.294 E.04261
M73 P1 R18
M204 S1000
G1 X114.81 Y89.294 F10800
G1 X115.184 Y89.411
M204 S800
G1 F1200
G1 X115.202 Y89.352 E.00193
G1 X116.235 Y88.549 E.04102
G1 X117 Y88.411 E.02437
G1 X133 Y88.411 E.50167
G1 X134.248 Y88.802 E.04101
G1 X135.051 Y89.835 E.04102
G1 X135.189 Y90.6 E.02437
G1 X135.189 Y119.4 E.903
G1 X134.798 Y120.648 E.04101
G1 X133.765 Y121.451 E.04102
G1 X133 Y121.589 E.02437
G1 X117 Y121.589 E.50167
G1 X115.752 Y121.198 E.04101
G1 X114.949 Y120.165 E.04102
G1 X114.811 Y119.4 E.02437
G1 X114.811 Y90.6 E.903
G1 X115.166 Y89.469 E.03717
M204 S1000
;WIPE_START
G1 F8640
G1 X115.184 Y89.411 E-.01402
G1 X115.202 Y89.352 E-.01424
G1 X116.235 Y88.549 E-.30211
G1 X117 Y88.411 E-.17949
G1 X118.257 Y88.411 E-.29014
;WIPE_END
G1 Z.6 F720
; printing object GT2 Belt End Connector v2.stl id:0 copy 0
G1 X126.36 Y112.4 F10800
G1 Z.2 F720
G1 E.8 F2100
M204 S800
;TYPE:Perimeter
;WIDTH:0.419999
G1 F1200
G1 X126.324 Y112.346 E.00203
G1 X126.159 Y112.249 E.006
G1 X125.959 Y112.213 E.00637
G1 X117.787 Y112.213 E.25623
G1 X117.787 Y108.787 E.10742
G1 X132.213 Y108.787 E.45232
G1 X132.213 Y111.714 E.09177
G1 X132.213 Y118.613 E.21631
G1 X117.787 Y118.613 E.45232
G1 X117.787 Y114.959 E.11457
G1 X118.003 Y114.726 E.00996
G1 X118.16 Y114.875 E.00679
G1 X118.419 Y115.048 E.00977
G1 X118.736 Y115.154 E.01048
G1 X118.977 Y115.181 E.0076
G1 X119.435 Y115.116 E.0145
G1 X119.825 Y114.895 E.01405
G1 X120.003 Y114.726 E.0077
G1 X120.211 Y114.923 E.00898
G1 X120.419 Y115.048 E.00761
G1 X120.916 Y115.184 E.01616
G1 X121.435 Y115.116 E.01641
G1 X121.825 Y114.895 E.01405
G1 X122.003 Y114.726 E.0077
G1 X122.211 Y114.923 E.00898
G1 X122.419 Y115.048 E.00761
G1 X122.916 Y115.184 E.01616
G1 X123.435 Y115.116 E.01641
G1 X123.825 Y114.895 E.01405
G1 X124.003 Y114.726 E.0077
G1 X124.211 Y114.923 E.00898
G1 X124.419 Y115.048 E.00761
G1 X124.916 Y115.184 E.01616
G1 X125.346 Y115.139 E.01356
G1 X125.825 Y114.895 E.01685
G1 X126.004 Y114.725 E.00774
G1 X126.248 Y114.327 E.01464
G1 X126.33 Y114.272 E.0031
G1 X126.458 Y114.111 E.00645
G1 X126.525 Y113.844 E.00863
G1 X126.525 Y112.779 E.03339
G1 X126.498 Y112.606 E.00549
G1 X126.393 Y112.45 E.0059
M204 S1000
G1 X126.393 Y112.45 F10800
G1 X126.1 Y112.676
M204 S800
;TYPE:External perimeter
G1 F1200
G1 X126.081 Y112.634 E.00145
G1 X125.959 Y112.59 E.00407
G1 X117.41 Y112.59 E.26805
G1 X117.41 Y108.41 E.13106
G1 X132.59 Y108.41 E.47596
G1 X132.59 Y111.714 E.10359
M73 P2 R18
G1 X132.59 Y118.99 E.22813
G1 X117.41 Y118.99 E.47596
G1 X117.41 Y114.694 E.1347
G1 X117.64 Y114.562 E.00831
G1 X117.83 Y114.309 E.00992
G1 X117.939 Y114.06 E.00852
G1 X118.072 Y114.06 E.00417
G1 X118.179 Y114.347 E.0096
G1 X118.47 Y114.649 E.01315
G1 X118.856 Y114.797 E.01296
G1 X119.268 Y114.77 E.01295
G1 X119.631 Y114.572 E.01296
G1 X119.831 Y114.307 E.01041
G1 X119.939 Y114.06 E.00845
G1 X120.072 Y114.06 E.00417
G1 X120.179 Y114.347 E.0096
G1 X120.47 Y114.649 E.01315
G1 X120.856 Y114.797 E.01296
G1 X121.268 Y114.77 E.01295
G1 X121.631 Y114.572 E.01296
G1 X121.831 Y114.307 E.01041
G1 X121.939 Y114.06 E.00845
G1 X122.072 Y114.06 E.00417
G1 X122.179 Y114.347 E.0096
G1 X122.47 Y114.649 E.01315
G1 X122.856 Y114.797 E.01296
G1 X123.268 Y114.77 E.01295
G1 X123.631 Y114.572 E.01296
G1 X123.831 Y114.307 E.01041
G1 X123.939 Y114.06 E.00845
G1 X124.072 Y114.06 E.00417
G1 X124.179 Y114.347 E.0096
G1 X124.47 Y114.649 E.01315
G1 X124.856 Y114.797 E.01296
G1 X125.268 Y114.77 E.01295
G1 X125.631 Y114.572 E.01296
G1 X125.811 Y114.336 E.00931
G1 X125.934 Y114.073 E.0091
G1 X126.083 Y113.987 E.00539
G1 X126.148 Y113.844 E.00493
G1 X126.148 Y112.779 E.03339
G1 X126.126 Y112.731 E.00166
M204 S1000
;WIPE_START
G1 F8640
G1 X126.1 Y112.676 E-.01405
G1 X126.081 Y112.634 E-.01064
G1 X125.959 Y112.59 E-.02995
G1 X122.731 Y112.59 E-.74536
;WIPE_END
G1 Z.6 F720
G1 X131.275 Y108.957 F10800
G1 Z.2 F720
G1 E.8 F2100
M204 S800
;TYPE:Solid infill
;WIDTH:0.422963
G1 F1200
G1 X131.874 Y109.556 E.02677
G1 X131.874 Y110.093 E.01697
G1 X130.907 Y109.126 E.04322
G1 X130.369 Y109.126 E.017
G1 X131.874 Y110.631 E.06726
G1 X131.874 Y111.168 E.01697
G1 X129.832 Y109.126 E.09126
G1 X129.295 Y109.126 E.01697
G1 X131.874 Y111.705 E.11526
G1 X131.874 Y112.243 E.017
G1 X128.757 Y109.126 E.1393
G1 X128.22 Y109.126 E.01697
G1 X131.874 Y112.78 E.1633
G1 X131.874 Y113.318 E.017
G1 X127.682 Y109.126 E.18734
G1 X127.145 Y109.126 E.01697
G1 X131.874 Y113.855 E.21134
G1 X131.874 Y114.393 E.017
G1 X126.607 Y109.126 E.23538
G1 X126.07 Y109.126 E.01697
G1 X131.874 Y114.93 E.25938
G1 X131.874 Y115.468 E.017
G1 X125.532 Y109.126 E.28342
G1 X124.995 Y109.126 E.01697
G1 X131.874 Y116.005 E.30742
G1 X131.874 Y116.543 E.017
G1 X124.457 Y109.126 E.33147
G1 X123.92 Y109.126 E.01697
G1 X131.874 Y117.08 E.35547
G1 X131.874 Y117.618 E.017
G1 X123.382 Y109.126 E.37951
G1 X122.845 Y109.126 E.01697
G1 X125.592 Y111.874 E.12279
G1 X125.055 Y111.874 E.01697
G1 X122.308 Y109.126 E.12279
G1 X121.77 Y109.126 E.017
G1 X124.517 Y111.874 E.12279
G1 X123.98 Y111.874 E.01697
G1 X121.233 Y109.126 E.12279
G1 X120.695 Y109.126 E.017
G1 X123.442 Y111.874 E.12279
G1 X122.905 Y111.874 E.01697
G1 X120.158 Y109.126 E.12279
G1 X119.62 Y109.126 E.017
G1 X122.367 Y111.874 E.12279
G1 X121.83 Y111.874 E.01697
G1 X119.083 Y109.126 E.12279
G1 X118.545 Y109.126 E.017
G1 X121.292 Y111.874 E.12279
G1 X120.755 Y111.874 E.01697
G1 X118.126 Y109.245 E.11749
G1 X118.126 Y109.783 E.017
G1 X120.217 Y111.874 E.09345
G1 X119.68 Y111.874 E.01697
G1 X118.126 Y110.32 E.06945
G1 X118.126 Y110.857 E.01697
G1 X119.143 Y111.874 E.04545
G1 X118.605 Y111.874 E.017
G1 X117.957 Y111.225 E.02898
M204 S1000
;WIPE_START
G1 F8640
M73 P3 R18
G1 X118.605 Y111.874 E-.21177
G1 X119.143 Y111.874 E-.12423
G1 X118.126 Y110.857 E-.3321
G1 X118.126 Y110.32 E-.12399
G1 X118.15 Y110.344 E-.00791
;WIPE_END
G1 Z.6 F720
G1 X126.695 Y112.976 F10800
G1 Z.2 F720
G1 E.8 F2100
M204 S800
G1 F1200
G1 X131.874 Y118.155 E.23145
G1 X131.874 Y118.274 E.00376
G1 X131.455 Y118.274 E.01324
G1 X126.864 Y113.683 E.20517
G1 X126.838 Y114.068 E.01219
G1 X126.802 Y114.159 E.00309
G1 X130.917 Y118.274 E.1839
G1 X130.38 Y118.274 E.01697
G1 X126.592 Y114.486 E.16929
G1 X126.513 Y114.552 E.00325
G1 X126.362 Y114.793 E.00899
G1 X129.842 Y118.274 E.15554
G1 X129.305 Y118.274 E.01697
G1 X126.124 Y115.092 E.14218
G1 X125.8 Y115.306 E.01227
G1 X128.767 Y118.274 E.13262
G1 X128.23 Y118.274 E.01697
G1 X125.418 Y115.461 E.12569
G1 X124.94 Y115.522 E.01523
G1 X127.692 Y118.274 E.12299
G1 X127.155 Y118.274 E.01697
G1 X124.212 Y115.331 E.13152
G1 X123.998 Y115.188 E.00813
G1 X123.698 Y115.354 E.01083
G1 X126.617 Y118.274 E.13047
G1 X126.08 Y118.274 E.01697
G1 X123.293 Y115.487 E.12455
G1 X122.911 Y115.524 E.01213
G1 X122.77 Y115.501 E.00451
G1 X125.543 Y118.274 E.12393
G1 X125.005 Y118.274 E.017
G1 X121.947 Y115.216 E.13666
G1 X121.602 Y115.408 E.01248
G1 X124.468 Y118.274 E.12808
G1 X123.93 Y118.274 E.017
G1 X121.157 Y115.5 E.12395
G1 X120.911 Y115.524 E.00781
G1 X120.578 Y115.459 E.01072
G1 X123.393 Y118.274 E.1258
G1 X122.855 Y118.274 E.017
G1 X119.851 Y115.269 E.13427
G1 X119.552 Y115.436 E.01082
G1 X119.494 Y115.45 E.00189
G1 X122.318 Y118.274 E.1262
G1 X121.78 Y118.274 E.017
G1 X119.024 Y115.517 E.12319
G1 X118.643 Y115.481 E.01209
G1 X118.353 Y115.384 E.00966
G1 X121.243 Y118.274 E.12915
G1 X120.705 Y118.274 E.017
G1 X118.126 Y115.695 E.11526
G1 X118.126 Y116.232 E.01697
G1 X120.168 Y118.274 E.09126
G1 X119.63 Y118.274 E.017
G1 X118.126 Y116.77 E.06721
G1 X118.126 Y117.307 E.01697
G1 X119.093 Y118.274 E.04322
G1 X118.556 Y118.274 E.01697
G1 X117.957 Y117.675 E.02677
M204 S1000
;WIPE_START
G1 F8640
G1 X118.556 Y118.274 E-.1956
G1 X119.093 Y118.274 E-.12399
G1 X118.126 Y117.307 E-.31577
G1 X118.126 Y116.77 E-.12399
G1 X118.251 Y116.894 E-.04065
;WIPE_END
G1 Z.6 F720
; stop printing object GT2 Belt End Connector v2.stl id:0 copy 0
; printing object GT2 Belt End Connector v2.stl id:0 copy 1
G1 X126.36 Y95 F10800
G1 Z.2 F720
G1 E.8 F2100
M204 S800
;TYPE:Perimeter
;WIDTH:0.419999
G1 F1200
G1 X126.324 Y94.946 E.00203
G1 X126.159 Y94.849 E.006
G1 X125.959 Y94.813 E.00637
G1 X117.787 Y94.813 E.25623
G1 X117.787 Y91.387 E.10742
G1 X132.213 Y91.387 E.45232
G1 X132.213 Y94.314 E.09177
G1 X132.213 Y101.213 E.21631
G1 X117.787 Y101.213 E.45232
G1 X117.787 Y97.559 E.11457
G1 X118.003 Y97.326 E.00996
G1 X118.16 Y97.475 E.00679
G1 X118.419 Y97.648 E.00977
G1 X118.736 Y97.754 E.01048
G1 X118.977 Y97.781 E.0076
G1 X119.435 Y97.716 E.0145
G1 X119.825 Y97.495 E.01405
G1 X120.003 Y97.326 E.0077
G1 X120.211 Y97.523 E.00898
G1 X120.419 Y97.648 E.00761
G1 X120.916 Y97.784 E.01616
G1 X121.435 Y97.716 E.01641
G1 X121.825 Y97.495 E.01405
G1 X122.003 Y97.326 E.0077
G1 X122.211 Y97.523 E.00898
G1 X122.419 Y97.648 E.00761
G1 X122.916 Y97.784 E.01616
G1 X123.435 Y97.716 E.01641
G1 X123.825 Y97.495 E.01405
G1 X124.003 Y97.326 E.0077
G1 X124.211 Y97.523 E.00898
G1 X124.419 Y97.648 E.00761
G1 X124.916 Y97.784 E.01616
G1 X125.346 Y97.739 E.01356
G1 X125.825 Y97.495 E.01685
G1 X126.004 Y97.325 E.00774
G1 X126.248 Y96.927 E.01464
G1 X126.33 Y96.872 E.0031
G1 X126.458 Y96.711 E.00645
G1 X126.525 Y96.444 E.00863
G1 X126.525 Y95.379 E.03339
G1 X126.498 Y95.206 E.00549
G1 X126.393 Y95.05 E.0059
M204 S1000
G1 X126.393 Y95.05 F10800
G1 X126.1 Y95.276
M204 S800
;TYPE:External perimeter
G1 F1200
G1 X126.081 Y95.234 E.00145
G1 X125.959 Y95.19 E.00407
G1 X117.41 Y95.19 E.26805
G1 X117.41 Y91.01 E.13106
G1 X132.59 Y91.01 E.47596
M73 P4 R18
G1 X132.59 Y94.314 E.10359
G1 X132.59 Y101.59 E.22813
G1 X117.41 Y101.59 E.47596
G1 X117.41 Y97.294 E.1347
G1 X117.64 Y97.162 E.00831
G1 X117.83 Y96.909 E.00992
G1 X117.939 Y96.66 E.00852
G1 X118.072 Y96.66 E.00417
G1 X118.179 Y96.947 E.0096
G1 X118.47 Y97.249 E.01315
G1 X118.856 Y97.397 E.01296
G1 X119.268 Y97.37 E.01295
G1 X119.631 Y97.172 E.01296
G1 X119.831 Y96.907 E.01041
G1 X119.939 Y96.66 E.00845
G1 X120.072 Y96.66 E.00417
G1 X120.179 Y96.947 E.0096
G1 X120.47 Y97.249 E.01315
G1 X120.856 Y97.397 E.01296
G1 X121.268 Y97.37 E.01295
G1 X121.631 Y97.172 E.01296
G1 X121.831 Y96.907 E.01041
G1 X121.939 Y96.66 E.00845
G1 X122.072 Y96.66 E.00417
G1 X122.179 Y96.947 E.0096
G1 X122.47 Y97.249 E.01315
G1 X122.856 Y97.397 E.01296
G1 X123.268 Y97.37 E.01295
G1 X123.631 Y97.172 E.01296
G1 X123.831 Y96.907 E.01041
G1 X123.939 Y96.66 E.00845
G1 X124.072 Y96.66 E.00417
G1 X124.179 Y96.947 E.0096
G1 X124.47 Y97.249 E.01315
G1 X124.856 Y97.397 E.01296
G1 X125.268 Y97.37 E.01295
G1 X125.631 Y97.172 E.01296
G1 X125.811 Y96.936 E.00931
G1 X125.934 Y96.673 E.0091
G1 X126.083 Y96.587 E.00539
G1 X126.148 Y96.444 E.00493
G1 X126.148 Y95.379 E.03339
G1 X126.126 Y95.331 E.00166
M204 S1000
;WIPE_START
G1 F8640
G1 X126.1 Y95.276 E-.01405
G1 X126.081 Y95.234 E-.01064
G1 X125.959 Y95.19 E-.02995
G1 X122.731 Y95.19 E-.74536
;WIPE_END
G1 Z.6 F720
G1 X131.275 Y91.557 F10800
G1 Z.2 F720
G1 E.8 F2100
M204 S800
;TYPE:Solid infill
;WIDTH:0.422963
G1 F1200
G1 X131.874 Y92.156 E.02677
G1 X131.874 Y92.693 E.01697
G1 X130.907 Y91.726 E.04322
G1 X130.369 Y91.726 E.017
G1 X131.874 Y93.231 E.06726
G1 X131.874 Y93.768 E.01697
G1 X129.832 Y91.726 E.09126
G1 X129.295 Y91.726 E.01697
G1 X131.874 Y94.305 E.11526
G1 X131.874 Y94.843 E.017
G1 X128.757 Y91.726 E.1393
G1 X128.22 Y91.726 E.01697
G1 X131.874 Y95.38 E.1633
G1 X131.874 Y95.918 E.017
G1 X127.682 Y91.726 E.18734
G1 X127.145 Y91.726 E.01697
G1 X131.874 Y96.455 E.21134
G1 X131.874 Y96.993 E.017
M73 P4 R17
G1 X126.607 Y91.726 E.23538
G1 X126.07 Y91.726 E.01697
G1 X131.874 Y97.53 E.25938
G1 X131.874 Y98.068 E.017
G1 X125.532 Y91.726 E.28342
G1 X124.995 Y91.726 E.01697
G1 X131.874 Y98.605 E.30742
G1 X131.874 Y99.143 E.017
G1 X124.457 Y91.726 E.33147
G1 X123.92 Y91.726 E.01697
G1 X131.874 Y99.68 E.35547
G1 X131.874 Y100.218 E.017
G1 X123.382 Y91.726 E.37951
G1 X122.845 Y91.726 E.01697
G1 X125.592 Y94.474 E.12279
G1 X125.055 Y94.474 E.01697
G1 X122.308 Y91.726 E.12279
G1 X121.77 Y91.726 E.017
G1 X124.517 Y94.474 E.12279
G1 X123.98 Y94.474 E.01697
G1 X121.233 Y91.726 E.12279
G1 X120.695 Y91.726 E.017
G1 X123.442 Y94.474 E.12279
G1 X122.905 Y94.474 E.01697
G1 X120.158 Y91.726 E.12279
G1 X119.62 Y91.726 E.017
G1 X122.367 Y94.474 E.12279
G1 X121.83 Y94.474 E.01697
G1 X119.083 Y91.726 E.12279
G1 X118.545 Y91.726 E.017
G1 X121.292 Y94.474 E.12279
G1 X120.755 Y94.474 E.01697
G1 X118.126 Y91.845 E.11749
G1 X118.126 Y92.383 E.017
M73 P5 R17
G1 X120.217 Y94.474 E.09345
G1 X119.68 Y94.474 E.01697
G1 X118.126 Y92.92 E.06945
G1 X118.126 Y93.457 E.01697
G1 X119.143 Y94.474 E.04545
G1 X118.605 Y94.474 E.017
G1 X117.957 Y93.825 E.02898
M204 S1000
;WIPE_START
G1 F8640
G1 X118.605 Y94.474 E-.21177
G1 X119.143 Y94.474 E-.12423
G1 X118.126 Y93.457 E-.3321
G1 X118.126 Y92.92 E-.12399
G1 X118.15 Y92.944 E-.00791
;WIPE_END
G1 Z.6 F720
G1 X126.695 Y95.576 F10800
G1 Z.2 F720
G1 E.8 F2100
M204 S800
G1 F1200
G1 X131.874 Y100.755 E.23145
G1 X131.874 Y100.874 E.00376
G1 X131.455 Y100.874 E.01324
G1 X126.864 Y96.283 E.20517
G1 X126.838 Y96.668 E.01219
G1 X126.802 Y96.759 E.00309
G1 X130.917 Y100.874 E.1839
G1 X130.38 Y100.874 E.01697
G1 X126.592 Y97.086 E.16929
G1 X126.513 Y97.152 E.00325
G1 X126.362 Y97.393 E.00899
G1 X129.842 Y100.874 E.15554
G1 X129.305 Y100.874 E.01697
G1 X126.124 Y97.692 E.14218
G1 X125.8 Y97.906 E.01227
G1 X128.767 Y100.874 E.13262
G1 X128.23 Y100.874 E.01697
G1 X125.418 Y98.061 E.12569
G1 X124.94 Y98.122 E.01523
G1 X127.692 Y100.874 E.12299
G1 X127.155 Y100.874 E.01697
G1 X124.212 Y97.931 E.13152
G1 X123.998 Y97.788 E.00813
G1 X123.698 Y97.954 E.01083
G1 X126.617 Y100.874 E.13047
G1 X126.08 Y100.874 E.01697
G1 X123.293 Y98.087 E.12455
G1 X122.911 Y98.124 E.01213
G1 X122.77 Y98.101 E.00451
G1 X125.543 Y100.874 E.12393
G1 X125.005 Y100.874 E.017
G1 X121.947 Y97.816 E.13666
G1 X121.602 Y98.008 E.01248
G1 X124.468 Y100.874 E.12808
G1 X123.93 Y100.874 E.017
G1 X121.157 Y98.1 E.12395
G1 X120.911 Y98.124 E.00781
