; generated by PrusaSlicer 2.8.1+win64 on 2024-12-17 at 00:13:43 UTC


;
;
; 

; external perimeters extrusion width = 0.45mm
; perimeters extrusion width = 0.45mm
; infill extrusion width = 0.45mm
; solid infill extrusion width = 0.45mm
; top infill extrusion width = 0.40mm
; first layer extrusion width = 0.42mm

M73 P0 R168
M201 X9000 Y9000 Z500 E10000 ; sets maximum accelerations, mm/sec^2
M203 X500 Y500 Z12 E120 ; sets maximum feedrates, mm / sec
M204 S2000 T1500 ; sets acceleration (S) and retract acceleration (R), mm/sec^2
M205 X10.00 Y10.00 Z0.20 E4.50 ; sets the jerk limits, mm/sec
M205 S0 T0 ; sets the minimum extruding and travel feed rate, mm/sec

; printing object Hold Down Plate.stl id:0 copy 0
; stop printing object Hold Down Plate.stl id:0 copy 0

;TYPE:Custom
M862.3 P "MK2.5S" ; printer model check
M862.1 P0.4 ; nozzle diameter check
M115 U3.14.0 ; tell printer latest fw version
G90 ; use absolute coordinates
M83 ; extruder relative mode
M104 S215 ; set extruder temp
M140 S60 ; set bed temp
M190 S60 ; wait for bed temp
M109 S215 ; wait for extruder temp
G28 W ; home all without mesh bed level
G80 X1.82901 Y10.1403 W242.863 H197.271 ; mesh bed levelling

G1 Z0.2 F720
G1 Y-3 F1000 ; go outside print area
G92 E0
G1 X60 E9 F1000 ; intro line
G1 X100 E12.5 F1000 ; intro line

G92 E0
G21 ; set units to millimeters
G90 ; use absolute coordinates
M83 ; use relative distances for extrusion

M900 K0.05 ; Filament gcode LA 1.5
M900 K30 ; Filament gcode LA 1.0




M107
;LAYER_CHANGE
;Z:0.2
;HEIGHT:0.2
G1 E-.8 F2100
G1 Z.6 F720
G1 X79.974 Y108.726 F10800
G1 Z.2 F720
G1 E.8 F2100
M204 S800
;TYPE:Skirt/Brim
;WIDTH:0.42
G1 F1200
G1 X213.172 Y10.751 E5.18445
G1 X214.409 Y10.326 E.04101
G1 X215.668 Y10.683 E.04103
G1 X216.232 Y11.217 E.02435
G1 X244.081 Y49.078 E1.47366
G1 X244.506 Y50.315 E.04101
G1 X244.149 Y51.574 E.04103
G1 X243.615 Y52.138 E.02435
G1 X33.348 Y206.801 E8.18418
G1 X32.111 Y207.225 E.041
G1 X30.853 Y206.869 E.04099
G1 X30.289 Y206.334 E.02437
G1 X2.44 Y168.474 E1.47363
G1 X2.015 Y167.237 E.04101
G1 X2.372 Y165.978 E.04103
G1 X2.906 Y165.414 E.02435
G1 X79.926 Y108.761 E2.99785
M204 S1000
;WIPE_START
G1 F8640
G1 X79.974 Y108.726 E-.01372
G1 X82.717 Y106.708 E-.78628
;WIPE_END
G1 Z.6 F720
; printing object Hold Down Plate.stl id:0 copy 0
G1 X114.221 Y99.719 F10800
G1 Z.2 F720
G1 E.8 F2100
M204 S800
;TYPE:Perimeter
;WIDTH:0.419999
G1 F1200
G1 X114.425 Y100.475 E.02455
G1 X114.427 Y101.332 E.02687
G1 X114.207 Y102.161 E.02689
G1 X113.78 Y102.905 E.0269
G1 X113.175 Y103.512 E.02687
G1 X112.433 Y103.943 E.0269
G1 X111.605 Y104.167 E.02689
G1 X110.748 Y104.168 E.02687
G1 X109.919 Y103.948 E.02689
G1 X109.175 Y103.521 E.0269
G1 X108.568 Y102.916 E.02687
G1 X108.137 Y102.174 E.0269
G1 X107.931 Y101.415 E.02466
G1 X107.897 Y101.2 E.00682
G1 X107.912 Y100.489 E.0223
G1 X108.132 Y99.66 E.02689
G1 X108.559 Y98.917 E.02687
G1 X109.164 Y98.309 E.02689
G1 X109.906 Y97.878 E.0269
G1 X110.734 Y97.655 E.02689
G1 X110.88 Y97.638 E.00461
G1 X111.591 Y97.653 E.0223
G1 X112.42 Y97.873 E.02689
G1 X113.164 Y98.3 E.0269
G1 X113.771 Y98.905 E.02687
G1 X114.202 Y99.647 E.0269
G1 X114.206 Y99.661 E.00046
M204 S1000
G1 X114.206 Y99.661 F10800
G1 X113.878 Y99.853
M204 S800
;TYPE:External perimeter
G1 F1200
G1 X114.059 Y100.565 E.02303
G1 X114.05 Y101.325 E.02383
G1 X113.845 Y102.056 E.0238
G1 X113.457 Y102.71 E.02384
G1 X112.914 Y103.24 E.02379
G1 X112.251 Y103.613 E.02385
G1 X111.515 Y103.8 E.02381
G1 X110.755 Y103.791 E.02383
G1 X110.024 Y103.586 E.0238
G1 X109.371 Y103.198 E.02382
G1 X108.84 Y102.655 E.02381
G1 X108.468 Y101.992 E.02384
G1 X108.297 Y101.325 E.02159
G1 X108.289 Y100.497 E.02596
G1 X108.494 Y99.765 E.02383
G1 X108.882 Y99.112 E.02382
G1 X109.425 Y98.581 E.02381
G1 X110.088 Y98.209 E.02384
G1 X110.873 Y98.015 E.02535
G1 X111.584 Y98.03 E.0223
G1 X112.315 Y98.235 E.0238
G1 X112.968 Y98.623 E.02382
G1 X113.499 Y99.166 E.02381
G1 X113.854 Y99.798 E.02273
M204 S1000
;WIPE_START
G1 F8640
G1 X113.878 Y99.853 E-.01386
G1 X114.059 Y100.565 E-.16963
G1 X114.05 Y101.325 E-.1755
G1 X113.845 Y102.056 E-.1753
G1 X113.457 Y102.71 E-.17559
G1 X113.178 Y102.983 E-.09012
;WIPE_END
G1 Z.6 F720
G1 X205.599 Y29.42 F10800
G1 Z.2 F720
G1 E.8 F2100
M204 S800
;TYPE:Perimeter
G1 F1200
G1 X206.277 Y29.81 E.02452
G1 X206.822 Y30.349 E.02403
G1 X206.973 Y30.534 E.00749
G1 X207.315 Y31.156 E.02226
G1 X207.539 Y31.984 E.02689
G1 X207.541 Y32.842 E.0269
G1 X207.321 Y33.671 E.02689
G1 X206.894 Y34.414 E.02687
G1 X206.289 Y35.022 E.02689
G1 X205.547 Y35.452 E.02689
G1 X204.719 Y35.676 E.02689
G1 X203.862 Y35.678 E.02687
G1 X203.033 Y35.458 E.02689
G1 X202.289 Y35.031 E.0269
G1 X201.681 Y34.426 E.02689
G1 X201.251 Y33.684 E.02689
G1 X201.027 Y32.856 E.02689
G1 X201.025 Y31.998 E.0269
G1 X201.246 Y31.17 E.02687
G1 X201.673 Y30.426 E.0269
G1 X202.278 Y29.818 E.02689
G1 X203.02 Y29.388 E.02689
G1 X203.847 Y29.164 E.02686
G1 X204.705 Y29.162 E.0269
G1 X205.534 Y29.383 E.0269
G1 X205.547 Y29.39 E.00046
M204 S1000
G1 X205.547 Y29.39 F10800
G1 X205.45 Y29.758
M204 S800
;TYPE:External perimeter
G1 F1200
G1 X206.082 Y30.132 E.02303
G1 X206.642 Y30.716 E.02537
G1 X206.985 Y31.338 E.02227
G1 X207.173 Y32.075 E.02385
G1 X207.164 Y32.834 E.0238
G1 X206.959 Y33.566 E.02383
G1 X206.571 Y34.219 E.02382
G1 X206.028 Y34.75 E.02381
G1 X205.365 Y35.122 E.02384
G1 X204.629 Y35.31 E.02382
G1 X203.869 Y35.301 E.02383
G1 X203.138 Y35.096 E.0238
G1 X202.484 Y34.708 E.02384
G1 X201.953 Y34.164 E.02384
G1 X201.581 Y33.502 E.02381
G1 X201.393 Y32.766 E.02382
G1 X201.402 Y32.006 E.02383
G1 X201.608 Y31.275 E.02381
G1 X201.995 Y30.621 E.02383
G1 X202.539 Y30.09 E.02384
G1 X203.201 Y29.718 E.02381
G1 X203.938 Y29.53 E.02385
G1 X204.697 Y29.539 E.0238
G1 X205.395 Y29.735 E.02273
M204 S1000
;WIPE_START
G1 F8640
G1 X205.45 Y29.758 E-.01377
G1 X206.082 Y30.132 E-.16957
G1 X206.642 Y30.716 E-.18683
G1 X206.985 Y31.338 E-.16401
G1 X207.173 Y32.075 E-.17562
G1 X207.168 Y32.466 E-.0902
;WIPE_END
G1 Z.6 F720
G1 X236.394 Y49.499 F10800
G1 Z.2 F720
G1 E.8 F2100
M204 S800
;TYPE:Perimeter
G1 F1200
G1 X236.256 Y49.78 E.00982
G1 X33.373 Y199.022 E7.89696
G1 X33.164 Y199.118 E.00721
M73 P0 R167
G1 X32.952 Y199.126 E.00665
G1 X32.647 Y198.976 E.01066
G1 X32.582 Y198.902 E.00309
G1 X18.743 Y180.087 E.73232
G1 X18.589 Y179.744 E.01179
G1 X18.575 Y179.555 E.00594
G1 X17.532 Y177.85 E.06267
G1 X16.644 Y175.77 E.07091
G1 X16.048 Y173.503 E.0735
G1 X15.793 Y171.173 E.07349
G1 X15.813 Y170.569 E.01895
G1 X15.887 Y168.83 E.05457
G1 X16.326 Y166.527 E.07351
G1 X17.136 Y164.238 E.07613
G1 X18.241 Y162.171 E.07349
G1 X19.586 Y160.354 E.07088
G1 X21.304 Y158.637 E.07616
G1 X23.193 Y157.249 E.0735
G1 X25.267 Y156.156 E.07351
G1 X27.48 Y155.382 E.07351
G1 X29.783 Y154.944 E.0735
G1 X32.042 Y154.85 E.07089
G1 X34.456 Y155.109 E.07612
G1 X36.723 Y155.708 E.07352
G1 X38.801 Y156.597 E.07087
G1 X40.868 Y157.872 E.07615
G1 X42.595 Y159.331 E.07089
G1 X43.719 Y160.602 E.0532
G1 X43.98 Y160.55 E.00834
G1 X44.236 Y160.69 E.00915
G1 X51.689 Y170.809 E.39404
G1 X53.481 Y169.491 E.06975
G1 X51.878 Y167.313 E.08479
G1 X51.769 Y167.007 E.01018
G1 X51.789 Y166.824 E.00577
G1 X51.998 Y166.522 E.01152
G1 X60.496 Y160.272 E.33075
G1 X60.836 Y160.162 E.0112
G1 X61.123 Y160.243 E.00935
G1 X61.287 Y160.392 E.00695
G1 X62.889 Y162.571 E.0848
G1 X95.33 Y138.709 E1.26269
G1 X93.728 Y136.53 E.0848
G1 X93.634 Y136.329 E.00696
G1 X93.642 Y136.031 E.00935
G1 X93.848 Y135.739 E.0112
G1 X101.789 Y129.898 E.30908
G1 X102.129 Y129.788 E.0112
G1 X102.416 Y129.869 E.00935
G1 X102.58 Y130.019 E.00697
G1 X104.182 Y132.197 E.08477
G1 X229.146 Y40.279 E4.86394
G1 X229.347 Y40.186 E.00694
G1 X229.645 Y40.194 E.00935
G1 X229.872 Y40.326 E.00823
G1 X229.937 Y40.4 E.00309
G1 X236.302 Y49.054 E.33683
G1 X236.398 Y49.262 E.00718
G1 X236.405 Y49.442 E.00565
M204 S1000
G1 X236.405 Y49.442 F10800
G1 X236.025 Y49.383
M204 S800
;TYPE:External perimeter
G1 F1200
G1 X236.033 Y49.417 E.0011
G1 X235.983 Y49.519 E.00356
G1 X33.149 Y198.719 E7.89494
G1 X33.009 Y198.753 E.00452
G1 X32.886 Y198.678 E.00452
G1 X19.047 Y179.864 E.7323
G1 X18.952 Y179.595 E.00894
G1 X18.964 Y179.467 E.00403
G1 X17.879 Y177.701 E.06499
G1 X16.991 Y175.622 E.07088
G1 X16.413 Y173.408 E.07174
G1 X16.168 Y171.133 E.07174
G1 X16.189 Y170.585 E.01719
G1 X16.263 Y168.846 E.05457
G1 X16.696 Y166.599 E.07175
G1 X17.469 Y164.415 E.07264
G1 X18.544 Y162.395 E.07175
G1 X19.889 Y160.578 E.07088
G1 X21.528 Y158.94 E.07265
G1 X23.37 Y157.582 E.07175
G1 X25.392 Y156.512 E.07173
G1 X27.551 Y155.752 E.07177
G1 X29.771 Y155.324 E.07089
G1 X32.058 Y155.227 E.07177
G1 X34.361 Y155.474 E.07262
G1 X36.575 Y156.054 E.07176
G1 X38.653 Y156.943 E.07087
G1 X40.625 Y158.16 E.07266
G1 X42.351 Y159.619 E.07086
G1 X43.604 Y161.042 E.05945
G1 X43.733 Y160.947 E.00502
G1 X43.89 Y160.916 E.00502
G1 X43.997 Y160.987 E.00403
G1 X51.609 Y171.336 E.40281
G1 X54.008 Y169.572 E.09336
G1 X52.182 Y167.089 E.09664
G1 X52.152 Y166.926 E.0052
G1 X52.222 Y166.826 E.00383
G1 X60.719 Y160.575 E.33074
G1 X60.833 Y160.539 E.00375
G1 X60.983 Y160.615 E.00527
G1 X62.809 Y163.098 E.09664
G1 X95.857 Y138.789 E1.28633
G1 X94.031 Y136.307 E.09661
G1 X94.003 Y136.14 E.00531
G1 X94.071 Y136.043 E.00371
G1 X102.012 Y130.202 E.30908
G1 X102.126 Y130.165 E.00376
G1 X102.276 Y130.242 E.00529
G1 X104.102 Y132.725 E.09664
G1 X229.37 Y40.583 E4.87578
G1 X229.536 Y40.555 E.00528
M73 P1 R167
G1 X229.633 Y40.623 E.00371
G1 X235.999 Y49.277 E.33685
G1 X236.01 Y49.325 E.00154
M204 S1000
;WIPE_START
G1 F8640
G1 X236.025 Y49.383 E-.01383
G1 X236.033 Y49.417 E-.00807
G1 X235.983 Y49.519 E-.02623
G1 X233.36 Y51.448 E-.75187
;WIPE_END
G1 Z.6 F720
G1 X8.644 Y167.329 F10800
G1 Z.2 F720
G1 E.8 F2100
M204 S800
;TYPE:Perimeter
G1 F1200
G1 X8.649 Y167.255 E.00233
G1 X8.847 Y166.572 E.0223
G1 X8.906 Y166.437 E.00462
G1 X9.274 Y165.829 E.02228
G1 X9.879 Y165.221 E.02689
G1 X10.621 Y164.791 E.02689
G1 X11.448 Y164.567 E.02686
G1 X12.306 Y164.565 E.0269
G1 X13.135 Y164.785 E.02689
G1 X13.804 Y165.167 E.02415
G1 X13.994 Y165.305 E.00736
G1 X14.486 Y165.817 E.02226
G1 X14.917 Y166.559 E.0269
G1 X15.14 Y167.387 E.02689
G1 X15.142 Y168.245 E.0269
G1 X14.922 Y169.073 E.02686
G1 X14.495 Y169.817 E.0269
G1 X14.027 Y170.292 E.02091
G1 X13.771 Y170.512 E.01058
G1 X13.148 Y170.855 E.0223
G1 X12.664 Y170.994 E.01579
G1 X12.173 Y171.095 E.01572
G1 X11.463 Y171.081 E.02227
G1 X10.634 Y170.861 E.02689
G1 X9.89 Y170.433 E.02691
G1 X9.283 Y169.828 E.02687
G1 X8.852 Y169.087 E.02688
G1 X8.628 Y168.259 E.02689
G1 X8.621 Y167.667 E.01856
G1 X8.64 Y167.389 E.00874
M204 S1000
G1 X8.64 Y167.389 F10800
G1 X9.011 Y167.385
M204 S800
;TYPE:External perimeter
G1 F1200
G1 X9.229 Y166.632 E.02458
G1 X9.596 Y166.024 E.02227
G1 X10.14 Y165.493 E.02384
G1 X10.802 Y165.121 E.02381
G1 X11.539 Y164.933 E.02385
G1 X12.298 Y164.942 E.0238
G1 X13.03 Y165.147 E.02383
G1 X13.722 Y165.566 E.02536
G1 X14.214 Y166.079 E.02229
G1 X14.586 Y166.741 E.02381
G1 X14.774 Y167.477 E.02382
G1 X14.765 Y168.237 E.02383
G1 X14.56 Y168.968 E.0238
G1 X14.172 Y169.622 E.02384
G1 X13.766 Y170.02 E.01783
G1 X13.589 Y170.182 E.00752
G1 X12.966 Y170.525 E.0223
G1 X12.23 Y170.713 E.02382
G1 X11.47 Y170.704 E.02383
G1 X10.739 Y170.498 E.02381
G1 X10.085 Y170.111 E.02383
G1 X9.555 Y169.567 E.02381
G1 X9.182 Y168.905 E.02382
G1 X8.995 Y168.169 E.02381
G1 X9.003 Y167.444 E.02273
M204 S1000
;WIPE_START
G1 F8640
G1 X9.011 Y167.385 E-.01375
G1 X9.229 Y166.632 E-.18101
G1 X9.596 Y166.024 E-.16398
G1 X10.14 Y165.493 E-.17553
G1 X10.802 Y165.121 E-.17534
G1 X11.181 Y165.024 E-.09039
;WIPE_END
G1 Z.6 F720
G1 X50.915 Y165.862 F10800
G1 Z.2 F720
G1 E.8 F2100
M204 S800
;TYPE:Perimeter
G1 F1200
G1 X51.027 Y165.874 E.00353
G1 X51.331 Y165.765 E.01013
G1 X109.687 Y122.84 E2.27139
G1 X109.877 Y122.595 E.00972
M73 P1 R166
G1 X109.915 Y122.327 E.00849
G1 X109.807 Y122.05 E.00932
G1 X94.737 Y101.561 E.79747
G1 X214.301 Y13.615 E4.65376
G1 X241.217 Y50.207 E1.42427
G1 X32.219 Y203.937 E8.13478
G1 X5.303 Y167.345 E1.42427
G1 X35.469 Y145.156 E1.17415
G1 X50.54 Y165.644 E.79747
G1 X50.845 Y165.854 E.01161
G1 X50.855 Y165.856 E.00032
M204 S1000
G1 X50.855 Y165.856 F10800
G1 X50.995 Y165.482
M204 S800
;TYPE:External perimeter
G1 F1200
G1 X51.107 Y165.461 E.00357
G1 X109.464 Y122.537 E2.2714
G1 X109.539 Y122.409 E.00465
G1 X109.504 Y122.273 E.0044
G1 X94.21 Y101.481 E.80929
G1 X214.382 Y13.087 E4.67744
G1 X241.745 Y50.288 E1.44796
G1 X32.139 Y204.465 E8.15845
G1 X4.776 Y167.264 E1.44796
G1 X35.55 Y144.629 E1.19779
M73 P1 R165
G1 X50.844 Y165.421 E.80929
G1 X50.937 Y165.486 E.00356
M204 S1000
;WIPE_START
G1 F8640
G1 X50.995 Y165.482 E-.01342
G1 X51.107 Y165.461 E-.02631
G1 X53.759 Y163.51 E-.76027
;WIPE_END
G1 Z.6 F720
G1 X213.821 Y14.178 F10800
G1 Z.2 F720
G1 E.8 F2100
M204 S800
;TYPE:Solid infill
;WIDTH:0.420231
G1 F1200
G1 X215.611 Y15.967 E.0794
G1 X217.095 Y17.985 E.07859
G1 X213.635 Y14.526 E.15349
G1 X213.328 Y14.752 E.01196
G1 X218.579 Y20.003 E.23298
G1 X220.063 Y22.021 E.07859
G1 X213.02 Y14.978 E.31249
G1 X212.713 Y15.204 E.01196
G1 X221.548 Y24.039 E.392
G1 X223.032 Y26.056 E.07856
G1 X212.406 Y15.43 E.47146
G1 X212.098 Y15.656 E.01199
G1 X224.516 Y28.074 E.55097
G1 X226 Y30.092 E.07859
G1 X211.791 Y15.883 E.63044
G1 X211.483 Y16.109 E.01199
G1 X227.484 Y32.11 E.70995
G1 X228.969 Y34.128 E.07861
G1 X211.176 Y16.335 E.78946
G1 X210.868 Y16.561 E.01199
G1 X230.453 Y36.146 E.86896
G1 X231.937 Y38.163 E.07856
G1 X210.561 Y16.787 E.94843
G1 X210.253 Y17.013 E.01199
G1 X233.421 Y40.181 E1.02794
G1 X234.906 Y42.199 E.07861
G1 X209.946 Y17.239 E1.10745
G1 X209.638 Y17.466 E.012
G1 X236.39 Y44.217 E1.18693
G1 X237.874 Y46.235 E.07859
G1 X209.331 Y17.692 E1.26642
G1 X209.024 Y17.918 E.01196
G1 X239.358 Y48.252 E1.34589
G1 X240.743 Y50.135 E.07334
G1 X240.722 Y50.15 E.00081
G1 X208.716 Y18.144 E1.42007
G1 X208.409 Y18.37 E.01196
G1 X240.415 Y50.376 E1.42007
G1 X240.107 Y50.602 E.01199
G1 X231.619 Y42.114 E.3766
G1 X230.203 Y40.189 E.07497
G1 X229.999 Y39.99 E.00894
G1 X229.744 Y39.867 E.00888
G1 X229.491 Y39.829 E.00803
G1 X229.35 Y39.845 E.00445
G1 X208.101 Y18.596 E.94279
G1 X207.794 Y18.822 E.01196
M73 P2 R165
G1 X228.965 Y39.993 E.93933
G1 X228.656 Y40.218 E.01199
G1 X207.486 Y19.049 E.93927
G1 X207.179 Y19.275 E.01196
G1 X228.349 Y40.445 E.93929
G1 X228.041 Y40.671 E.01199
G1 X206.871 Y19.501 E.93929
G1 X206.564 Y19.727 E.01196
G1 X227.734 Y40.897 E.93929
G1 X227.426 Y41.123 E.01199
G1 X206.257 Y19.953 E.93927
G1 X205.949 Y20.179 E.01199
G1 X227.119 Y41.349 E.93929
G1 X226.811 Y41.575 E.01199
G1 X205.642 Y20.405 E.93927
G1 X205.334 Y20.632 E.012
G1 X226.504 Y41.801 E.93927
G1 X226.197 Y42.028 E.01198
G1 X205.027 Y20.858 E.93929
G1 X204.719 Y21.084 E.01199
G1 X225.889 Y42.254 E.93929
G1 X225.582 Y42.48 E.01196
G1 X204.412 Y21.31 E.93929
G1 X204.104 Y21.536 E.01199
G1 X225.274 Y42.706 E.93929
G1 X224.967 Y42.932 E.01196
G1 X203.797 Y21.762 E.93929
G1 X203.489 Y21.989 E.012
G1 X224.659 Y43.158 E.93927
G1 X224.352 Y43.385 E.01198
G1 X203.182 Y22.215 E.93929
G1 X202.875 Y22.441 E.01196
G1 X224.044 Y43.611 E.93927
G1 X223.737 Y43.837 E.01196
G1 X202.567 Y22.667 E.93929
G1 X202.26 Y22.893 E.01196
M73 P2 R164
G1 X223.43 Y44.063 E.93929
G1 X223.122 Y44.289 E.01199
G1 X201.952 Y23.119 E.93929
G1 X201.645 Y23.345 E.01196
G1 X222.815 Y44.515 E.93929
G1 X222.507 Y44.741 E.01199
G1 X201.337 Y23.572 E.93927
G1 X201.03 Y23.798 E.01196
G1 X222.2 Y44.968 E.93929
G1 X221.892 Y45.194 E.01199
G1 X207.499 Y30.801 E.6386
G1 X207.266 Y30.362 E.01559
G1 X207.136 Y30.186 E.00686
G1 X206.554 Y29.589 E.02616
G1 X205.876 Y29.178 E.02487
G1 X200.722 Y24.024 E.22868
G1 X200.415 Y24.25 E.01196
G1 X205.057 Y28.892 E.20596
G1 X204.722 Y28.823 E.01073
G1 X204.449 Y28.818 E.00857
G1 X200.108 Y24.476 E.19263
G1 X199.8 Y24.702 E.01199
G1 X203.915 Y28.817 E.18258
G1 X203.776 Y28.832 E.00439
G1 X203.472 Y28.907 E.00982
G1 X199.493 Y24.928 E.17654
G1 X199.185 Y25.155 E.012
G1 X203.046 Y29.015 E.17129
G1 X202.865 Y29.086 E.0061
G1 X202.683 Y29.186 E.00652
G1 X198.878 Y25.381 E.16882
G1 X198.57 Y25.607 E.01199
G1 X202.339 Y29.375 E.1672
G1 X202.224 Y29.438 E.00411
