; generated by PrusaSlicer 2.8.1+win64 on 2024-11-18 at 00:01:50 UTC


;
;
; 

; external perimeters extrusion width = 0.60mm
; perimeters extrusion width = 0.43mm
; infill extrusion width = 0.45mm
; solid infill extrusion width = 0.70mm
; top infill extrusion width = 0.45mm
; first layer extrusion width = 0.42mm

M73 P0 R102
M201 X9000 Y9000 Z500 E10000 ; sets maximum accelerations, mm/sec^2
M203 X500 Y500 Z12 E120 ; sets maximum feedrates, mm / sec
M204 S2000 T1500 ; sets acceleration (S) and retract acceleration (R), mm/sec^2
M205 X10.00 Y10.00 Z0.20 E4.50 ; sets the jerk limits, mm/sec
M205 S0 T0 ; sets the minimum extruding and travel feed rate, mm/sec

; printing object Hold Down Plate.stl id:0 copy 0
; stop printing object Hold Down Plate.stl id:0 copy 0

;TYPE:Custom
M862.3 P "MK2.5S" ; printer model check
M862.1 P0.4 ; nozzle diameter check
M115 U3.14.0 ; tell printer latest fw version
G90 ; use absolute coordinates
M83 ; extruder relative mode
M104 S215 ; set extruder temp
M140 S60 ; set bed temp
M190 S60 ; wait for bed temp
M109 S215 ; wait for extruder temp
G28 W ; home all without mesh bed level
G80 X2.13185 Y2.68927 W235.393 H198.322 ; mesh bed levelling

G1 Z0.2 F720
G1 Y-3 F1000 ; go outside print area
G92 E0
G1 X60 E9 F1000 ; intro line
G1 X100 E12.5 F1000 ; intro line

G92 E0
G21 ; set units to millimeters
G90 ; use absolute coordinates
M83 ; use relative distances for extrusion

M900 K0.05 ; Filament gcode LA 1.5
M900 K30 ; Filament gcode LA 1.0




M107
;LAYER_CHANGE
;Z:0.2
;HEIGHT:0.2
G1 E-.8 F2100
G1 Z.6 F720
G1 X78.942 Y101.169 F10800
G1 Z.2 F720
G1 E.8 F2100
M204 S800
;TYPE:Skirt/Brim
;WIDTH:0.42
G1 F1200
G1 X202.976 Y4.385 E4.93286
G1 X204.132 Y3.66 E.04278
G1 X205.637 Y3.093 E.05043
G1 X207.187 Y2.88 E.04906
G1 X207.719 Y2.881 E.01668
G1 X208.83 Y3.018 E.0351
G1 X210.36 Y3.513 E.05042
G1 X211.741 Y4.336 E.05041
G1 X212.904 Y5.446 E.05041
G1 X235.967 Y35.002 E1.17546
G1 X236.553 Y35.957 E.03513
G1 X237.119 Y37.461 E.05039
G1 X237.223 Y37.94 E.01537
G1 X237.332 Y39.544 E.05041
G1 X237.195 Y40.655 E.0351
G1 X236.7 Y42.185 E.05042
G1 X236.482 Y42.624 E.01537
G1 X235.567 Y43.945 E.05038
G1 X234.582 Y44.89 E.0428
G1 X36.68 Y199.314 E7.87061
G1 X35.524 Y200.039 E.04278
M73 P0 R101
G1 X34.019 Y200.606 E.05043
G1 X32.427 Y200.823 E.05038
G1 X31.937 Y200.818 E.01536
G1 X30.825 Y200.681 E.03513
G1 X29.296 Y200.186 E.05039
G1 X27.915 Y199.363 E.05041
G1 X27.535 Y199.053 E.01538
G1 X26.59 Y198.069 E.04278
G1 X3.829 Y168.898 E1.16011
G1 X3.103 Y167.742 E.0428
G1 X2.536 Y166.238 E.0504
G1 X2.32 Y164.656 E.05006
G1 X2.324 Y164.155 E.01571
G1 X2.461 Y163.044 E.0351
G1 X2.956 Y161.514 E.05042
G1 X3.174 Y161.075 E.01537
G1 X4.089 Y159.754 E.05038
G1 X5.074 Y158.809 E.0428
G1 X78.895 Y101.206 E2.93588
M204 S1000
;WIPE_START
G1 F8640
G1 X78.942 Y101.169 E-.01381
G1 X81.626 Y99.074 E-.78619
;WIPE_END
G1 Z.6 F720
; printing object Hold Down Plate.stl id:0 copy 0
G1 X110.133 Y96.305 F10800
G1 Z.2 F720
G1 E.8 F2100
M204 S800
;TYPE:Perimeter
;WIDTH:0.419999
G1 F1200
G1 X109.597 Y96.875 E.02453
G1 X108.868 Y97.326 E.02688
G1 X108.047 Y97.573 E.02688
G1 X107.19 Y97.599 E.02688
G1 X106.286 Y97.38 E.02916
G1 X105.599 Y96.997 E.02466
G1 X104.975 Y96.41 E.02686
G1 X104.523 Y95.68 E.02692
G1 X104.295 Y94.928 E.02464
G1 X104.256 Y94.713 E.00685
G1 X104.25 Y94.002 E.02229
G1 X104.447 Y93.167 E.0269
G1 X104.852 Y92.412 E.02686
G1 X105.44 Y91.787 E.02691
G1 X106.169 Y91.336 E.02688
G1 X106.99 Y91.089 E.02688
G1 X107.847 Y91.063 E.02688
G1 X108.682 Y91.259 E.02689
G1 X109.438 Y91.665 E.02691
G1 X110.062 Y92.252 E.02686
G1 X110.514 Y92.982 E.02692
G1 X110.761 Y93.803 E.02688
G1 X110.787 Y94.66 E.02688
G1 X110.59 Y95.495 E.0269
G1 X110.185 Y96.25 E.02686
G1 X110.174 Y96.261 E.00049
M204 S1000
G1 X110.174 Y96.261 F10800
G1 X109.839 Y96.082
M204 S800
;TYPE:External perimeter
G1 F1200
G1 X109.328 Y96.61 E.02304
G1 X108.677 Y97.001 E.02381
G1 X107.946 Y97.21 E.02384
G1 X107.186 Y97.222 E.02383
G1 X106.426 Y97.03 E.02458
G1 X105.785 Y96.669 E.02307
G1 X105.239 Y96.141 E.02381
G1 X104.848 Y95.489 E.02384
G1 X104.659 Y94.827 E.02159
G1 X104.627 Y93.999 E.02598
G1 X104.812 Y93.262 E.02382
G1 X105.18 Y92.598 E.0238
G1 X105.709 Y92.052 E.02384
G1 X106.36 Y91.661 E.02381
G1 X107.091 Y91.452 E.02384
G1 X107.85 Y91.44 E.0238
G1 X108.588 Y91.624 E.02385
G1 X109.252 Y91.993 E.02382
G1 X109.798 Y92.521 E.02381
G1 X110.189 Y93.173 E.02384
G1 X110.397 Y93.903 E.0238
G1 X110.41 Y94.663 E.02383
G1 X110.225 Y95.4 E.02382
G1 X109.873 Y96.034 E.02274
M204 S1000
;WIPE_START
G1 F8640
G1 X109.839 Y96.082 E-.01358
G1 X109.328 Y96.61 E-.16966
G1 X108.677 Y97.001 E-.17535
G1 X107.946 Y97.21 E-.17555
G1 X107.186 Y97.222 E-.17551
G1 X106.807 Y97.126 E-.09035
;WIPE_END
G1 Z.6 F720
G1 X224.104 Y30.483 F10800
G1 Z.2 F720
G1 E.8 F2100
M204 S800
;TYPE:Perimeter
G1 F1200
G1 X224.194 Y30.482 E.00282
G1 X224.426 Y30.609 E.00829
G1 X224.492 Y30.68 E.00304
G1 X230.917 Y38.913 E.32744
G1 X231.017 Y39.116 E.0071
G1 X231.019 Y39.402 E.00897
G1 X230.882 Y39.65 E.00888
G1 X230.533 Y39.93 E.01403
G1 X32.567 Y194.403 E7.87313
G1 X32.365 Y194.504 E.00708
G1 X32.079 Y194.505 E.00897
G1 X31.83 Y194.368 E.00891
G1 X17.477 Y175.981 E.73136
G1 X16.174 Y174.024 E.07372
G1 X15.174 Y171.887 E.07398
G1 X14.522 Y169.708 E.07131
G1 X14.184 Y167.373 E.07398
G1 X14.197 Y165.013 E.074
G1 X14.562 Y162.682 E.07398
G1 X14.82 Y161.849 E.02734
G1 X15.271 Y160.432 E.04663
G1 X16.307 Y158.312 E.07398
G1 X17.647 Y156.37 E.07398
G1 X19.324 Y154.593 E.07661
G1 X21.185 Y153.142 E.07399
G1 X23.165 Y152.021 E.07134
G1 X25.366 Y151.172 E.07397
G1 X27.669 Y150.66 E.07397
G1 X30.107 Y150.498 E.07661
G1 X32.458 Y150.701 E.07399
G1 X34.752 Y151.251 E.07397
G1 X36.863 Y152.1 E.07134
G1 X38.9 Y153.292 E.074
G1 X40.736 Y154.773 E.07396
G1 X41.969 Y156.115 E.05714
G1 X42.118 Y156.094 E.00472
G1 X42.351 Y156.271 E.00917
G1 X50.023 Y166.102 E.391
G1 X223.699 Y30.582 E6.90712
G1 X223.897 Y30.483 E.00694
M73 P1 R101
G1 X224.044 Y30.483 E.00461
M204 S1000
G1 X224.044 Y30.483 F10800
G1 X224.043 Y30.857
M204 S800
;TYPE:External perimeter
G1 F1200
G1 X224.096 Y30.846 E.0017
G1 X224.195 Y30.912 E.00373
G1 X230.619 Y39.145 E.32742
G1 X230.658 Y39.284 E.00453
G1 X230.587 Y39.41 E.00453
G1 X32.335 Y194.106 E7.8845
G1 X32.196 Y194.144 E.00452
M73 P1 R100
G1 X32.071 Y194.073 E.00451
G1 X17.798 Y175.782 E.72744
G1 X16.529 Y173.888 E.07148
G1 X15.535 Y171.779 E.0731
G1 X14.883 Y169.599 E.07134
G1 X14.557 Y167.319 E.07221
G1 X14.574 Y165.016 E.07221
G1 X14.935 Y162.742 E.07219
G1 X15.18 Y161.963 E.0256
G1 X15.63 Y160.546 E.04662
G1 X16.645 Y158.478 E.07223
G1 X17.957 Y156.585 E.07222
G1 X19.557 Y154.89 E.07308
G1 X21.371 Y153.47 E.07223
G1 X23.376 Y152.337 E.07221
G1 X25.501 Y151.524 E.07134
G1 X27.75 Y151.029 E.0722
G1 X30.076 Y150.874 E.07309
G1 X32.371 Y151.067 E.07221
G1 X34.612 Y151.601 E.07223
G1 X36.723 Y152.45 E.07134
G1 X38.732 Y153.633 E.0731
G1 X40.498 Y155.066 E.07131
G1 X41.785 Y156.473 E.05979
G1 X41.976 Y156.444 E.00606
G1 X42.054 Y156.503 E.00307
G1 X49.957 Y166.631 E.40279
G1 X223.93 Y30.88 E6.91892
G1 X223.984 Y30.869 E.00173
M204 S1000
;WIPE_START
G1 F8640
G1 X224.043 Y30.857 E-.0139
G1 X224.096 Y30.846 E-.0125
G1 X224.195 Y30.912 E-.02747
G1 X226.183 Y33.46 E-.74613
;WIPE_END
G1 Z.6 F720
G1 X11.404 Y161.001 F10800
G1 Z.2 F720
G1 E.8 F2100
M204 S800
;TYPE:Perimeter
G1 F1200
G1 X12.02 Y161.33 E.0219
G1 X12.212 Y161.46 E.00727
G1 X12.719 Y161.959 E.0223
G1 X13.17 Y162.688 E.02688
G1 X13.417 Y163.509 E.02688
G1 X13.443 Y164.367 E.02691
G1 X13.325 Y164.898 E.01706
G1 X13.191 Y165.338 E.01442
G1 X12.841 Y165.957 E.0223
G1 X12.317 Y166.517 E.02405
G1 X12.137 Y166.672 E.00745
G1 X11.524 Y167.033 E.02231
G1 X10.703 Y167.28 E.02688
G1 X9.846 Y167.306 E.02688
G1 X9.011 Y167.11 E.02689
G1 X8.256 Y166.704 E.02688
G1 X7.631 Y166.116 E.02691
G1 X7.219 Y165.454 E.02445
G1 X7.122 Y165.251 E.00705
G1 X6.933 Y164.566 E.02228
G1 X6.906 Y163.709 E.02688
G1 X7.044 Y163.102 E.01952
G1 X7.158 Y162.737 E.01199
G1 X7.509 Y162.118 E.02231
G1 X8.096 Y161.494 E.02686
G1 X8.825 Y161.043 E.02688
G1 X9.647 Y160.795 E.02692
G1 X10.504 Y160.769 E.02688
G1 X11.338 Y160.966 E.02687
G1 X11.351 Y160.973 E.00046
M204 S1000
G1 X11.351 Y160.973 F10800
G1 X11.266 Y161.343
M204 S800
;TYPE:External perimeter
G1 F1200
G1 X11.834 Y161.658 E.02036
G1 X12.454 Y162.228 E.02641
G1 X12.845 Y162.879 E.02381
G1 X13.054 Y163.61 E.02384
G1 X13.066 Y164.37 E.02383
G1 X12.96 Y164.804 E.01401
G1 X12.863 Y165.152 E.01133
G1 X12.513 Y165.771 E.0223
G1 X11.946 Y166.347 E.02534
G1 X11.333 Y166.708 E.02231
G1 X10.602 Y166.916 E.02383
G1 X9.843 Y166.929 E.0238
G1 X9.106 Y166.745 E.02382
G1 X8.442 Y166.376 E.02382
G1 X7.895 Y165.847 E.02386
G1 X7.544 Y165.263 E.02136
G1 X7.296 Y164.465 E.0262
G1 X7.283 Y163.706 E.0238
G1 X7.486 Y162.923 E.02536
G1 X7.837 Y162.304 E.02231
G1 X8.365 Y161.758 E.02381
G1 X9.017 Y161.368 E.02382
G1 X9.747 Y161.159 E.02381
G1 X10.507 Y161.146 E.02383
G1 X11.21 Y161.322 E.02272
M204 S1000
;WIPE_START
G1 F8640
G1 X11.266 Y161.343 E-.01381
G1 X11.834 Y161.658 E-.14997
G1 X12.454 Y162.228 E-.19447
G1 X12.845 Y162.879 E-.17535
G1 X13.054 Y163.61 E-.17555
G1 X13.06 Y164.003 E-.09085
;WIPE_END
G1 Z.6 F720
G1 X195.612 Y21.993 F10800
G1 Z.2 F720
G1 E.8 F2100
M204 S800
;TYPE:Perimeter
G1 F1200
G1 X195.982 Y21.303 E.02455
G1 X196.625 Y20.629 E.02921
G1 X197.299 Y20.227 E.02461
G1 X198.12 Y19.98 E.02688
G1 X198.977 Y19.954 E.02688
G1 X199.812 Y20.15 E.02689
G1 X200.567 Y20.556 E.02688
G1 X201.128 Y21.08 E.02407
G1 X201.283 Y21.26 E.00745
G1 X201.643 Y21.873 E.02229
G1 X201.891 Y22.694 E.02689
G1 X201.917 Y23.551 E.02688
G1 X201.72 Y24.386 E.0269
G1 X201.314 Y25.141 E.02688
G1 X200.727 Y25.766 E.02688
G1 X199.998 Y26.217 E.02688
G1 X199.177 Y26.465 E.02689
G1 X198.319 Y26.491 E.02691
G1 X197.485 Y26.294 E.02687
G1 X196.729 Y25.888 E.02691
G1 X196.105 Y25.301 E.02686
G1 X195.653 Y24.572 E.02689
G1 X195.406 Y23.75 E.02691
G1 X195.38 Y22.893 E.02688
G1 X195.576 Y22.059 E.02686
G1 X195.583 Y22.046 E.00046
M204 S1000
G1 X195.583 Y22.046 F10800
G1 X195.954 Y22.131
M204 S800
;TYPE:External perimeter
G1 F1200
G1 X196.31 Y21.489 E.02302
G1 X196.857 Y20.927 E.02459
G1 X197.49 Y20.552 E.02307
G1 X198.221 Y20.343 E.02384
G1 X198.98 Y20.331 E.0238
G1 X199.717 Y20.515 E.02382
G1 X200.382 Y20.884 E.02385
G1 X200.958 Y21.451 E.02534
G1 X201.318 Y22.064 E.02229
G1 X201.527 Y22.795 E.02384
G1 X201.54 Y23.554 E.0238
G1 X201.355 Y24.291 E.02382
G1 X200.986 Y24.956 E.02385
G1 X200.458 Y25.502 E.02381
G1 X199.807 Y25.892 E.02379
G1 X199.076 Y26.101 E.02384
G1 X198.316 Y26.114 E.02383
G1 X197.579 Y25.929 E.02382
G1 X196.915 Y25.56 E.02382
G1 X196.369 Y25.032 E.02381
G1 X195.978 Y24.38 E.02384
G1 X195.77 Y23.65 E.0238
G1 X195.757 Y22.89 E.02383
G1 X195.933 Y22.187 E.02272
M204 S1000
;WIPE_START
G1 F8640
G1 X195.954 Y22.131 E-.01381
G1 X196.31 Y21.489 E-.16951
G1 X196.857 Y20.927 E-.18109
G1 X197.49 Y20.552 E-.16988
G1 X198.221 Y20.343 E-.17555
G1 X198.612 Y20.337 E-.09016
;WIPE_END
G1 Z.6 F720
G1 X49.129 Y160.96 F10800
G1 Z.2 F720
G1 E.8 F2100
M204 S800
;TYPE:Perimeter
G1 F1200
G1 X49.242 Y160.978 E.00359
G1 X49.547 Y160.859 E.01027
G1 X106.66 Y116.294 E2.27138
G1 X106.843 Y116.043 E.00974
G1 X106.873 Y115.775 E.00846
G1 X106.758 Y115.5 E.00935
G1 X93.73 Y98.804 E.664
G1 X93.214 Y97.963 E.03094
G1 X92.912 Y97.071 E.02953
G1 X92.816 Y96.133 E.02956
G1 X92.932 Y95.198 E.02954
G1 X93.252 Y94.312 E.02954
G1 X93.762 Y93.519 E.02956
G1 X94.467 Y92.829 E.03093
G1 X204.772 Y6.758 E4.38684
G1 X205.613 Y6.242 E.03094
G1 X206.505 Y5.941 E.02952
G1 X207.443 Y5.845 E.02956
G1 X208.378 Y5.96 E.02954
G1 X209.264 Y6.281 E.02955
G1 X210.057 Y6.791 E.02956
G1 X210.747 Y7.496 E.03093
G1 X233.454 Y36.596 E1.15731
G1 X233.97 Y37.437 E.03094
G1 X234.212 Y38.152 E.02367
G1 X234.291 Y38.517 E.01171
G1 X234.368 Y39.268 E.02367
G1 X234.252 Y40.203 E.02954
G1 X233.932 Y41.089 E.02954
G1 X233.422 Y41.881 E.02954
G1 X232.717 Y42.572 E.03095
G1 X34.884 Y196.941 E7.86783
G1 X34.043 Y197.457 E.03094
M73 P2 R100
G1 X33.15 Y197.759 E.02956
G1 X32.213 Y197.854 E.02953
G1 X31.278 Y197.739 E.02954
G1 X30.392 Y197.418 E.02955
G1 X29.599 Y196.908 E.02956
G1 X28.909 Y196.203 E.03093
G1 X6.202 Y167.103 E1.15731
G1 X5.686 Y166.262 E.03094
G1 X5.384 Y165.369 E.02956
G1 X5.288 Y164.432 E.02953
G1 X5.404 Y163.496 E.02957
G1 X5.724 Y162.61 E.02954
G1 X6.234 Y161.818 E.02954
G1 X6.939 Y161.127 E.03095
G1 X29.75 Y143.328 E.90719
G1 X30.591 Y142.812 E.03094
G1 X31.483 Y142.51 E.02953
G1 X32.421 Y142.415 E.02956
G1 X33.356 Y142.53 E.02954
G1 X34.242 Y142.851 E.02955
G1 X35.035 Y143.361 E.02956
G1 X35.725 Y144.066 E.03093
G1 X48.753 Y160.761 E.66398
G1 X48.986 Y160.938 E.00917
G1 X49.069 Y160.951 E.00263
M204 S1000
G1 X49.069 Y160.951 F10800
G1 X49.161 Y160.584
M204 S800
;TYPE:External perimeter
G1 F1200
G1 X49.213 Y160.602 E.00173
G1 X49.315 Y160.562 E.00344
G1 X106.428 Y115.997 E2.27138
G1 X106.499 Y115.867 E.00464
M73 P2 R99
G1 X106.46 Y115.732 E.00441
G1 X93.42 Y99.02 E.66463
G1 X92.87 Y98.124 E.03296
G1 X92.541 Y97.151 E.0322
G1 X92.437 Y96.129 E.03221
G1 X92.563 Y95.11 E.03219
G1 X92.912 Y94.144 E.0322
G1 X93.468 Y93.28 E.03221
G1 X94.219 Y92.545 E.03295
G1 X204.556 Y6.448 E4.38813
G1 X205.452 Y5.899 E.03295
G1 X206.425 Y5.57 E.0322
G1 X207.447 Y5.466 E.03221
G1 X208.466 Y5.591 E.03219
G1 X209.432 Y5.941 E.03221
G1 X210.296 Y6.497 E.03221
G1 X211.031 Y7.247 E.03293
G1 X233.764 Y36.381 E1.15866
G1 X234.314 Y37.276 E.03294
G1 X234.643 Y38.25 E.03223
G1 X234.666 Y38.479 E.00722
G1 X234.747 Y39.272 E.02499
G1 X234.621 Y40.291 E.03219
G1 X234.272 Y41.257 E.0322
G1 X233.716 Y42.121 E.03221
G1 X232.965 Y42.856 E.03295
G1 X35.099 Y197.251 E7.86915
G1 X34.204 Y197.8 E.03292
G1 X33.231 Y198.129 E.0322
G1 X32.209 Y198.234 E.03221
G1 X31.189 Y198.108 E.03222
G1 X30.223 Y197.758 E.03221
G1 X29.359 Y197.203 E.0322
G1 X28.625 Y196.452 E.03293
G1 X5.891 Y167.318 E1.15868
G1 X5.342 Y166.423 E.03292
G1 X5.013 Y165.449 E.03223
G1 X4.909 Y164.428 E.03218
G1 X5.035 Y163.408 E.03222
G1 X5.384 Y162.442 E.0322
G1 X5.94 Y161.578 E.03221
G1 X6.69 Y160.843 E.03293
G1 X29.534 Y143.018 E.9085
G1 X30.43 Y142.469 E.03295
G1 X31.403 Y142.14 E.0322
G1 X32.425 Y142.035 E.03221
G1 X33.444 Y142.161 E.03219
G1 X34.41 Y142.511 E.03221
G1 X35.274 Y143.066 E.0322
G1 X36.009 Y143.817 E.03295
G1 X49.05 Y160.53 E.66467
G1 X49.072 Y160.553 E.001
G1 X49.105 Y160.565 E.0011
M204 S1000
;WIPE_START
G1 F8640
G1 X49.161 Y160.584 E-.01365
G1 X49.213 Y160.602 E-.01271
G1 X49.315 Y160.562 E-.0253
G1 X51.87 Y158.568 E-.74834
;WIPE_END
G1 Z.6 F720
G1 X208.402 Y6.149 F10800
G1 Z.2 F720
G1 E.8 F2100
M204 S800
;TYPE:Solid infill
;WIDTH:0.420058
G1 F1200
G1 X212.335 Y10.083 E.17444
G1 X214.23 Y12.511 E.09659
G1 X207.971 Y6.252 E.27758
G1 X207.378 Y6.193 E.01869
G1 X216.124 Y14.938 E.38785
G1 X218.018 Y17.366 E.09657
G1 X206.894 Y6.242 E.49333
G1 X206.578 Y6.274 E.00996
G1 X206.44 Y6.321 E.00457
G1 X219.913 Y19.794 E.59751
G1 X221.807 Y22.221 E.09654
G1 X206.041 Y6.456 E.69918
G1 X205.758 Y6.552 E.00937
G1 X205.662 Y6.61 E.00352
G1 X223.701 Y24.649 E.8
G1 X225.595 Y27.077 E.09657
G1 X205.332 Y6.813 E.89866
G1 X205.001 Y7.016 E.01218
G1 X227.49 Y29.504 E.99733
G1 X229.384 Y31.932 E.09657
G1 X204.698 Y7.246 E1.09479
G1 X204.399 Y7.48 E.01191
M73 P3 R99
G1 X231.278 Y34.36 E1.19207
G1 X233.173 Y36.787 E.09656
G1 X204.099 Y7.714 E1.28937
G1 X203.799 Y7.948 E.01193
G1 X233.777 Y37.925 E1.32946
G1 X233.938 Y38.403 E.01582
G1 X233.963 Y38.644 E.0076
G1 X203.5 Y8.181 E1.35099
G1 X203.2 Y8.415 E.01193
G1 X234.024 Y39.238 E1.36698
G1 X233.97 Y39.718 E.01515
G1 X202.901 Y8.649 E1.37786
G1 X202.601 Y8.883 E.01193
G1 X223.865 Y30.146 E.94301
G1 X223.628 Y30.225 E.00783
G1 X223.496 Y30.31 E.00492
G1 X202.302 Y9.116 E.93992
G1 X202.002 Y9.35 E.01193
M73 P3 R98
G1 X223.196 Y30.544 E.93992
G1 X222.896 Y30.778 E.01193
G1 X201.702 Y9.584 E.93992
G1 X201.403 Y9.818 E.01191
G1 X222.597 Y31.012 E.93992
G1 X222.297 Y31.245 E.01191
G1 X201.103 Y10.051 E.93992
G1 X200.804 Y10.285 E.01191
G1 X221.998 Y31.479 E.93992
G1 X221.698 Y31.713 E.01193
G1 X200.504 Y10.519 E.93992
