; generated by PrusaSlicer 2.8.1+win64 on 2024-11-18 at 17:49:05 UTC


;
;
; 

; external perimeters extrusion width = 0.60mm
; perimeters extrusion width = 0.43mm
; infill extrusion width = 0.45mm
; solid infill extrusion width = 0.70mm
; top infill extrusion width = 0.45mm
; first layer extrusion width = 0.42mm

M73 P0 R94
M201 X9000 Y9000 Z500 E10000 ; sets maximum accelerations, mm/sec^2
M203 X500 Y500 Z12 E120 ; sets maximum feedrates, mm / sec
M204 S2000 T1500 ; sets acceleration (S) and retract acceleration (R), mm/sec^2
M205 X10.00 Y10.00 Z0.20 E4.50 ; sets the jerk limits, mm/sec
M205 S0 T0 ; sets the minimum extruding and travel feed rate, mm/sec

; printing object Hold Down Plate Left.stl id:0 copy 0
; stop printing object Hold Down Plate Left.stl id:0 copy 0

;TYPE:Custom
M862.3 P "MK2.5S" ; printer model check
M862.1 P0.4 ; nozzle diameter check
M115 U3.14.0 ; tell printer latest fw version
G90 ; use absolute coordinates
M83 ; extruder relative mode
M104 S215 ; set extruder temp
M140 S60 ; set bed temp
M190 S60 ; wait for bed temp
M109 S215 ; wait for extruder temp
G28 W ; home all without mesh bed level
G80 X23.518 Y12.3703 W202.964 H185.259 ; mesh bed levelling

G1 Z0.2 F720
G1 Y-3 F1000 ; go outside print area
G92 E0
G1 X60 E9 F1000 ; intro line
G1 X100 E12.5 F1000 ; intro line

G92 E0
G21 ; set units to millimeters
G90 ; use absolute coordinates
M83 ; use relative distances for extrusion

M900 K0.05 ; Filament gcode LA 1.5
M900 K30 ; Filament gcode LA 1.0




M107
;LAYER_CHANGE
;Z:0.2
;HEIGHT:0.2
G1 E-.8 F2100
G1 Z.6 F720
G1 X92.103 Y104.429 F10800
G1 Z.2 F720
G1 E.8 F2100
M204 S800
;TYPE:Skirt/Brim
;WIDTH:0.42
G1 F1200
G1 X192.821 Y15.599 E4.21069
G1 X194.698 Y14.245 E.07257
G1 X196.614 Y13.331 E.06656
G1 X198.661 Y12.763 E.06661
G1 X200.393 Y12.568 E.05465
G1 X202.514 Y12.668 E.06658
G1 X204.585 Y13.134 E.06656
G1 X206.544 Y13.953 E.06657
G1 X208.63 Y15.338 E.07851
G1 X210.025 Y16.678 E.06065
G1 X223.254 Y31.677 E.62707
G1 X224.607 Y33.554 E.07255
G1 X225.522 Y35.47 E.06657
G1 X226.014 Y37.143 E.05468
G1 X226.284 Y39.249 E.06657
G1 X226.185 Y41.37 E.06657
G1 X225.597 Y43.803 E.07848
G1 X224.716 Y45.735 E.06658
G1 X223.514 Y47.486 E.06659
G1 X222.175 Y48.881 E.06063
G1 X57.179 Y194.401 E6.89793
G1 X55.302 Y195.755 E.07257
G1 X53.386 Y196.669 E.06656
G1 X51.339 Y197.237 E.06661
G1 X49.226 Y197.441 E.06656
G1 X47.109 Y197.275 E.06658
G1 X45.053 Y196.744 E.06658
G1 X43.121 Y195.864 E.06656
G1 X41.37 Y194.662 E.06659
G1 X39.975 Y193.322 E.06065
G1 X26.746 Y178.323 E.62707
G1 X25.592 Y176.771 E.06064
G1 X24.617 Y174.885 E.06657
G1 X23.91 Y172.483 E.07851
G1 X23.716 Y170.751 E.05465
G1 X23.815 Y168.63 E.06657
G1 X24.403 Y166.197 E.07848
G1 X25.283 Y164.265 E.06656
G1 X26.486 Y162.515 E.06658
G1 X27.825 Y161.119 E.06065
G1 X92.058 Y104.469 E2.68535
M204 S1000
;WIPE_START
G1 F8640
G1 X92.103 Y104.429 E-.0139
G1 X94.656 Y102.177 E-.7861
;WIPE_END
G1 Z.6 F720
; printing object Hold Down Plate Left.stl id:0 copy 0
G1 X200.649 Y50.656 F10800
G1 Z.2 F720
G1 E.8 F2100
M204 S800
;TYPE:Perimeter
;WIDTH:0.419999
G1 F1200
G1 X201.152 Y51.072 E.02047
G1 X201.574 Y51.664 E.02279
G1 X201.827 Y52.345 E.02278
G1 X201.896 Y53.069 E.0228
G1 X201.775 Y53.786 E.0228
G1 X201.473 Y54.447 E.02279
G1 X201.01 Y55.008 E.02281
G1 X200.417 Y55.429 E.0228
G1 X199.736 Y55.683 E.02279
G1 X199.012 Y55.752 E.0228
G1 X198.295 Y55.631 E.0228
G1 X197.634 Y55.329 E.02279
G1 X197.024 Y54.817 E.02497
G1 X196.652 Y54.273 E.02066
G1 X196.398 Y53.592 E.02279
G1 X196.33 Y52.868 E.0228
G1 X196.451 Y52.151 E.0228
G1 X196.753 Y51.49 E.02279
G1 X197.216 Y50.929 E.02281
G1 X197.808 Y50.508 E.02278
G1 X198.49 Y50.254 E.02282
G1 X199.214 Y50.185 E.0228
G1 X199.931 Y50.306 E.0228
G1 X200.592 Y50.608 E.02279
G1 X200.603 Y50.618 E.00047
M204 S1000
G1 X200.603 Y50.618 F10800
G1 X200.445 Y50.963
M204 S800
;TYPE:External perimeter
G1 F1200
G1 X200.904 Y51.356 E.01895
G1 X201.261 Y51.874 E.01973
G1 X201.471 Y52.468 E.01975
G1 X201.52 Y53.095 E.01972
G1 X201.405 Y53.714 E.01974
G1 X201.134 Y54.281 E.0197
G1 X200.726 Y54.76 E.01973
G1 X200.207 Y55.116 E.01973
G1 X199.614 Y55.326 E.01972
G1 X198.987 Y55.376 E.01972
G1 X198.368 Y55.261 E.01974
G1 X197.8 Y54.99 E.01973
G1 X197.305 Y54.565 E.02046
G1 X196.965 Y54.063 E.01901
G1 X196.755 Y53.47 E.01972
G1 X196.706 Y52.842 E.01975
G1 X196.821 Y52.224 E.01971
G1 X197.091 Y51.656 E.01972
G1 X197.5 Y51.177 E.01975
G1 X198.019 Y50.821 E.01973
G1 X198.612 Y50.611 E.01972
G1 X199.239 Y50.561 E.01972
G1 X199.858 Y50.676 E.01974
G1 X200.394 Y50.932 E.01862
M204 S1000
;WIPE_START
G1 F8640
G1 X200.445 Y50.963 E-.01378
G1 X200.904 Y51.356 E-.13953
G1 X201.261 Y51.874 E-.14526
G1 X201.471 Y52.468 E-.14548
G1 X201.52 Y53.095 E-.14522
G1 X201.405 Y53.714 E-.14537
G1 X201.283 Y53.97 E-.06536
;WIPE_END
G1 Z.6 F720
G1 X61.804 Y170.495 F10800
G1 Z.2 F720
G1 E.8 F2100
M204 S800
;TYPE:Perimeter
G1 F1200
G1 X62.219 Y169.992 E.02045
G1 X62.812 Y169.57 E.02282
G1 X63.493 Y169.317 E.02278
G1 X64.217 Y169.248 E.0228
G1 X64.934 Y169.369 E.0228
G1 X65.595 Y169.671 E.02279
G1 X66.155 Y170.134 E.02278
G1 X66.577 Y170.727 E.02282
G1 X66.831 Y171.408 E.02279
G1 X66.9 Y172.132 E.0228
G1 X66.779 Y172.849 E.0228
G1 X66.476 Y173.51 E.0228
G1 X66.41 Y173.614 E.00386
G1 X66.013 Y174.07 E.01896
G1 X65.421 Y174.492 E.02279
G1 X64.739 Y174.746 E.02282
G1 X64.016 Y174.814 E.02277
G1 X63.299 Y174.694 E.02279
G1 X62.637 Y174.391 E.02283
G1 X62.077 Y173.928 E.02278
G1 X61.656 Y173.336 E.02278
G1 X61.402 Y172.654 E.02282
G1 X61.333 Y171.93 E.0228
G1 X61.454 Y171.214 E.02277
G1 X61.756 Y170.552 E.02281
G1 X61.765 Y170.541 E.00045
M204 S1000
G1 X61.765 Y170.541 F10800
G1 X62.111 Y170.699
M204 S800
;TYPE:External perimeter
G1 F1200
G1 X62.503 Y170.24 E.01893
G1 X63.022 Y169.883 E.01975
G1 X63.615 Y169.673 E.01972
G1 X64.243 Y169.624 E.01975
G1 X64.861 Y169.739 E.01971
G1 X65.429 Y170.01 E.01973
G1 X65.908 Y170.418 E.01973
G1 X66.264 Y170.937 E.01973
G1 X66.474 Y171.53 E.01972
G1 X66.523 Y172.157 E.01972
G1 X66.409 Y172.776 E.01973
G1 X66.116 Y173.379 E.02102
G1 X65.729 Y173.822 E.01844
G1 X65.21 Y174.179 E.01975
G1 X64.617 Y174.389 E.01972
G1 X63.99 Y174.438 E.01972
G1 X63.371 Y174.323 E.01974
G1 X62.803 Y174.053 E.01972
G1 X62.325 Y173.644 E.01972
G1 X61.968 Y173.125 E.01975
G1 X61.758 Y172.532 E.01972
G1 X61.709 Y171.905 E.01972
G1 X61.824 Y171.286 E.01974
G1 X62.08 Y170.75 E.01862
M204 S1000
;WIPE_START
G1 F8640
G1 X62.111 Y170.699 E-.01378
G1 X62.503 Y170.24 E-.13938
G1 X63.022 Y169.883 E-.14545
G1 X63.615 Y169.673 E-.14526
G1 X64.243 Y169.624 E-.14545
G1 X64.861 Y169.739 E-.14515
G1 X65.117 Y169.861 E-.06553
;WIPE_END
G1 Z.6 F720
G1 X208.576 Y32.299 F10800
G1 Z.2 F720
G1 E.8 F2100
M204 S800
;TYPE:Perimeter
G1 F1200
G1 X208.578 Y32.378 E.00248
G1 X208.474 Y32.613 E.00806
G1 X42.843 Y178.709 E6.92479
G1 X42.641 Y178.824 E.00729
M73 P0 R93
G1 X42.428 Y178.849 E.00672
G1 X42.186 Y178.774 E.00794
G1 X42.045 Y178.659 E.0057
G1 X34.939 Y170.602 E.33684
G1 X34.812 Y170.356 E.00868
G1 X34.813 Y170.095 E.00818
G1 X34.953 Y169.838 E.00918
G1 X200.542 Y23.791 E6.92279
G1 X200.788 Y23.665 E.00867
M73 P1 R93
G1 X201.049 Y23.666 E.00818
G1 X201.306 Y23.806 E.00918
G1 X208.447 Y31.898 E.33839
G1 X208.571 Y32.137 E.00844
G1 X208.574 Y32.239 E.0032
M204 S1000
G1 X208.574 Y32.239 F10800
G1 X208.195 Y32.315
M204 S800
;TYPE:External perimeter
G1 F1200
G1 X208.147 Y32.414 E.00345
G1 X42.594 Y178.426 E6.92122
G1 X42.455 Y178.473 E.0046
G1 X42.328 Y178.409 E.00446
G1 X35.222 Y170.352 E.33684
G1 X35.177 Y170.198 E.00503
G1 X35.238 Y170.086 E.004
G1 X200.792 Y24.074 E6.92124
G1 X200.946 Y24.029 E.00503
G1 X201.058 Y24.091 E.00401
G1 X208.164 Y32.148 E.33684
G1 X208.203 Y32.26 E.00372
M204 S1000
;WIPE_START
G1 F8640
G1 X208.195 Y32.315 E-.01283
G1 X208.147 Y32.414 E-.0254
G1 X205.673 Y34.596 E-.76177
;WIPE_END
G1 Z.6 F720
G1 X201.036 Y15.556 F10800
G1 Z.2 F720
G1 E.8 F2100
M204 S800
;TYPE:Perimeter
G1 F1200
G1 X202.259 Y15.633 E.03842
G1 X203.819 Y16.01 E.05032
G1 X205.291 Y16.653 E.05036
G1 X206.628 Y17.541 E.05032
G1 X207.816 Y18.672 E.05143
G1 X220.999 Y33.62 E.62491
G1 X221.973 Y34.939 E.05141
G1 X222.687 Y36.377 E.05034
G1 X223.14 Y37.917 E.05033
G1 X223.32 Y39.513 E.05036
G1 X223.27 Y40.308 E.02498
G1 X223.219 Y41.115 E.02535
G1 X222.842 Y42.675 E.05032
G1 X222.2 Y44.147 E.05035
G1 X221.311 Y45.484 E.05034
G1 X220.181 Y46.672 E.05141
G1 X55.236 Y192.147 E6.89578
G1 X53.917 Y193.12 E.05139
G1 X52.479 Y193.835 E.05035
G1 X50.939 Y194.288 E.05033
G1 X49.343 Y194.467 E.05036
G1 X47.741 Y194.367 E.05033
G1 X46.181 Y193.99 E.05032
G1 X44.709 Y193.347 E.05036
G1 X43.372 Y192.459 E.05032
G1 X42.184 Y191.328 E.05143
G1 X29.001 Y176.38 E.62491
G1 X28.027 Y175.061 E.05141
G1 X27.313 Y173.623 E.05034
G1 X26.86 Y172.083 E.05033
G1 X26.68 Y170.487 E.05036
G1 X26.781 Y168.885 E.05033
G1 X27.158 Y167.325 E.05032
G1 X27.8 Y165.853 E.05035
G1 X28.689 Y164.516 E.05034
G1 X29.819 Y163.328 E.05141
G1 X194.764 Y17.853 E6.89578
G1 X196.083 Y16.88 E.05139
M73 P2 R92
G1 X197.521 Y16.165 E.05035
G1 X199.061 Y15.712 E.05033
G1 X200.657 Y15.533 E.05036
G1 X200.976 Y15.553 E.01002
M204 S1000
G1 X200.976 Y15.553 F10800
G1 X201.059 Y15.18
M204 S800
;TYPE:External perimeter
G1 F1200
G1 X202.315 Y15.259 E.03946
G1 X203.94 Y15.652 E.05242
G1 X205.472 Y16.32 E.0524
G1 X206.864 Y17.245 E.0524
G1 X208.088 Y18.41 E.05298
G1 X221.293 Y33.383 E.62596
G1 X222.296 Y34.742 E.05296
G1 X223.039 Y36.239 E.0524
G1 X223.511 Y37.842 E.05239
G1 X223.698 Y39.503 E.05241
G1 X223.646 Y40.331 E.02601
G1 X223.593 Y41.171 E.02639
G1 X223.201 Y42.796 E.05241
G1 X222.532 Y44.328 E.05241
G1 X221.607 Y45.72 E.0524
G1 X220.443 Y46.944 E.05296
G1 X55.473 Y192.441 E6.89683
G1 X54.114 Y193.443 E.05294
G1 X52.617 Y194.187 E.05241
G1 X51.014 Y194.659 E.05239
G1 X49.353 Y194.846 E.05241
G1 X47.685 Y194.741 E.0524
G1 X46.06 Y194.348 E.05242
G1 X44.528 Y193.68 E.0524
G1 X43.136 Y192.755 E.0524
G1 X41.912 Y191.59 E.05298
G1 X28.707 Y176.617 E.62596
G1 X27.704 Y175.258 E.05296
G1 X26.961 Y173.761 E.0524
G1 X26.489 Y172.158 E.05239
G1 X26.302 Y170.497 E.05241
G1 X26.407 Y168.829 E.0524
G1 X26.799 Y167.204 E.05241
G1 X27.468 Y165.672 E.05241
G1 X28.393 Y164.28 E.0524
G1 X29.557 Y163.056 E.05296
G1 X194.527 Y17.559 E6.89683
G1 X195.886 Y16.557 E.05294
G1 X197.383 Y15.813 E.05241
G1 X198.986 Y15.341 E.05239
G1 X200.647 Y15.154 E.05241
G1 X201 Y15.176 E.01109
M204 S1000
;WIPE_START
G1 F8640
G1 X201.059 Y15.18 E-.01365
G1 X202.315 Y15.259 E-.29059
G1 X203.94 Y15.652 E-.38603
G1 X204.376 Y15.842 E-.10973
;WIPE_END
G1 Z.6 F720
G1 X205.974 Y17.31 F10800
G1 Z.2 F720
G1 E.8 F2100
M204 S800
;TYPE:Solid infill
;WIDTH:0.420335
G1 F1200
G1 X207.572 Y18.908 E.07092
G1 X211.56 Y23.43 E.18921
G1 X205.046 Y16.916 E.2891
G1 X204.099 Y16.503 E.03242
G1 X215.548 Y27.952 E.50812
G1 X219.536 Y32.474 E.18921
G1 X203.295 Y16.233 E.72079
G1 X202.591 Y16.063 E.02273
G1 X221.718 Y35.189 E.84886
G1 X222.245 Y36.25 E.03718
G1 X201.949 Y15.954 E.90076
G1 X201.379 Y15.918 E.01792
G1 X222.54 Y37.078 E.93913
G1 X222.762 Y37.835 E.02476
G1 X200.81 Y15.882 E.97428
G1 X200.665 Y15.873 E.00456
G1 X200.307 Y15.913 E.0113
G1 X222.861 Y38.467 E1.00097
G1 X222.928 Y39.068 E.01898
G1 X199.827 Y15.967 E1.02525
G1 X199.347 Y16.021 E.01516
G1 X222.971 Y39.645 E1.04846
G1 X222.94 Y40.147 E.01578
G1 X198.904 Y16.112 E1.06672
G1 X198.492 Y16.233 E.01348
G1 X222.908 Y40.65 E1.08363
G1 X222.864 Y41.139 E.01541
G1 X198.08 Y16.355 E1.09994
G1 X197.667 Y16.476 E.01351
G1 X222.76 Y41.569 E1.11366
G1 X222.656 Y41.999 E.01388
G1 X197.308 Y16.65 E1.12499
G1 X196.951 Y16.827 E.0125
G1 X222.552 Y42.429 E1.13622
G1 X222.519 Y42.567 E.00445
G1 X222.409 Y42.819 E.00863
G1 X196.595 Y17.005 E1.14565
G1 X196.241 Y17.185 E.01246
M73 P2 R91
G1 X222.247 Y43.19 E1.15415
G1 X222.085 Y43.562 E.01273
M73 P3 R91
G1 X195.934 Y17.411 E1.16061
G1 X195.627 Y17.638 E.01198
G1 X221.922 Y43.933 E1.167
G1 X221.716 Y44.261 E.01216
G1 X205.504 Y28.049 E.71951
G1 X201.588 Y23.609 E.18579
G1 X201.419 Y23.461 E.00705
G1 X201.232 Y23.366 E.00658
G1 X201.058 Y23.321 E.00564
G1 X200.779 Y23.324 E.00876
G1 X195.32 Y17.865 E.24228
G1 X195.012 Y18.091 E.01199
G1 X200.402 Y23.481 E.23921
G1 X200.109 Y23.721 E.01189
G1 X194.726 Y18.339 E.23888
G1 X194.443 Y18.589 E.01185
G1 X199.825 Y23.971 E.23886
G1 X199.541 Y24.221 E.01187
G1 X194.159 Y18.839 E.23886
G1 X193.875 Y19.089 E.01187
G1 X199.258 Y24.471 E.23888
G1 X198.974 Y24.722 E.01189
G1 X193.592 Y19.339 E.23888
G1 X193.308 Y19.589 E.01187
G1 X198.691 Y24.972 E.2389
G1 X198.407 Y25.222 E.01187
G1 X193.024 Y19.839 E.2389
G1 X192.741 Y20.09 E.01187
G1 X198.123 Y25.472 E.23886
G1 X197.84 Y25.722 E.01185
G1 X192.457 Y20.34 E.23888
G1 X192.174 Y20.59 E.01185
G1 X197.556 Y25.972 E.23886
G1 X197.273 Y26.222 E.01185
G1 X191.89 Y20.84 E.23888
G1 X191.606 Y21.09 E.01187
G1 X196.989 Y26.473 E.2389
G1 X196.705 Y26.723 E.01187
G1 X191.323 Y21.34 E.23888
G1 X191.039 Y21.59 E.01187
G1 X196.422 Y26.973 E.2389
G1 X196.138 Y27.223 E.01187
G1 X190.756 Y21.84 E.23888
G1 X190.472 Y22.091 E.01189
G1 X195.855 Y27.473 E.23888
G1 X195.571 Y27.723 E.01187
G1 X190.188 Y22.341 E.23888
G1 X189.905 Y22.591 E.01185
G1 X195.287 Y27.973 E.23886
G1 X195.004 Y28.224 E.01187
G1 X189.621 Y22.841 E.2389
G1 X189.338 Y23.091 E.01185
G1 X194.72 Y28.474 E.23888
G1 X194.436 Y28.724 E.01187
G1 X189.054 Y23.341 E.23888
G1 X188.77 Y23.591 E.01187
G1 X194.153 Y28.974 E.2389
G1 X193.869 Y29.224 E.01187
G1 X188.487 Y23.842 E.23886
G1 X188.203 Y24.092 E.01187
G1 X193.586 Y29.474 E.23888
G1 X193.302 Y29.724 E.01187
G1 X187.919 Y24.342 E.23888
G1 X187.636 Y24.592 E.01185
G1 X193.018 Y29.975 E.23888
G1 X192.735 Y30.225 E.01185
G1 X187.352 Y24.842 E.2389
G1 X187.069 Y25.092 E.01185
G1 X192.451 Y30.475 E.23888
G1 X192.168 Y30.725 E.01185
G1 X186.785 Y25.342 E.2389
G1 X186.501 Y25.592 E.01187
G1 X191.884 Y30.975 E.2389
G1 X191.6 Y31.225 E.01187
G1 X186.218 Y25.843 E.23886
G1 X185.934 Y26.093 E.01187
G1 X191.317 Y31.475 E.23888
G1 X191.033 Y31.726 E.01189
G1 X185.651 Y26.343 E.23888
G1 X185.367 Y26.593 E.01187
G1 X190.75 Y31.976 E.2389
G1 X190.466 Y32.226 E.01187
G1 X185.083 Y26.843 E.2389
G1 X184.8 Y27.093 E.01185
G1 X190.182 Y32.476 E.23888
G1 X189.899 Y32.726 E.01185
G1 X184.516 Y27.343 E.2389
G1 X184.233 Y27.594 E.01187
G1 X189.615 Y32.976 E.23886
G1 X189.332 Y33.226 E.01185
G1 X183.949 Y27.844 E.23888
G1 X183.665 Y28.094 E.01187
G1 X189.048 Y33.476 E.23888
G1 X188.764 Y33.727 E.01189
G1 X183.382 Y28.344 E.23888
G1 X183.098 Y28.594 E.01187
G1 X188.481 Y33.977 E.2389
G1 X188.197 Y34.227 E.01187
G1 X182.814 Y28.844 E.2389
G1 X182.531 Y29.094 E.01185
G1 X187.914 Y34.477 E.2389
G1 X187.63 Y34.727 E.01187
G1 X182.247 Y29.345 E.23888
G1 X181.964 Y29.595 E.01185
G1 X187.346 Y34.977 E.23886
G1 X187.063 Y35.227 E.01185
G1 X181.68 Y29.845 E.23888
G1 X181.396 Y30.095 E.01187
G1 X186.779 Y35.478 E.2389
G1 X186.496 Y35.728 E.01185
G1 X181.113 Y30.345 E.2389
G1 X180.829 Y30.595 E.01187
G1 X186.212 Y35.978 E.2389
G1 X185.928 Y36.228 E.01187
G1 X180.546 Y30.845 E.23888
G1 X180.262 Y31.095 E.01187
G1 X185.645 Y36.478 E.2389
G1 X185.361 Y36.728 E.01187
G1 X179.978 Y31.346 E.23888
G1 X179.695 Y31.596 E.01185
G1 X185.077 Y36.978 E.23886
G1 X184.794 Y37.229 E.01187
G1 X179.411 Y31.846 E.2389
G1 X179.128 Y32.096 E.01185
G1 X184.51 Y37.479 E.23888
G1 X184.227 Y37.729 E.01185
G1 X178.844 Y32.346 E.2389
G1 X178.56 Y32.596 E.01187
G1 X183.943 Y37.979 E.2389
G1 X183.659 Y38.229 E.01187
G1 X178.277 Y32.846 E.23888
G1 X177.993 Y33.097 E.01189
G1 X183.376 Y38.479 E.23888
G1 X183.092 Y38.729 E.01187
G1 X177.71 Y33.347 E.23886
G1 X177.426 Y33.597 E.01187
G1 X182.809 Y38.98 E.2389
G1 X182.525 Y39.23 E.01187
G1 X177.142 Y33.847 E.2389
G1 X176.859 Y34.097 E.01185
G1 X182.241 Y39.48 E.23888
G1 X181.958 Y39.73 E.01185
G1 X176.575 Y34.347 E.2389
G1 X176.291 Y34.597 E.01187
G1 X181.674 Y39.98 E.2389
G1 X181.391 Y40.23 E.01185
G1 X176.008 Y34.847 E.2389
G1 X175.724 Y35.098 E.01189
G1 X181.107 Y40.48 E.23888
G1 X180.823 Y40.73 E.01187
G1 X175.441 Y35.348 E.23886
G1 X175.157 Y35.598 E.01187
G1 X180.54 Y40.981 E.2389
G1 X180.256 Y41.231 E.01187
