; generated by PrusaSlicer 2.8.1+win64 on 2024-11-16 at 20:23:11 UTC


;
;
; 

; external perimeters extrusion width = 0.45mm
; perimeters extrusion width = 0.45mm
; infill extrusion width = 0.45mm
; solid infill extrusion width = 0.45mm
; top infill extrusion width = 0.45mm
; first layer extrusion width = 0.42mm

M73 P0 R52
M201 X9000 Y9000 Z500 E10000 ; sets maximum accelerations, mm/sec^2
M203 X500 Y500 Z12 E120 ; sets maximum feedrates, mm / sec
M204 S2000 T1500 ; sets acceleration (S) and retract acceleration (R), mm/sec^2
M205 X10.00 Y10.00 Z0.20 E4.50 ; sets the jerk limits, mm/sec
M205 S0 T0 ; sets the minimum extruding and travel feed rate, mm/sec

; printing object HoseClip v2.stl id:0 copy 0
; stop printing object HoseClip v2.stl id:0 copy 0

;TYPE:Custom
M862.3 P "MK2.5S" ; printer model check
M862.1 P0.4 ; nozzle diameter check
M115 U3.14.0 ; tell printer latest fw version
G90 ; use absolute coordinates
M83 ; extruder relative mode
M104 S215 ; set extruder temp
M140 S60 ; set bed temp
M190 S60 ; wait for bed temp
M109 S215 ; wait for extruder temp
G28 W ; home all without mesh bed level
G80 X92.573 Y79.5934 W64.875 H50.813 ; mesh bed levelling

G1 Z0.2 F720
G1 Y-3 F1000 ; go outside print area
G92 E0
G1 X60 E9 F1000 ; intro line
G1 X100 E12.5 F1000 ; intro line

G92 E0
G21 ; set units to millimeters
G90 ; use absolute coordinates
M83 ; use relative distances for extrusion

M900 K0.05 ; Filament gcode LA 1.5
M900 K30 ; Filament gcode LA 1.0




M107
;LAYER_CHANGE
;Z:0.2
;HEIGHT:0.2
G1 E-.8 F2100
G1 Z.6 F720
G1 X99.836 Y101.253 F10800
G1 Z.2 F720
G1 E.8 F2100
M204 S800
;TYPE:Skirt/Brim
;WIDTH:0.42
G1 F1200
G1 X116.693 Y84.632 E.74225
G1 X118.596 Y83.078 E.07703
G1 X119.829 Y82.278 E.04608
G1 X120.979 Y81.653 E.04104
G1 X123.249 Y80.712 E.07705
G1 X124.659 Y80.302 E.04604
G1 X125.941 Y80.034 E.04107
G1 X128.386 Y79.786 E.07705
G1 X129.695 Y79.792 E.04104
G1 X132.295 Y80.089 E.08205
G1 X133.726 Y80.42 E.04605
G1 X136.192 Y81.296 E.08205
G1 X138.368 Y82.438 E.07705
G1 X140.49 Y83.968 E.08202
G1 X141.577 Y84.957 E.04608
G1 X143.299 Y86.927 E.08204
G1 X144.692 Y89.08 E.0804
G1 X152.53 Y103.838 E.52394
G1 X153.769 Y106.911 E.10389
G1 X154.724 Y109.606 E.08965
G1 X156.459 Y115.237 E.18475
G1 X156.957 Y117.405 E.06975
G1 X157.218 Y119.259 E.0587
G1 X157.25 Y120.67 E.04425
G1 X157.092 Y121.928 E.03975
G1 X156.611 Y123.048 E.03822
G1 X156.212 Y123.531 E.01964
G1 X155.322 Y124.349 E.0379
G1 X154.269 Y125.042 E.03952
G1 X152.337 Y125.903 E.06632
G1 X149.135 Y126.901 E.10516
G1 X144.815 Y128.008 E.13983
G1 X139.533 Y129.166 E.16955
G1 X136.025 Y129.78 E.11166
G1 X133.232 Y130.113 E.08819
G1 X131.009 Y130.218 E.06978
G1 X128.892 Y130.085 E.06651
G1 X128.388 Y129.956 E.01631
G1 X98.729 Y118.43 E.99769
G1 X98.101 Y118.041 E.02316
G1 X97.456 Y117.439 E.02766
G1 X93.278 Y112.648 E.19931
G1 X92.753 Y111.45 E.04101
G1 X93.05 Y110.09 E.04365
G1 X95.124 Y106.617 E.12683
G1 X96.535 Y104.624 E.07656
G1 X97.344 Y103.71 E.03827
G1 X99.793 Y101.296 E.10782
M204 S1000
;WIPE_START
G1 F8640
G1 X99.836 Y101.253 E-.01404
G1 X102.26 Y98.863 E-.78596
;WIPE_END
G1 Z.6 F720
; printing object HoseClip v2.stl id:0 copy 0
G1 X125.139 Y109.311 F10800
G1 Z.2 F720
G1 E.8 F2100
M204 S800
;TYPE:External perimeter
;WIDTH:0.38292
G1 F1200
G1 X124.274 Y109.155 E.02485
M204 S1000
;WIPE_START
G1 F8640
G1 X125.139 Y109.311 E-.20295
G1 X124.274 Y109.155 E-.20295
;WIPE_END
G1 E-.3941 F2100
G1 Z.6 F720
G1 X113.778 Y112.238 F10800
G1 Z.2 F720
G1 E.8 F2100
M204 S800
;TYPE:Perimeter
;WIDTH:0.419999
G1 F1200
G1 X113.864 Y112.423 E.0064
G1 X114.286 Y112.814 E.01804
G1 X114.473 Y112.925 E.00682
G1 X114.81 Y112.938 E.01057
G1 X115.267 Y112.814 E.01485
G1 X115.17 Y113.228 E.01333
G1 X115.254 Y113.554 E.01056
G1 X115.401 Y113.713 E.00679
G1 X115.815 Y114.016 E.01609
G1 X116.005 Y114.106 E.00659
G1 X116.353 Y114.087 E.01093
G1 X116.779 Y113.922 E.01432
G1 X116.735 Y114.256 E.01056
G1 X116.791 Y114.586 E.01049
G1 X116.998 Y114.811 E.00959
G1 X117.426 Y115.075 E.01577
G1 X117.714 Y115.159 E.00941
G1 X117.987 Y115.094 E.0088
G1 X118.351 Y114.902 E.0129
G1 X118.325 Y115.209 E.00966
G1 X118.407 Y115.553 E.01109
G1 X118.627 Y115.758 E.00943
G1 X119.084 Y115.993 E.01611
G1 X119.347 Y116.032 E.00834
G1 X119.655 Y115.905 E.01045
G1 X120.072 Y115.564 E.01689
G1 X119.991 Y116.063 E.01585
G1 X120.089 Y116.381 E.01043
G1 X120.163 Y116.469 E.00361
G1 X120.333 Y116.583 E.00642
G1 X120.814 Y116.796 E.01649
G1 X121.036 Y116.805 E.00697
G1 X121.334 Y116.66 E.01039
G1 X121.781 Y116.243 E.01917
G1 X121.746 Y116.784 E.017
G1 X121.848 Y117.147 E.01182
G1 X122.043 Y117.32 E.00817
G1 X122.529 Y117.504 E.01629
G1 X122.787 Y117.486 E.00811
G1 X123.02 Y117.347 E.00851
G1 X123.553 Y116.77 E.02463
G1 X123.598 Y117.5 E.02293
G1 X123.732 Y117.736 E.00851
G1 X123.814 Y117.807 E.0034
G1 X124.265 Y117.978 E.01512
G1 X124.533 Y117.974 E.0084
G1 X124.797 Y117.82 E.00958
G1 X125.318 Y117.283 E.02346
G1 X125.587 Y118.242 E.03123
G1 X125.724 Y118.481 E.00864
G1 X126.174 Y118.743 E.01633
G1 X126.333 Y119.162 E.01405
G1 X126.388 Y119.747 E.01842
G1 X126.366 Y120.188 E.01384
G1 X126.258 Y120.559 E.01212
G1 X126.103 Y120.814 E.00936
G1 X125.733 Y121.304 E.01925
G1 X125.561 Y121.168 E.00688
G1 X125.139 Y121.141 E.01326
G1 X124.489 Y121.166 E.0204
G1 X124.147 Y121.362 E.01236
G1 X124.074 Y121.23 E.00473
G1 X123.905 Y121.096 E.00676
G1 X123.398 Y120.962 E.01644
G1 X122.698 Y120.824 E.02237
G1 X122.373 Y120.936 E.01078
G1 X122.173 Y120.669 E.01046
G1 X121.761 Y120.499 E.01397
G1 X120.956 Y120.247 E.02645
G1 X120.649 Y120.347 E.01012
G1 X120.495 Y120.064 E.0101
G1 X120.187 Y119.896 E.011
G1 X119.387 Y119.556 E.02725
G1 X119.006 Y119.599 E.01202
G1 X118.857 Y119.329 E.00967
G1 X118.776 Y119.261 E.00332
G1 X117.725 Y118.727 E.03696
G1 X117.356 Y118.753 E.0116
G1 X117.236 Y118.485 E.00921
G1 X117.1 Y118.372 E.00554
G1 X116.514 Y118.027 E.02132
G1 X116.071 Y117.794 E.01569
G1 X115.778 Y117.794 E.00919
G1 X115.665 Y117.537 E.0088
G1 X115.284 Y117.248 E.01499
G1 X114.625 Y116.795 E.02507
G1 X114.302 Y116.717 E.01042
G1 X114.207 Y116.507 E.00723
G1 X114.116 Y116.41 E.00417
G1 X113.618 Y115.994 E.02035
G1 X113.166 Y115.623 E.01833
G1 X112.877 Y115.538 E.00945
G1 X112.807 Y115.311 E.00745
G1 X112.727 Y115.204 E.00419
G1 X112.356 Y114.816 E.01683
G1 X111.892 Y114.339 E.02086
G1 X111.612 Y114.227 E.00946
G1 X111.57 Y113.995 E.00739
G1 X111.484 Y113.854 E.00518
G1 X110.906 Y113.157 E.02839
G1 X110.66 Y112.915 E.01082
G1 X110.385 Y112.836 E.00897
G1 X110.396 Y112.773 E.00201
G1 X110.336 Y112.495 E.00892
G1 X110.105 Y112.214 E.01141
G1 X109.627 Y111.699 E.02203
G1 X109.045 Y111.159 E.02489
G1 X108.397 Y110.678 E.0253
G1 X107.679 Y110.295 E.02551
G1 X107.012 Y110.076 E.02201
G1 X106.671 Y110.028 E.0108
G1 X106.066 Y109.979 E.01903
G1 X105.343 Y110.065 E.02283
G1 X104.904 Y110.202 E.01442
G1 X104.412 Y110.378 E.01638
G1 X103.7 Y110.77 E.02548
G1 X103.26 Y111.079 E.01686
G1 X102.547 Y111.692 E.02948
G1 X101.611 Y112.714 E.04345
G1 X101.071 Y113.429 E.02809
G1 X100.608 Y114.123 E.02616
G1 X99.773 Y115.526 E.05119
G1 X99.597 Y115.371 E.00735
G1 X99.106 Y114.803 E.02354
G1 X97.421 Y112.764 E.08294
G1 X96.488 Y111.71 E.04413
G1 X95.911 Y111.102 E.02628
G1 X97.63 Y108.223 E.10514
G1 X98.184 Y107.367 E.03197
G1 X98.791 Y106.565 E.03154
G1 X99.454 Y105.809 E.03153
G1 X100.17 Y105.103 E.03153
G1 X100.936 Y104.452 E.03152
G1 X101.747 Y103.857 E.03154
G1 X102.599 Y103.324 E.03151
G1 X103.488 Y102.854 E.03153
G1 X104.409 Y102.449 E.03155
G1 X105.218 Y102.162 E.02691
G1 X105.702 Y102.018 E.01583
G1 X106.513 Y101.809 E.02626
G1 X107.475 Y101.631 E.03067
G1 X108.395 Y101.523 E.02904
G1 X108.993 Y101.495 E.01877
G1 X110.146 Y101.531 E.03617
G1 X110.698 Y101.525 E.01731
G1 X111.334 Y101.406 E.02029
G1 X111.876 Y101.21 E.01807
G1 X112.373 Y100.936 E.01779
G1 X112.841 Y100.566 E.01871
G1 X113.243 Y100.125 E.01871
G1 X113.567 Y99.623 E.01873
G1 X113.805 Y99.076 E.0187
G1 X113.949 Y98.496 E.01874
G1 X113.997 Y97.973 E.01647
G1 X114.053 Y96.473 E.04706
G1 X114.183 Y95.392 E.03414
G1 X114.392 Y94.32 E.03424
G1 X114.679 Y93.264 E.03431
G1 X115.041 Y92.236 E.03417
G1 X115.478 Y91.235 E.03425
G1 X115.986 Y90.268 E.03425
G1 X116.564 Y89.342 E.03423
G1 X117.208 Y88.459 E.03427
G1 X117.914 Y87.627 E.03421
G1 X118.68 Y86.847 E.03428
G1 X119.5 Y86.126 E.03424
G1 X120.37 Y85.467 E.03422
G1 X121.287 Y84.872 E.03427
G1 X122.244 Y84.347 E.03422
G1 X123.237 Y83.892 E.03425
G1 X124.26 Y83.511 E.03423
G1 X125.309 Y83.206 E.03425
G1 X126.377 Y82.978 E.03424
G1 X127.459 Y82.828 E.03425
G1 X128.55 Y82.758 E.03428
G1 X129.641 Y82.767 E.03421
G1 X130.729 Y82.856 E.03423
G1 X131.809 Y83.024 E.03427
G1 X132.872 Y83.271 E.03422
G1 X133.916 Y83.594 E.03426
G1 X134.932 Y83.993 E.03422
G1 X135.917 Y84.464 E.03423
G1 X136.865 Y85.007 E.03425
G1 X137.771 Y85.617 E.03425
G1 X138.63 Y86.291 E.03423
G1 X139.438 Y87.026 E.03425
G1 X140.19 Y87.818 E.03424
G1 X140.882 Y88.663 E.03424
G1 X141.51 Y89.556 E.03423
G1 X142.072 Y90.493 E.03426
G1 X142.564 Y91.468 E.03424
G1 X142.984 Y92.476 E.03424
G1 X143.329 Y93.513 E.03427
G1 X143.597 Y94.571 E.03422
G1 X143.782 Y95.618 E.03334
G1 X143.913 Y97.203 E.04987
G1 X143.928 Y97.856 E.02048
G1 X143.904 Y98.504 E.02033
G1 X144.047 Y99.148 E.02068
G1 X144.355 Y99.799 E.02258
G1 X144.881 Y100.527 E.02816
G1 X145.222 Y100.911 E.0161
G1 X145.727 Y101.369 E.02138
G1 X146.703 Y102.008 E.03658
G1 X147.855 Y102.459 E.03879
G1 X148.33 Y102.703 E.01674
G1 X148.612 Y102.965 E.01207
G1 X148.963 Y103.435 E.01839
G1 X149.588 Y104.571 E.04065
G1 X150.274 Y106.126 E.05329
G1 X150.986 Y107.963 E.06177
G1 X151.916 Y110.592 E.08744
G1 X152.753 Y113.148 E.08433
G1 X153.286 Y114.921 E.05805
G1 X153.585 Y116.008 E.03535
G1 X153.834 Y117.015 E.03252
G1 X154.051 Y118.07 E.03377
G1 X154.176 Y118.835 E.0243
G1 X154.258 Y119.609 E.0244
G1 X154.28 Y120.298 E.02161
G1 X154.261 Y120.77 E.01481
G1 X154.165 Y121.335 E.01797
G1 X153.813 Y121.727 E.01652
G1 X153.226 Y122.194 E.02352
G1 X152.431 Y122.645 E.02866
G1 X151.932 Y122.868 E.01714
G1 X151.331 Y123.102 E.02022
G1 X150.216 Y123.48 E.03691
G1 X148.325 Y124.037 E.06181
G1 X146.639 Y124.489 E.05473
G1 X144.133 Y125.112 E.08097
G1 X141.505 Y125.715 E.08454
G1 X138.945 Y126.249 E.08199
G1 X137.749 Y126.476 E.03817
G1 X135.576 Y126.838 E.06907
G1 X134.173 Y127.026 E.04438
G1 X132.956 Y127.15 E.03836
G1 X132.248 Y127.201 E.02226
G1 X130.951 Y127.24 E.04068
G1 X129.953 Y127.208 E.03131
G1 X129.899 Y124.59 E.0821
G1 X130.379 Y124.249 E.01846
G1 X130.559 Y124.772 E.01734
G1 X130.789 Y125.064 E.01165
G1 X131.053 Y125.152 E.00873
G1 X131.21 Y125.141 E.00493
G1 X131.454 Y125.024 E.00848
G1 X132.298 Y124.328 E.0343
G1 X132.421 Y124.685 E.01184
G1 X132.677 Y124.993 E.01256
G1 X133.013 Y125.063 E.01076
G1 X133.349 Y124.907 E.01162
G1 X134.188 Y124.095 E.03661
G1 X134.321 Y124.482 E.01283
G1 X134.557 Y124.778 E.01187
G1 X134.819 Y124.862 E.00863
G1 X135.027 Y124.837 E.00657
G1 X135.277 Y124.677 E.00931
G1 X136.033 Y123.826 E.03569
G1 X136.144 Y124.033 E.00736
G1 X136.495 Y124.311 E.01404
G1 X136.994 Y124.328 E.01565
G1 X137.236 Y124.226 E.00823
G1 X137.388 Y124.059 E.00708
G1 X137.826 Y123.32 E.02693
G1 X138.152 Y123.856 E.01967
G1 X138.341 Y124.045 E.00838
G1 X138.67 Y124.127 E.01063
G1 X139.032 Y123.965 E.01243
G1 X139.122 Y123.85 E.00458
G1 X139.606 Y123.033 E.02977
G1 X139.83 Y123.402 E.01353
G1 X140.039 Y123.602 E.00907
G1 X140.331 Y123.673 E.00942
G1 X140.619 Y123.583 E.00946
G1 X140.796 Y123.403 E.00792
G1 X141.404 Y122.41 E.03651
G1 X141.539 Y122.632 E.00815
G1 X141.923 Y122.895 E.01459
G1 X142.413 Y122.875 E.01538
G1 X142.658 Y122.75 E.00862
G1 X142.798 Y122.565 E.00727
G1 X143.154 Y121.808 E.02623
G1 X143.618 Y122.34 E.02213
G1 X143.901 Y122.437 E.00938
G1 X144.189 Y122.378 E.00922
G1 X144.448 Y122.114 E.0116
G1 X144.914 Y121.123 E.03434
G1 X145.075 Y121.321 E.008
G1 X145.52 Y121.529 E.0154
G1 X145.786 Y121.46 E.00862
G1 X146.66 Y120.98 E.03126
G1 X147.92 Y120.229 E.04599
G1 X148.597 Y119.798 E.02516
G1 X149.234 Y119.313 E.0251
G1 X149.629 Y118.909 E.01772
G1 X149.924 Y118.483 E.01625
G1 X150.153 Y117.902 E.01958
G1 X150.234 Y117.408 E.0157
G1 X150.156 Y116.568 E.02645
G1 X149.866 Y115.742 E.02745
G1 X149.578 Y115.189 E.01955
G1 X149.235 Y114.641 E.02027
G1 X148.672 Y113.877 E.02976
G1 X148.049 Y113.099 E.03125
G1 X146.97 Y111.913 E.05027
G1 X146.405 Y111.419 E.02353
G1 X145.955 Y111.196 E.01575
G1 X145.527 Y111.132 E.01357
G1 X145.032 Y111.226 E.0158
G1 X144.312 Y111.56 E.02489
G1 X144.135 Y111.689 E.00687
G1 X144.014 Y111.979 E.00985
G1 X143.568 Y112.216 E.01584
G1 X143.411 Y112.34 E.00627
G1 X142.898 Y112.92 E.02428
G1 X142.569 Y113.326 E.01638
G1 X142.559 Y113.529 E.00637
G1 X142.143 Y113.539 E.01305
G1 X141.94 Y113.622 E.00688
G1 X141.222 Y114.093 E.02692
G1 X141.063 Y114.25 E.00701
G1 X140.978 Y114.578 E.01062
G1 X140.477 Y114.521 E.01581
G1 X140.284 Y114.533 E.00606
G1 X139.882 Y114.732 E.01406
G1 X139.427 Y115.01 E.01672
G1 X139.304 Y115.308 E.01011
G1 X138.672 Y115.132 E.02057
G1 X138.312 Y115.219 E.01161
G1 X137.771 Y115.414 E.01803
G1 X137.585 Y115.579 E.0078
G1 X137.479 Y115.859 E.00939
G1 X136.962 Y115.656 E.01741
G1 X136.043 Y115.684 E.02883
G1 X135.81 Y115.84 E.00879
G1 X135.66 Y116.195 E.01208
G1 X135.075 Y115.894 E.02063
G1 X134.892 Y115.876 E.00577
G1 X134.364 Y115.91 E.01659
G1 X134.074 Y115.981 E.00936
G1 X133.858 Y116.19 E.00942
G1 X133.788 Y116.376 E.00623
G1 X133.375 Y116.15 E.01476
G1 X133.123 Y116.14 E.00791
G1 X132.218 Y116.317 E.02891
G1 X131.98 Y116.502 E.00945
G1 X131.782 Y116.395 E.00706
G1 X131.626 Y116.38 E.00491
G1 X131.025 Y116.406 E.01886
G1 X130.427 Y116.386 E.01876
G1 X130.236 Y116.428 E.00613
G1 X129.696 Y116.1 E.01981
G1 X130.022 Y114.366 E.05532
G1 X130.776 Y114.219 E.02409
G1 X131.746 Y113.966 E.03143
G1 X132.586 Y113.717 E.02747
G1 X133.692 Y113.3 E.03706
G1 X134.72 Y112.815 E.03564
G1 X135.67 Y112.263 E.03445
G1 X136.54 Y111.646 E.03344
G1 X137.335 Y110.965 E.03282
G1 X138.37 Y109.862 E.04743
G1 X138.692 Y109.444 E.01654
G1 X139.043 Y108.973 E.01842
G1 X139.519 Y108.258 E.02693
G1 X140.139 Y107.176 E.0391
G1 X140.458 Y106.569 E.0215
G1 X140.997 Y105.401 E.04033
G1 X141.425 Y104.345 E.03573
G1 X141.873 Y103.041 E.04323
G1 X142.113 Y102.151 E.0289
G1 X142.356 Y100.838 E.04187
G1 X142.45 Y100.015 E.02597
G1 X142.496 Y99.223 E.02487
G1 X142.489 Y98.412 E.02543
G1 X142.458 Y97.86 E.01733
G1 X142.364 Y96.885 E.03071
G1 X142.108 Y95.338 E.04916
G1 X141.9 Y94.443 E.02881
G1 X141.667 Y93.605 E.02727
G1 X141.419 Y92.833 E.02542
G1 X141.144 Y92.096 E.02466
G1 X140.894 Y91.509 E.02
G1 X140.615 Y90.953 E.0195
G1 X140.065 Y90.049 E.03318
G1 X139.743 Y89.58 E.01784
G1 X139.062 Y88.717 E.03447
G1 X138.312 Y87.93 E.03409
G1 X137.509 Y87.228 E.03344
G1 X136.942 Y86.809 E.02211
G1 X136.185 Y86.308 E.02846
G1 X135.707 Y86.034 E.01728
G1 X135.236 Y85.801 E.01648
G1 X134.346 Y85.4 E.03061
G1 X133.429 Y85.064 E.03062
G1 X132.49 Y84.792 E.03065
G1 X131.536 Y84.583 E.03062
G1 X130.569 Y84.437 E.03066
G1 X129.579 Y84.355 E.03115
M73 P1 R52
G1 X128.53 Y84.341 E.03289
G1 X127.496 Y84.399 E.03247
G1 X126.482 Y84.527 E.03205
G1 X125.495 Y84.721 E.03154
G1 X124.541 Y84.978 E.03098
G1 X123.625 Y85.293 E.03037
G1 X122.751 Y85.662 E.02975
G1 X121.925 Y86.081 E.02904
G1 X121.13 Y86.556 E.02904
G1 X120.314 Y87.134 E.03135
G1 X119.546 Y87.775 E.03137
G1 X119.136 Y88.154 E.01751
G1 X118.577 Y88.749 E.0256
G1 X118.073 Y89.367 E.025
G1 X117.615 Y90.017 E.02493
G1 X117.228 Y90.653 E.02334
G1 X116.883 Y91.316 E.02343
G1 X116.588 Y91.987 E.02298
G1 X116.332 Y92.686 E.02334
G1 X116.13 Y93.35 E.02176
G1 X115.962 Y94.038 E.02221
G1 X115.83 Y94.729 E.02206
G1 X115.717 Y95.585 E.02707
G1 X115.666 Y96.12 E.01685
G1 X115.632 Y96.818 E.02191
G1 X115.646 Y97.971 E.03615
G1 X115.752 Y99.199 E.03865
G1 X115.859 Y99.904 E.02236
G1 X116.005 Y100.626 E.0231
G1 X116.199 Y101.375 E.02426
G1 X116.533 Y102.402 E.03386
G1 X116.806 Y103.076 E.0228
G1 X117.116 Y103.736 E.02286
G1 X117.463 Y104.379 E.02291
G1 X118.068 Y105.326 E.03523
G1 X118.433 Y105.824 E.01936
G1 X118.847 Y106.333 E.02057
G1 X119.309 Y106.84 E.02151
