; generated by PrusaSlicer 2.8.1+win64 on 2024-10-28 at 23:53:14 UTC


;
;
; 

; external perimeters extrusion width = 0.45mm
; perimeters extrusion width = 0.45mm
; infill extrusion width = 0.45mm
; solid infill extrusion width = 0.45mm
; top infill extrusion width = 0.45mm
; first layer extrusion width = 0.42mm

M73 P0 R168
M201 X9000 Y9000 Z500 E10000 ; sets maximum accelerations, mm/sec^2
M203 X500 Y500 Z12 E120 ; sets maximum feedrates, mm / sec
M204 S2000 T1500 ; sets acceleration (S) and retract acceleration (R), mm/sec^2
M205 X10.00 Y10.00 Z0.20 E4.50 ; sets the jerk limits, mm/sec
M205 S0 T0 ; sets the minimum extruding and travel feed rate, mm/sec

; printing object Pen holder - lower part.stl id:0 copy 0
; stop printing object Pen holder - lower part.stl id:0 copy 0

;TYPE:Custom
M862.3 P "MK2.5S" ; printer model check
M862.1 P0.4 ; nozzle diameter check
M115 U3.14.0 ; tell printer latest fw version
G90 ; use absolute coordinates
M83 ; extruder relative mode
M104 S215 ; set extruder temp
M140 S60 ; set bed temp
M190 S60 ; wait for bed temp
M109 S215 ; wait for extruder temp
G28 W ; home all without mesh bed level
G80 X4.18133 Y4.26736 W241.637 H201.465 ; mesh bed levelling

G1 Z0.2 F720
G1 Y-3 F1000 ; go outside print area
G92 E0
G1 X60 E9 F1000 ; intro line
G1 X100 E12.5 F1000 ; intro line

G92 E0
G21 ; set units to millimeters
G90 ; use absolute coordinates
M83 ; use relative distances for extrusion

M900 K0.05 ; Filament gcode LA 1.5
M900 K30 ; Filament gcode LA 1.0




M107
;LAYER_CHANGE
;Z:0.2
;HEIGHT:0.2
G1 E-.8 F2100
G1 Z.6 F720
G1 X92.378 Y114.666 F10800
G1 Z.2 F720
G1 E.8 F2100
M204 S800
;TYPE:Skirt/Brim
;WIDTH:0.42
G1 F1200
G1 X228.591 Y4.929 E5.48442
G1 X229.808 Y4.451 E.041
G1 X231.081 Y4.752 E.04101
G1 X231.668 Y5.26 E.02434
G1 X245.157 Y22.003 E.67414
G1 X245.636 Y23.22 E.04101
G1 X245.335 Y24.493 E.04101
G1 X244.826 Y25.08 E.02436
G1 X21.409 Y205.071 E8.99556
G1 X20.192 Y205.55 E.04101
G1 X18.919 Y205.248 E.04102
G1 X18.331 Y204.74 E.02436
G1 X4.843 Y187.997 E.67412
G1 X4.364 Y186.78 E.04101
G1 X4.666 Y185.507 E.04102
G1 X5.174 Y184.92 E.02434
G1 X92.331 Y114.704 E3.50925
M204 S1000
;WIPE_START
G1 F8640
G1 X92.378 Y114.666 E-.01396
G1 X95.029 Y112.53 E-.78604
;WIPE_END
G1 Z.6 F720
; printing object Pen holder - lower part.stl id:0 copy 0
G1 X131.684 Y104.045 F10800
G1 Z.2 F720
G1 E.8 F2100
M204 S800
;TYPE:External perimeter
;WIDTH:0.419999
G1 F1200
G1 X132.502 Y104.019 E.02566
G1 X133.413 Y104.221 E.02926
G1 X134.239 Y104.672 E.02951
G1 X134.848 Y105.253 E.02639
G1 X135.317 Y106.01 E.02792
G1 X135.574 Y106.862 E.0279
G1 X135.601 Y107.752 E.02792
G1 X135.397 Y108.619 E.02793
;WIDTH:0.467882
G1 X135.208 Y109.023 E.01576
;WIDTH:0.515764
G1 X135.018 Y109.426 E.01752
;WIDTH:0.5526
G1 X134.995 Y109.489 E.00284
G1 X134.695 Y109.784 E.01783
;WIDTH:0.525025
G1 X134.395 Y110.079 E.01687
G1 X134.019 Y110.328 E.01808
;WIDTH:0.552602
G1 X133.644 Y110.577 E.01908
G1 X133.349 Y110.644 E.01282
;WIDTH:0.508401
G1 X133.053 Y110.711 E.01175
;WIDTH:0.4642
G1 X132.757 Y110.778 E.01063
;WIDTH:0.419999
G1 X131.867 Y110.805 E.02792
G1 X131.001 Y110.601 E.0279
G1 X130.216 Y110.18 E.02793
G1 X129.568 Y109.57 E.0279
G1 X129.099 Y108.813 E.02792
G1 X128.842 Y107.961 E.0279
G1 X128.815 Y107.071 E.02792
G1 X129.018 Y106.204 E.02792
G1 X129.439 Y105.42 E.0279
G1 X130.049 Y104.771 E.02793
G1 X130.806 Y104.303 E.0279
G1 X131.625 Y104.056 E.02682
M204 S1000
;WIPE_START
G1 F8640
G1 X131.684 Y104.045 E-.01386
G1 X132.502 Y104.019 E-.18897
G1 X133.413 Y104.221 E-.21546
G1 X134.239 Y104.672 E-.2173
G1 X134.754 Y105.164 E-.16441
;WIPE_END
G1 Z.6 F720
G1 X118.426 Y119.648 F10800
G1 Z.2 F720
G1 E.8 F2100
M204 S800
G1 F1200
G1 X118.675 Y120.476 E.02711
G1 X118.703 Y121.366 E.02792
G1 X118.499 Y122.233 E.02793
;WIDTH:0.467883
G1 X118.31 Y122.636 E.01573
;WIDTH:0.515766
G1 X118.12 Y123.04 E.01755
;WIDTH:0.552601
G1 X118.097 Y123.103 E.00284
G1 X117.797 Y123.397 E.0178
;WIDTH:0.525025
G1 X117.496 Y123.692 E.0169
G1 X117.121 Y123.942 E.01807
;WIDTH:0.552602
G1 X116.746 Y124.191 E.01908
G1 X116.45 Y124.258 E.01286
;WIDTH:0.508401
G1 X116.155 Y124.325 E.01171
;WIDTH:0.4642
G1 X115.859 Y124.391 E.01062
;WIDTH:0.419999
G1 X114.969 Y124.419 E.02792
G1 X114.102 Y124.215 E.02793
G1 X113.318 Y123.794 E.0279
G1 X112.669 Y123.184 E.02793
G1 X112.201 Y122.427 E.0279
G1 X111.944 Y121.575 E.0279
G1 X111.916 Y120.685 E.02792
G1 X112.12 Y119.818 E.02793
G1 X112.519 Y119.074 E.02647
G1 X113.149 Y118.387 E.02923
G1 X113.908 Y117.916 E.02801
G1 X114.76 Y117.66 E.02789
G1 X115.604 Y117.633 E.02648
G1 X116.514 Y117.835 E.02923
G1 X117.341 Y118.286 E.02954
G1 X117.95 Y118.867 E.02639
G1 X118.4 Y119.594 E.02681
M204 S1000
;WIPE_START
G1 F8640
G1 X118.426 Y119.648 E-.01384
G1 X118.675 Y120.476 E-.19965
G1 X118.703 Y121.366 E-.20561
G1 X118.499 Y122.233 E-.20566
G1 X118.31 Y122.636 E-.10278
G1 X118.176 Y122.92 E-.07246
;WIPE_END
G1 Z.6 F720
G1 X98.046 Y138.027 F10800
G1 Z.2 F720
G1 E.8 F2100
M204 S800
G1 F1200
G1 X97.204 Y137.829 E.02712
G1 X96.46 Y137.43 E.02647
G1 X95.773 Y136.8 E.02923
G1 X95.302 Y136.041 E.02801
G1 X95.045 Y135.189 E.0279
G1 X95.018 Y134.299 E.02792
G1 X95.222 Y133.432 E.02793
G1 X95.621 Y132.688 E.02647
G1 X96.251 Y132.001 E.02923
G1 X97.009 Y131.53 E.02798
G1 X97.862 Y131.273 E.02793
G1 X98.706 Y131.247 E.02648
G1 X99.616 Y131.449 E.02923
G1 X100.442 Y131.9 E.02951
G1 X101.051 Y132.481 E.02639
G1 X101.52 Y133.237 E.02789
G1 X101.777 Y134.09 E.02793
G1 X101.805 Y134.98 E.02792
G1 X101.601 Y135.846 E.0279
;WIDTH:0.467883
G1 X101.411 Y136.25 E.01578
;WIDTH:0.515766
G1 X101.222 Y136.654 E.01754
;WIDTH:0.552601
G1 X101.199 Y136.716 E.0028
G1 X100.898 Y137.011 E.01786
;WIDTH:0.525025
G1 X100.598 Y137.306 E.01687
G1 X100.223 Y137.556 E.01807
;WIDTH:0.552601
G1 X99.847 Y137.805 E.01911
G1 X99.552 Y137.872 E.01282
;WIDTH:0.508401
G1 X99.256 Y137.938 E.01174
;WIDTH:0.4642
G1 X98.96 Y138.005 E.01063
;WIDTH:0.419999
G1 X98.105 Y138.031 E.02682
M204 S1000
;WIPE_START
G1 F8640
G1 X98.046 Y138.027 E-.01365
G1 X97.204 Y137.829 E-.19972
G1 X96.46 Y137.43 E-.19494
G1 X95.773 Y136.8 E-.21523
G1 X95.37 Y136.151 E-.17646
;WIPE_END
G1 Z.6 F720
G1 X84.9 Y148.618 F10800
G1 Z.2 F720
G1 E.8 F2100
M204 S800
G1 F1200
G1 X84.702 Y149.46 E.02712
;WIDTH:0.467882
G1 X84.513 Y149.864 E.01576
;WIDTH:0.515764
G1 X84.323 Y150.268 E.01755
;WIDTH:0.5526
G1 X84.3 Y150.33 E.0028
G1 X84 Y150.625 E.01783
;WIDTH:0.525024
G1 X83.699 Y150.92 E.01689
G1 X83.324 Y151.169 E.01804
;WIDTH:0.552603
G1 X82.949 Y151.419 E.0191
G1 X82.653 Y151.485 E.01285
;WIDTH:0.508402
G1 X82.358 Y151.552 E.01171
;WIDTH:0.464201
G1 X82.062 Y151.619 E.01063
;WIDTH:0.419999
G1 X81.172 Y151.646 E.02792
G1 X80.306 Y151.443 E.02789
G1 X79.521 Y151.021 E.02794
G1 X78.873 Y150.412 E.02788
G1 X78.404 Y149.655 E.02792
G1 X78.147 Y148.802 E.02793
G1 X78.119 Y147.912 E.02792
G1 X78.323 Y147.046 E.0279
G1 X78.722 Y146.302 E.02647
G1 X79.352 Y145.615 E.02923
G1 X80.111 Y145.144 E.02801
G1 X80.963 Y144.887 E.0279
G1 X81.807 Y144.861 E.02648
G1 X82.717 Y145.063 E.02923
G1 X83.544 Y145.514 E.02954
G1 X84.153 Y146.094 E.02637
G1 X84.622 Y146.851 E.02792
G1 X84.879 Y147.704 E.02793
G1 X84.905 Y148.559 E.02682
M204 S1000
;WIPE_START
G1 F8640
G1 X84.9 Y148.618 E-.01367
G1 X84.702 Y149.46 E-.19972
G1 X84.513 Y149.864 E-.10299
G1 X84.323 Y150.268 E-.10309
G1 X84.3 Y150.33 E-.01527
G1 X84 Y150.625 E-.09715
G1 X83.699 Y150.92 E-.09732
G1 X83.324 Y151.169 E-.10394
G1 X83.083 Y151.329 E-.06685
;WIPE_END
G1 Z.6 F720
G1 X67.981 Y161.343 F10800
G1 Z.2 F720
G1 E.8 F2100
M204 S800
G1 F1200
G1 X68.008 Y162.207 E.0271
G1 X67.804 Y163.074 E.02793
;WIDTH:0.467883
G1 X67.614 Y163.478 E.01578
;WIDTH:0.515766
G1 X67.425 Y163.881 E.0175
;WIDTH:0.552601
G1 X67.402 Y163.944 E.00284
G1 X67.101 Y164.239 E.01786
;WIDTH:0.525025
G1 X66.801 Y164.534 E.01687
G1 X66.426 Y164.783 E.01804
;WIDTH:0.5526
G1 X66.051 Y165.032 E.01908
G1 X65.755 Y165.099 E.01286
;WIDTH:0.5084
G1 X65.459 Y165.166 E.01175
;WIDTH:0.4642
G1 X65.164 Y165.233 E.0106
;WIDTH:0.419999
G1 X64.274 Y165.26 E.02792
G1 X63.407 Y165.056 E.02793
G1 X62.623 Y164.635 E.0279
G1 X61.974 Y164.025 E.02793
G1 X61.505 Y163.269 E.02789
G1 X61.249 Y162.416 E.02792
G1 X61.221 Y161.526 E.02792
G1 X61.425 Y160.66 E.0279
G1 X61.846 Y159.875 E.02793
G1 X62.456 Y159.227 E.0279
G1 X63.213 Y158.758 E.02792
G1 X64.065 Y158.501 E.0279
G1 X64.909 Y158.475 E.02648
G1 X65.819 Y158.677 E.02923
G1 X66.646 Y159.127 E.02952
G1 X67.255 Y159.708 E.02639
G1 X67.723 Y160.465 E.0279
G1 X67.97 Y161.284 E.02682
M204 S1000
;WIPE_START
G1 F8640
G1 X67.981 Y161.343 E-.01386
G1 X68.008 Y162.207 E-.1996
G1 X67.804 Y163.074 E-.20566
G1 X67.614 Y163.478 E-.10309
G1 X67.425 Y163.881 E-.10278
G1 X67.402 Y163.944 E-.01549
G1 X67.101 Y164.239 E-.09732
G1 X66.909 Y164.428 E-.0622
;WIPE_END
G1 Z.6 F720
G1 X51.083 Y174.956 F10800
G1 Z.2 F720
G1 E.8 F2100
M204 S800
G1 F1200
G1 X51.109 Y175.821 E.02713
G1 X50.906 Y176.688 E.02792
;WIDTH:0.467882
G1 X50.716 Y177.091 E.01574
;WIDTH:0.515764
G1 X50.527 Y177.495 E.01754
;WIDTH:0.552599
G1 X50.503 Y177.558 E.00286
G1 X50.203 Y177.853 E.01783
;WIDTH:0.525025
G1 X49.903 Y178.148 E.01687
G1 X49.527 Y178.397 E.01808
;WIDTH:0.552601
G1 X49.152 Y178.646 E.01908
G1 X48.857 Y178.713 E.01282
;WIDTH:0.508401
G1 X48.561 Y178.78 E.01175
;WIDTH:0.4642
G1 X48.265 Y178.846 E.01062
;WIDTH:0.419999
G1 X47.376 Y178.874 E.02789
G1 X46.509 Y178.67 E.02793
G1 X45.724 Y178.249 E.02793
G1 X45.076 Y177.639 E.0279
G1 X44.607 Y176.882 E.02792
G1 X44.35 Y176.03 E.0279
G1 X44.323 Y175.14 E.02792
G1 X44.526 Y174.273 E.02792
G1 X44.948 Y173.489 E.02792
G1 X45.557 Y172.84 E.0279
G1 X46.314 Y172.372 E.0279
G1 X47.167 Y172.115 E.02793
G1 X48.011 Y172.088 E.02648
G1 X48.921 Y172.29 E.02923
M73 P0 R167
G1 X49.747 Y172.741 E.02951
G1 X50.356 Y173.322 E.02639
G1 X50.825 Y174.079 E.02792
G1 X51.072 Y174.898 E.02682
M204 S1000
;WIPE_START
G1 F8640
G1 X51.083 Y174.956 E-.01363
G1 X51.109 Y175.821 E-.19982
G1 X50.906 Y176.688 E-.20561
G1 X50.716 Y177.091 E-.10288
G1 X50.527 Y177.495 E-.10299
G1 X50.503 Y177.558 E-.01557
G1 X50.203 Y177.853 E-.09715
G1 X50.01 Y178.042 E-.06235
;WIPE_END
G1 Z.6 F720
G1 X29.588 Y192.272 F10800
G1 Z.2 F720
G1 E.8 F2100
M204 S800
G1 F1200
G1 X28.866 Y191.885 E.02568
G1 X28.179 Y191.255 E.02923
G1 X27.709 Y190.496 E.02799
G1 X27.452 Y189.644 E.0279
G1 X27.424 Y188.754 E.02792
G1 X27.628 Y187.887 E.02793
G1 X28.027 Y187.143 E.02647
G1 X28.657 Y186.456 E.02923
G1 X29.416 Y185.985 E.02801
G1 X30.268 Y185.728 E.0279
G1 X31.112 Y185.702 E.02648
G1 X32.022 Y185.904 E.02923
G1 X32.849 Y186.355 E.02954
G1 X33.458 Y186.936 E.02639
G1 X33.927 Y187.693 E.02792
G1 X34.184 Y188.545 E.0279
G1 X34.211 Y189.435 E.02792
G1 X34.007 Y190.302 E.02793
;WIDTH:0.467882
G1 X33.818 Y190.705 E.01573
;WIDTH:0.515765
G1 X33.628 Y191.109 E.01755
;WIDTH:0.5526
G1 X33.605 Y191.171 E.0028
G1 X33.305 Y191.466 E.01783
;WIDTH:0.525024
G1 X33.004 Y191.761 E.01689
G1 X32.629 Y192.011 E.01807
;WIDTH:0.552599
G1 X32.254 Y192.26 E.01908
G1 X31.958 Y192.327 E.01286
;WIDTH:0.508399
G1 X31.663 Y192.393 E.0117
;WIDTH:0.464199
G1 X31.367 Y192.46 E.01063
;WIDTH:0.419999
G1 X30.477 Y192.488 E.02792
G1 X29.644 Y192.292 E.02683
M204 S1000
;WIPE_START
G1 F8640
G1 X29.588 Y192.272 E-.01373
G1 X28.866 Y191.885 E-.18915
G1 X28.179 Y191.255 E-.21523
G1 X27.709 Y190.496 E-.20614
G1 X27.489 Y189.767 E-.17575
;WIPE_END
G1 Z.6 F720
G1 X148.741 Y97.185 F10800
G1 Z.2 F720
G1 E.8 F2100
M204 S800
G1 F1200
G1 X147.899 Y96.987 E.02712
G1 X147.115 Y96.566 E.0279
G1 X146.466 Y95.957 E.0279
G1 X145.997 Y95.2 E.02792
G1 X145.74 Y94.347 E.02793
G1 X145.713 Y93.457 E.02792
G1 X145.917 Y92.591 E.0279
G1 X146.338 Y91.806 E.02793
G1 X146.948 Y91.158 E.0279
G1 X147.705 Y90.689 E.02792
G1 X148.557 Y90.432 E.0279
G1 X149.401 Y90.406 E.02648
G1 X150.311 Y90.608 E.02923
G1 X151.138 Y91.058 E.02952
G1 X151.747 Y91.639 E.02639
G1 X152.215 Y92.396 E.0279
G1 X152.472 Y93.249 E.02793
G1 X152.5 Y94.138 E.02789
G1 X152.296 Y95.005 E.02793
;WIDTH:0.467882
G1 X152.106 Y95.409 E.01578
;WIDTH:0.515764
G1 X151.917 Y95.812 E.0175
;WIDTH:0.5526
G1 X151.894 Y95.875 E.00284
G1 X151.593 Y96.17 E.01786
;WIDTH:0.525025
G1 X151.293 Y96.465 E.01687
G1 X150.918 Y96.714 E.01804
;WIDTH:0.5526
G1 X150.543 Y96.963 E.01908
G1 X150.247 Y97.03 E.01286
;WIDTH:0.5084
G1 X149.951 Y97.097 E.01175
;WIDTH:0.4642
G1 X149.656 Y97.164 E.0106
;WIDTH:0.419999
G1 X148.801 Y97.19 E.02682
M204 S1000
;WIPE_START
G1 F8640
G1 X148.741 Y97.185 E-.0139
G1 X147.899 Y96.987 E-.19972
G1 X147.115 Y96.566 E-.20548
G1 X146.466 Y95.957 E-.2055
G1 X146.066 Y95.311 E-.1754
;WIPE_END
G1 Z.6 F720
G1 X163.253 Y78.174 F10800
G1 Z.2 F720
G1 E.8 F2100
M204 S800
G1 F1200
G1 X163.846 Y77.544 E.02713
G1 X164.603 Y77.075 E.02792
G1 X165.455 Y76.818 E.0279
G1 X166.299 Y76.792 E.02648
G1 X167.209 Y76.994 E.02923
G1 X168.036 Y77.445 E.02954
G1 X168.645 Y78.025 E.02637
G1 X169.114 Y78.782 E.02792
G1 X169.371 Y79.635 E.02793
G1 X169.398 Y80.525 E.02792
G1 X169.194 Y81.391 E.0279
;WIDTH:0.467884
G1 X169.005 Y81.795 E.01576
;WIDTH:0.515768
G1 X168.815 Y82.199 E.01755
;WIDTH:0.552603
G1 X168.792 Y82.261 E.0028
G1 X168.492 Y82.556 E.01783
;WIDTH:0.525026
G1 X168.191 Y82.851 E.0169
G1 X167.816 Y83.1 E.01804
;WIDTH:0.552601
G1 X167.441 Y83.35 E.0191
G1 X167.145 Y83.416 E.01285
;WIDTH:0.508401
G1 X166.85 Y83.483 E.01171
;WIDTH:0.4642
G1 X166.554 Y83.55 E.01063
;WIDTH:0.419999
G1 X165.664 Y83.577 E.02792
G1 X164.797 Y83.374 E.02792
G1 X164.053 Y82.975 E.02647
G1 X163.366 Y82.345 E.02923
G1 X162.896 Y81.586 E.02799
G1 X162.639 Y80.733 E.02793
G1 X162.611 Y79.844 E.02789
G1 X162.815 Y78.977 E.02793
G1 X163.22 Y78.223 E.02684
M204 S1000
;WIPE_START
G1 F8640
G1 X163.253 Y78.174 E-.01364
G1 X163.846 Y77.544 E-.19977
G1 X164.603 Y77.075 E-.20562
G1 X165.455 Y76.818 E-.20548
G1 X166.215 Y76.794 E-.17549
;WIPE_END
G1 Z.6 F720
G1 X186.27 Y66.046 F10800
G1 Z.2 F720
G1 E.8 F2100
M204 S800
G1 F1200
G1 X186.296 Y66.911 E.02713
G1 X186.093 Y67.778 E.02792
;WIDTH:0.467881
G1 X185.903 Y68.181 E.01574
;WIDTH:0.515763
G1 X185.714 Y68.585 E.01754
;WIDTH:0.552599
G1 X185.69 Y68.647 E.00282
G1 X185.39 Y68.942 E.01783
;WIDTH:0.525025
G1 X185.09 Y69.237 E.01687
G1 X184.715 Y69.487 E.01807
;WIDTH:0.552602
G1 X184.339 Y69.736 E.01911
G1 X184.044 Y69.803 E.01282
;WIDTH:0.508401
G1 X183.748 Y69.869 E.01174
;WIDTH:0.4642
G1 X183.452 Y69.936 E.01063
;WIDTH:0.419999
G1 X182.563 Y69.964 E.02789
G1 X181.696 Y69.76 E.02793
G1 X180.911 Y69.339 E.02793
G1 X180.263 Y68.729 E.0279
G1 X179.794 Y67.972 E.02792
G1 X179.537 Y67.12 E.0279
G1 X179.51 Y66.23 E.02792
G1 X179.713 Y65.363 E.02792
G1 X180.135 Y64.579 E.02792
G1 X180.744 Y63.93 E.0279
G1 X181.501 Y63.461 E.02792
G1 X182.354 Y63.204 E.02793
G1 X183.198 Y63.178 E.02648
G1 X184.108 Y63.38 E.02923
G1 X184.934 Y63.831 E.02951
G1 X185.543 Y64.412 E.02639
G1 X186.012 Y65.169 E.02792
G1 X186.259 Y65.988 E.02682
M204 S1000
;WIPE_START
G1 F8640
G1 X186.27 Y66.046 E-.01363
G1 X186.296 Y66.911 E-.19982
G1 X186.093 Y67.778 E-.20561
G1 X185.903 Y68.181 E-.10288
G1 X185.714 Y68.585 E-.10299
G1 X185.69 Y68.647 E-.01535
G1 X185.39 Y68.942 E-.09715
G1 X185.197 Y69.132 E-.06257
;WIPE_END
G1 Z.6 F720
G1 X197.664 Y50.303 F10800
G1 Z.2 F720
G1 E.8 F2100
M204 S800
G1 F1200
G1 X198.4 Y49.848 E.02713
G1 X199.252 Y49.591 E.0279
G1 X200.096 Y49.564 E.02648
G1 X201.006 Y49.766 E.02923
G1 X201.833 Y50.217 E.02954
G1 X202.442 Y50.798 E.02639
G1 X202.91 Y51.555 E.0279
G1 X203.167 Y52.407 E.0279
G1 X203.195 Y53.297 E.02792
G1 X202.991 Y54.164 E.02793
;WIDTH:0.467881
G1 X202.801 Y54.567 E.01574
;WIDTH:0.515763
G1 X202.612 Y54.971 E.01754
;WIDTH:0.5526
G1 X202.589 Y55.034 E.00284
G1 X202.288 Y55.329 E.01786
;WIDTH:0.525026
G1 X201.988 Y55.624 E.01687
G1 X201.613 Y55.873 E.01804
;WIDTH:0.5526
G1 X201.238 Y56.122 E.01908
G1 X200.942 Y56.189 E.01286
;WIDTH:0.5084
G1 X200.646 Y56.256 E.01175
;WIDTH:0.4642
G1 X200.351 Y56.322 E.01059
;WIDTH:0.419999
G1 X199.461 Y56.35 E.02792
G1 X198.594 Y56.146 E.02793
G1 X197.81 Y55.725 E.0279
G1 X197.161 Y55.115 E.02793
G1 X196.692 Y54.358 E.02792
G1 X196.436 Y53.506 E.02789
G1 X196.408 Y52.616 E.02792
