; generated by PrusaSlicer 2.8.1+win64 on 2024-10-28 at 23:41:54 UTC


;
;
; 

; external perimeters extrusion width = 0.45mm
; perimeters extrusion width = 0.45mm
; infill extrusion width = 0.45mm
; solid infill extrusion width = 0.45mm
; top infill extrusion width = 0.45mm
; first layer extrusion width = 0.42mm

M73 P0 R19
M201 X9000 Y9000 Z500 E10000 ; sets maximum accelerations, mm/sec^2
M203 X500 Y500 Z12 E120 ; sets maximum feedrates, mm / sec
M204 S2000 T1500 ; sets acceleration (S) and retract acceleration (R), mm/sec^2
M205 X10.00 Y10.00 Z0.20 E4.50 ; sets the jerk limits, mm/sec
M205 S0 T0 ; sets the minimum extruding and travel feed rate, mm/sec

; printing object Pen lifter - stepper lifter v2.stl id:0 copy 0
; stop printing object Pen lifter - stepper lifter v2.stl id:0 copy 0

;TYPE:Custom
M862.3 P "MK2.5S" ; printer model check
M862.1 P0.4 ; nozzle diameter check
M115 U3.14.0 ; tell printer latest fw version
G90 ; use absolute coordinates
M83 ; extruder relative mode
M104 S215 ; set extruder temp
M140 S60 ; set bed temp
M190 S60 ; wait for bed temp
M109 S215 ; wait for extruder temp
G28 W ; home all without mesh bed level
G80 X110.346 Y86.8498 W29.3086 H36.3034 ; mesh bed levelling

G1 Z0.2 F720
G1 Y-3 F1000 ; go outside print area
G92 E0
G1 X60 E9 F1000 ; intro line
G1 X100 E12.5 F1000 ; intro line

G92 E0
G21 ; set units to millimeters
G90 ; use absolute coordinates
M83 ; use relative distances for extrusion

M900 K0.05 ; Filament gcode LA 1.5
M900 K30 ; Filament gcode LA 1.0




M107
;LAYER_CHANGE
;Z:0.2
;HEIGHT:0.2
G1 E-.8 F2100
M73 P0 R18
G1 Z.6 F720
G1 X114.074 Y92.02 F10800
G1 Z.2 F720
G1 E.8 F2100
M204 S800
;TYPE:Skirt/Brim
;WIDTH:0.42
G1 F1200
G1 X114.999 Y91.048 E.04207
G1 X115.864 Y90.284 E.03619
G1 X117.281 Y89.266 E.05471
G1 X118.281 Y88.689 E.0362
G1 X119.497 Y88.122 E.04207
G1 X121.149 Y87.556 E.05475
G1 X122.274 Y87.293 E.03622
G1 X123.598 Y87.102 E.04194
G1 X125.343 Y87.038 E.05475
G1 X126.497 Y87.111 E.03626
G1 X127.818 Y87.312 E.0419
G1 X129.509 Y87.755 E.05481
G1 X130.763 Y88.231 E.04206
G1 X131.802 Y88.733 E.03618
G1 X133.29 Y89.645 E.05472
G1 X134.209 Y90.343 E.03618
G1 X135.202 Y91.245 E.04206
G1 X136.362 Y92.548 E.0547
G1 X137.041 Y93.482 E.03621
G1 X137.731 Y94.632 E.04205
G1 X138.465 Y96.215 E.05471
G1 X138.844 Y97.305 E.03618
G1 X139.173 Y98.605 E.04205
G1 X139.418 Y100.333 E.05472
G1 X139.465 Y101.673 E.04204
G1 X139.268 Y103.878 E.06941
G1 X139.056 Y104.917 E.03325
G1 X138.556 Y106.544 E.05337
G1 X134.7 Y116.429 E.33268
G1 X134.213 Y117.465 E.03589
G1 X133.618 Y118.438 E.03576
G1 X132.921 Y119.34 E.03574
G1 X132.027 Y120.255 E.04011
G1 X131.142 Y120.973 E.03573
G1 X129.672 Y121.864 E.0539
G1 X128.493 Y122.366 E.04018
G1 X127.399 Y122.687 E.03575
G1 X126.001 Y122.918 E.04443
G1 X124.861 Y122.965 E.03577
G1 X123.723 Y122.887 E.03576
G1 X122.466 Y122.653 E.04009
G1 X121.375 Y122.317 E.03579
G1 X119.814 Y121.589 E.05401
G1 X118.745 Y120.891 E.04003
G1 X117.87 Y120.161 E.03573
G1 X116.9 Y119.128 E.04443
G1 X116.227 Y118.207 E.03577
G1 X115.3 Y116.429 E.06287
G1 X111.233 Y105.937 E.35282
G1 X110.716 Y103.785 E.06939
G1 X110.572 Y102.546 E.03911
M73 P1 R18
G1 X110.535 Y101.392 E.0362
G1 X110.654 Y99.651 E.05472
G1 X110.846 Y98.513 E.03619
G1 X111.184 Y97.215 E.04206
G1 X111.8 Y95.583 E.05469
G1 X112.313 Y94.549 E.03619
G1 X113.012 Y93.404 E.04206
G1 X114.038 Y92.067 E.05284
M204 S1000
G1 X114.038 Y92.067 F10800
G1 X114.337 Y92.297
M204 S800
G1 F1200
G1 X114.365 Y92.26 E.00145
G1 X115.261 Y91.319 E.04074
G1 X116.096 Y90.582 E.03492
G1 X117.49 Y89.58 E.05383
G1 X118.454 Y89.024 E.03489
G1 X119.632 Y88.474 E.04076
G1 X121.258 Y87.917 E.05389
G1 X122.342 Y87.664 E.0349
G1 X123.625 Y87.479 E.04064
G1 X125.343 Y87.415 E.0539
G1 X126.456 Y87.486 E.03497
G1 X127.736 Y87.68 E.04059
G1 X129.4 Y88.116 E.05393
G1 X130.615 Y88.578 E.04076
G1 X131.617 Y89.062 E.03489
G1 X133.081 Y89.959 E.05383
G1 X133.967 Y90.633 E.0349
G1 X134.93 Y91.506 E.04075
G1 X136.072 Y92.788 E.05383
G1 X136.726 Y93.689 E.03491
G1 X137.395 Y94.803 E.04074
G1 X138.117 Y96.361 E.05384
G1 X138.536 Y97.591 E.04074
G1 X138.801 Y98.672 E.0349
G1 X139.043 Y100.372 E.05384
G1 X139.088 Y101.671 E.04075
G1 X138.898 Y103.807 E.06724
G1 X138.691 Y104.819 E.03239
G1 X138.2 Y106.419 E.05248
G1 X134.352 Y116.282 E.33195
G1 X133.879 Y117.291 E.03494
G1 X133.305 Y118.228 E.03445
G1 X132.633 Y119.098 E.03447
G1 X131.781 Y119.968 E.03818
G1 X130.929 Y120.662 E.03445
G1 X129.494 Y121.531 E.0526
G1 X128.372 Y122.008 E.03823
G1 X127.317 Y122.319 E.03449
G1 X125.96 Y122.543 E.04312
G1 X124.861 Y122.588 E.03449
G1 X123.764 Y122.513 E.03448
G1 X122.567 Y122.29 E.03818
G1 X121.516 Y121.967 E.03447
G1 X119.992 Y121.257 E.05272
G1 X118.975 Y120.592 E.0381
G1 X118.13 Y119.888 E.03448
G1 X117.367 Y119.098 E.03444
G1 X116.54 Y117.998 E.04315
G1 X115.648 Y116.282 E.06064
G1 X111.589 Y105.813 E.35206
G1 X111.089 Y103.728 E.06723
G1 X110.912 Y101.404 E.07308
G1 X111.029 Y99.691 E.05384
G1 X111.214 Y98.593 E.03491
G1 X111.541 Y97.336 E.04072
G1 X112.148 Y95.729 E.05386
G1 X112.643 Y94.732 E.0349
G1 X113.32 Y93.623 E.04074
G1 X114.3 Y92.344 E.05052
M204 S1000
;WIPE_START
G1 F8640
G1 X114.337 Y92.297 E-.01381
G1 X114.365 Y92.26 E-.01071
G1 X115.261 Y91.319 E-.30002
G1 X116.096 Y90.582 E-.25716
G1 X116.864 Y90.03 E-.2183
;WIPE_END
G1 Z.6 F720
G1 X116.16 Y94 F10800
G1 Z.2 F720
G1 E.8 F2100
M204 S800
G1 F1200
G1 X116.844 Y93.232 E.03225
G1 X117.554 Y92.587 E.03008
G1 X118.306 Y92.01 E.02972
G1 X119.584 Y91.226 E.04701
G1 X120.535 Y90.779 E.03295
G1 X121.952 Y90.293 E.04697
G1 X123.926 Y89.937 E.06289
G1 X125.131 Y89.891 E.03781
G1 X126.186 Y89.947 E.03313
G1 X127.213 Y90.099 E.03255
G1 X128.663 Y90.479 E.047
G1 X130.318 Y91.175 E.05629
G1 X131.157 Y91.652 E.03026
G1 X132.374 Y92.527 E.047
G1 X133.667 Y93.769 E.05621
G1 X134.646 Y95.032 E.0501
G1 X135.144 Y95.845 E.02989
G1 X135.866 Y97.402 E.05381
G1 X136.359 Y99.081 E.05487
G1 X136.512 Y99.971 E.02831
G1 X136.613 Y101.534 E.04911
G1 X136.477 Y103.273 E.05469
G1 X136.318 Y104.101 E.02644
G1 X135.852 Y105.633 E.05021
G1 X132.069 Y115.328 E.3263
G1 X131.251 Y116.845 E.05404
G1 X130.319 Y117.947 E.04525
G1 X129.629 Y118.543 E.02859
G1 X128.857 Y119.063 E.02918
G1 X128.06 Y119.471 E.02807
G1 X126.811 Y119.895 E.04136
G1 X125.885 Y120.061 E.0295
G1 X124.97 Y120.112 E.02873
G1 X124.003 Y120.048 E.03039
G1 X122.717 Y119.763 E.0413
G1 X121.891 Y119.449 E.02771
G1 X121.11 Y119.044 E.02758
G1 X120.375 Y118.547 E.02782
G1 X119.709 Y117.974 E.02755
G1 X118.765 Y116.868 E.04559
G1 X117.931 Y115.328 E.05491
G1 X113.924 Y104.991 E.34761
G1 X113.518 Y103.239 E.05639
G1 X113.387 Y101.451 E.05621
G1 X113.421 Y100.608 E.02645
G1 X113.631 Y99.129 E.04684
G1 X113.866 Y98.198 E.03011
G1 X114.467 Y96.608 E.0533
G1 X115.295 Y95.121 E.05336
G1 X115.848 Y94.35 E.02975
G1 X116.12 Y94.045 E.01281
M204 S1000
G1 X116.12 Y94.045 F10800
G1 X116.401 Y94.296
M204 S800
G1 F1200
G1 X117.112 Y93.497 E.03353
G1 X118.519 Y92.321 E.0575
G1 X119.764 Y91.558 E.04578
G1 X120.675 Y91.129 E.03157
G1 X122.056 Y90.656 E.04577
G1 X122.858 Y90.469 E.02582
G1 X123.95 Y90.313 E.03459
G1 X125.12 Y90.268 E.03671
G1 X127.137 Y90.468 E.06355
G1 X128.549 Y90.838 E.04577
G1 X129.315 Y91.125 E.02565
G1 X130.952 Y91.969 E.05775
G1 X132.138 Y92.822 E.04581
G1 X132.887 Y93.496 E.03159
G1 X133.856 Y94.584 E.04568
G1 X134.336 Y95.247 E.02566
G1 X135.232 Y96.857 E.05777
G1 X135.748 Y98.221 E.04573
G1 X135.988 Y99.153 E.03018
M73 P2 R18
G1 X136.138 Y100.015 E.02743
G1 X136.236 Y101.539 E.04788
G1 X136.105 Y103.209 E.05252
G1 X135.952 Y104.01 E.02557
G1 X135.497 Y105.506 E.04903
G1 X131.72 Y115.185 E.32577
G1 X130.936 Y116.638 E.05177
G1 X130.064 Y117.669 E.04234
G1 X129.409 Y118.237 E.02718
G1 X128.675 Y118.733 E.02778
G1 X127.914 Y119.123 E.02681
G1 X126.715 Y119.53 E.0397
G1 X125.83 Y119.687 E.02818
G1 X124.961 Y119.735 E.02729
G1 X124.059 Y119.674 E.02835
G1 X122.824 Y119.401 E.03966
G1 X121.294 Y118.714 E.05259
G1 X119.963 Y117.695 E.05256
G1 X119.08 Y116.661 E.04263
G1 X118.65 Y115.968 E.02557
G1 X118.28 Y115.185 E.02715
G1 X114.282 Y104.873 E.34678
G1 X113.892 Y103.189 E.0542
G1 X113.764 Y101.459 E.05439
G1 X113.796 Y100.642 E.02564
G1 X114.001 Y99.201 E.04564
G1 X114.522 Y97.442 E.05752
G1 X115.136 Y96.119 E.04573
G1 X115.607 Y95.334 E.0287
G1 X116.142 Y94.586 E.02883
G1 X116.361 Y94.34 E.01033
M204 S1000
G1 X116.361 Y94.34 F10800
G1 X116.642 Y94.591
M204 S800
G1 F1200
G1 X117.38 Y93.762 E.0348
G1 X118.038 Y93.166 E.02784
G1 X118.732 Y92.632 E.02746
G1 X119.944 Y91.889 E.04457
G1 X120.816 Y91.479 E.03021
G1 X122.16 Y91.018 E.04455
G1 X123.975 Y90.69 E.05783
G1 X126.094 Y90.696 E.06644
G1 X127.76 Y90.997 E.05308
G1 X129.176 Y91.475 E.04686
G1 X129.973 Y91.846 E.02756
G1 X130.748 Y92.286 E.02794
G1 X131.902 Y93.116 E.04457
G1 X133.104 Y94.271 E.05227
G1 X134.026 Y95.462 E.04723
G1 X134.485 Y96.212 E.02757
G1 X135.157 Y97.657 E.04997
G1 X135.618 Y99.225 E.05124
G1 X135.763 Y100.059 E.02654
G1 X135.859 Y101.531 E.04625
G1 X135.734 Y103.145 E.05076
G1 X135.379 Y104.692 E.04977
G1 X131.371 Y115.042 E.348
G1 X131.024 Y115.778 E.02551
G1 X130.62 Y116.432 E.0241
G1 X129.808 Y117.391 E.0394
G1 X129.188 Y117.931 E.02578
G1 X128.492 Y118.403 E.02637
G1 X127.768 Y118.775 E.02552
G1 X126.619 Y119.165 E.03804
G1 X124.974 Y119.358 E.05193
G1 X124.114 Y119.301 E.02702
G1 X122.931 Y119.039 E.03799
G1 X121.496 Y118.396 E.0493
G1 X120.231 Y117.43 E.04991
G1 X119.384 Y116.438 E.0409
G1 X118.976 Y115.779 E.0243
G1 X118.629 Y115.042 E.02554
G1 X114.64 Y104.755 E.34594
G1 X114.263 Y103.125 E.05246
G1 X114.141 Y101.467 E.05213
G1 X114.172 Y100.676 E.02482
G1 X114.371 Y99.273 E.04443
G1 X114.589 Y98.413 E.02782
G1 X115.151 Y96.925 E.04987
G1 X115.926 Y95.535 E.0499
G1 X116.436 Y94.822 E.02749
G1 X116.602 Y94.636 E.00782
M204 S1000
G1 X116.602 Y94.636 F10800
G1 X116.884 Y94.886
M204 S800
G1 F1200
G1 X117.649 Y94.027 E.03607
G1 X118.945 Y92.943 E.05298
G1 X120.124 Y92.22 E.04336
G1 X120.957 Y91.828 E.02887
G1 X122.264 Y91.381 E.04331
G1 X123.013 Y91.207 E.02411
G1 X124 Y91.066 E.03126
G1 X125.098 Y91.022 E.03445
G1 X126.984 Y91.207 E.05942
G1 X128.321 Y91.557 E.04333
G1 X129.037 Y91.826 E.02398
G1 X130.544 Y92.603 E.05316
G1 X131.667 Y93.41 E.04336
G1 X132.35 Y94.026 E.02884
G1 X133.269 Y95.057 E.0433
G1 X133.716 Y95.677 E.02397
G1 X134.541 Y97.159 E.05318
G1 X135.029 Y98.451 E.0433
G1 X135.248 Y99.297 E.0274
G1 X135.389 Y100.103 E.02566
G1 X135.482 Y101.522 E.04459
G1 X135.36 Y103.095 E.04947
G1 X135.02 Y104.576 E.04764
G1 X130.698 Y115.59 E.37097
G1 X130.315 Y116.209 E.02282
G1 X129.539 Y117.127 E.03769
G1 X128.309 Y118.073 E.04865
G1 X127.622 Y118.428 E.02425
G1 X126.524 Y118.8 E.03635
G1 X124.965 Y118.981 E.04921
G1 X124.169 Y118.928 E.02501
G1 X123.038 Y118.678 E.03632
G1 X121.68 Y118.067 E.04669
G1 X120.499 Y117.164 E.04661
G1 X119.689 Y116.215 E.03912
G1 X119.303 Y115.59 E.02303
G1 X114.998 Y104.637 E.369
G1 X114.637 Y103.076 E.05024
G1 X114.518 Y101.474 E.05037
G1 X114.548 Y100.711 E.02394
G1 X114.742 Y99.345 E.04326
G1 X115.221 Y97.724 E.053
G1 X115.803 Y96.471 E.04332
G1 X116.237 Y95.748 E.02644
G1 X116.73 Y95.058 E.02659
G1 X116.844 Y94.931 E.00535
M204 S1000
G1 X116.844 Y94.931 F10800
G1 X117.125 Y95.182
M204 S800
G1 F1200
G1 X117.917 Y94.292 E.03735
G1 X118.521 Y93.745 E.02555
G1 X119.159 Y93.254 E.02524
G1 X120.304 Y92.552 E.04211
G1 X121.721 Y91.941 E.04838
G1 X123.09 Y91.577 E.04442
G1 X124.025 Y91.442 E.02962
G1 X126.004 Y91.445 E.06205
G1 X127.568 Y91.726 E.04982
G1 X128.898 Y92.176 E.04402
G1 X129.627 Y92.516 E.02522
G1 X130.34 Y92.921 E.02571
M73 P3 R18
G1 X131.431 Y93.705 E.04212
G1 X132.541 Y94.773 E.0483
G1 X133.406 Y95.892 E.04435
G1 X133.826 Y96.579 E.02525
G1 X134.455 Y97.935 E.04687
G1 X134.878 Y99.37 E.04691
G1 X135.014 Y100.148 E.02476
G1 X135.105 Y101.514 E.04292
G1 X134.986 Y103.044 E.04812
G1 X134.662 Y104.459 E.04551
G1 X130.371 Y115.401 E.36852
G1 X130.01 Y115.987 E.02158
G1 X129.27 Y116.863 E.03595
G1 X128.125 Y117.744 E.0453
G1 X127.476 Y118.08 E.02291
G1 X126.429 Y118.435 E.03466
G1 X124.978 Y118.604 E.0458
G1 X124.224 Y118.555 E.02369
G1 X123.146 Y118.316 E.03462
G1 X121.883 Y117.749 E.04341
G1 X120.767 Y116.898 E.044
G1 X119.993 Y115.992 E.03736
G1 X119.629 Y115.402 E.02174
G1 X115.357 Y104.519 E.36658
G1 X115.009 Y103.012 E.04849
G1 X114.895 Y101.481 E.04814
G1 X115.112 Y99.417 E.06507
G1 X115.312 Y98.627 E.02555
G1 X115.835 Y97.243 E.04639
G1 X116.556 Y95.949 E.04645
G1 X117.025 Y95.294 E.02526
G1 X117.085 Y95.226 E.00284
M204 S1000
G1 X117.085 Y95.226 F10800
G1 X117.366 Y95.477
M204 S800
G1 F1200
G1 X118.185 Y94.557 E.03862
G1 X119.372 Y93.565 E.0485
G1 X120.484 Y92.883 E.0409
G1 X121.238 Y92.528 E.02613
G1 X123.167 Y91.946 E.06318
G1 X125.078 Y91.776 E.06015
G1 X126.832 Y91.945 E.05525
G1 X128.758 Y92.527 E.06309
G1 X130.136 Y93.238 E.04862
G1 X131.195 Y93.999 E.04089
G1 X131.814 Y94.557 E.02613
G1 X133.096 Y96.106 E.06304
G1 X133.85 Y97.462 E.04865
G1 X134.311 Y98.681 E.04086
G1 X134.508 Y99.442 E.02465
G1 X134.64 Y100.193 E.02391
G1 X134.728 Y101.506 E.04126
G1 X134.612 Y102.994 E.0468
G1 X134.303 Y104.343 E.04339
G1 X130.044 Y115.214 E.36608
G1 X129.705 Y115.766 E.02031
G1 X129.001 Y116.598 E.03417
G1 X127.941 Y117.414 E.04194
G1 X127.329 Y117.732 E.02162
G1 X126.334 Y118.07 E.03295
G1 X124.99 Y118.227 E.04243
G1 X124.278 Y118.182 E.02237
G1 X123.254 Y117.955 E.03289
G1 X122.086 Y117.431 E.04014
G1 X121.034 Y116.632 E.04142
G1 X120.298 Y115.77 E.03554
G1 X119.956 Y115.214 E.02047
G1 X115.715 Y104.401 E.36418
G1 X115.383 Y102.962 E.0463
G1 X115.272 Y101.489 E.04632
G1 X115.482 Y99.489 E.06305
G1 X115.921 Y98.005 E.04852
G1 X116.469 Y96.824 E.04082
G1 X116.867 Y96.162 E.02422
G1 X117.319 Y95.53 E.02436
G1 X117.326 Y95.522 E.00033
M204 S1000
G1 X117.326 Y95.522 F10800
G1 X117.613 Y95.766
M204 S800
G1 F1200
G1 X118.453 Y94.823 E.0396
G1 X119.005 Y94.323 E.02335
G1 X120.664 Y93.215 E.06255
G1 X121.966 Y92.655 E.04444
G1 X123.243 Y92.315 E.04143
G1 X124.075 Y92.195 E.02636
G1 X125.931 Y92.196 E.05819
G1 X127.377 Y92.456 E.04607
G1 X128.618 Y92.877 E.04109
G1 X129.294 Y93.193 E.0234
G1 X130.959 Y94.293 E.06257
G1 X131.986 Y95.284 E.04475
G1 X132.786 Y96.321 E.04107
G1 X133.167 Y96.946 E.02295
G1 X133.75 Y98.201 E.04339
G1 X134.138 Y99.515 E.04296
G1 X134.265 Y100.238 E.02302
G1 X134.351 Y101.512 E.04004
G1 X134.239 Y102.943 E.04501
G1 X133.944 Y104.226 E.04128
G1 X129.716 Y115.026 E.36365
G1 X129.4 Y115.544 E.01903
G1 X128.732 Y116.333 E.03241
G1 X127.739 Y117.096 E.03926
G1 X127.182 Y117.385 E.01968
G1 X126.24 Y117.705 E.03119
G1 X124.981 Y117.85 E.03974
G1 X124.333 Y117.808 E.02036
G1 X123.362 Y117.593 E.03118
G1 X122.27 Y117.101 E.03755
G1 X121.301 Y116.365 E.03815
G1 X120.602 Y115.547 E.03374
G1 X120.284 Y115.026 E.01914
G1 X116.073 Y104.283 E.36179
G1 X115.755 Y102.899 E.04453
G1 X115.676 Y102.201 E.02203
G1 X115.674 Y100.812 E.04355
G1 X115.852 Y99.562 E.03959
G1 X116.035 Y98.841 E.02332
G1 X116.803 Y97 E.06254
G1 X117.58 Y95.816 E.0444
M204 S1000
G1 X117.58 Y95.816 F10800
G1 X117.904 Y96.082
M204 S800
G1 F1200
G1 X118.722 Y95.088 E.04036
G1 X119.8 Y94.186 E.04407
G1 X120.843 Y93.546 E.03837
G1 X121.52 Y93.228 E.02345
G1 X123.32 Y92.684 E.05896
G1 X125.059 Y92.53 E.05474
G1 X126.68 Y92.684 E.05105
G1 X128.478 Y93.227 E.05889
G1 X129.729 Y93.873 E.04415
G1 X130.723 Y94.587 E.03837
G1 X131.278 Y95.088 E.02344
G1 X132.475 Y96.535 E.05888
G1 X133.16 Y97.765 E.04414
G1 X133.768 Y99.589 E.06028
G1 X133.974 Y101.504 E.06039
G1 X133.865 Y102.892 E.04365
G1 X133.586 Y104.11 E.03918
G1 X129.388 Y114.84 E.36126
G1 X129.094 Y115.324 E.01776
M73 P4 R18
G1 X128.464 Y116.069 E.03059
G1 X127.554 Y116.767 E.03596
G1 X127.035 Y117.038 E.01836
G1 X126.145 Y117.339 E.02946
G1 X124.993 Y117.473 E.03636
G1 X124.387 Y117.435 E.01904
G1 X123.47 Y117.232 E.02945
G1 X122.455 Y116.773 E.03493
G1 X121.568 Y116.099 E.03493
G1 X120.907 Y115.325 E.03191
G1 X120.612 Y114.84 E.0178
G1 X116.432 Y104.166 E.35942
G1 X116.128 Y102.849 E.04238
G1 X116.026 Y101.502 E.04236
G1 X116.222 Y99.635 E.05886
G1 X116.621 Y98.287 E.04408
G1 X117.498 Y96.576 E.06028
