; generated by PrusaSlicer 2.8.1+win64 on 2024-11-05 at 19:17:21 UTC


;
;
; 

; external perimeters extrusion width = 0.45mm
; perimeters extrusion width = 0.45mm
; infill extrusion width = 0.45mm
; solid infill extrusion width = 0.45mm
; top infill extrusion width = 0.45mm
; support material extrusion width = 0.35mm
; first layer extrusion width = 0.42mm

M73 P0 R243
M201 X9000 Y9000 Z500 E10000 ; sets maximum accelerations, mm/sec^2
M203 X500 Y500 Z12 E120 ; sets maximum feedrates, mm / sec
M204 S2000 T1500 ; sets acceleration (S) and retract acceleration (R), mm/sec^2
M205 X10.00 Y10.00 Z0.20 E4.50 ; sets the jerk limits, mm/sec
M205 S0 T0 ; sets the minimum extruding and travel feed rate, mm/sec

; printing object Pen lifter - moving plate - Z - axis.stl id:0 copy 0
; stop printing object Pen lifter - moving plate - Z - axis.stl id:0 copy 0

;TYPE:Custom
M862.3 P "MK2.5S" ; printer model check
M862.1 P0.4 ; nozzle diameter check
M115 U3.14.0 ; tell printer latest fw version
G90 ; use absolute coordinates
M83 ; extruder relative mode
M104 S215 ; set extruder temp
M140 S60 ; set bed temp
M190 S60 ; wait for bed temp
M109 S215 ; wait for extruder temp
G28 W ; home all without mesh bed level
G80 X82.5892 Y42.6229 W84.8217 H124.754 ; mesh bed levelling

G1 Z0.2 F720
G1 Y-3 F1000 ; go outside print area
G92 E0
G1 X60 E9 F1000 ; intro line
G1 X100 E12.5 F1000 ; intro line

G92 E0
G21 ; set units to millimeters
G90 ; use absolute coordinates
M83 ; use relative distances for extrusion

M900 K0.05 ; Filament gcode LA 1.5
M900 K30 ; Filament gcode LA 1.0




M107
;LAYER_CHANGE
;Z:0.2
;HEIGHT:0.2
G1 E-.8 F2100
M73 P0 R242
G1 Z.6 F720
G1 X87.921 Y44.317 F10800
G1 Z.2 F720
G1 E.8 F2100
M204 S800
;TYPE:Skirt/Brim
;WIDTH:0.42
G1 F1200
G1 X88.681 Y43.253 E.041
G1 X90 Y42.811 E.04362
G1 X160 Y42.811 E2.1948
G1 X161.248 Y43.202 E.04101
G1 X162.079 Y44.317 E.0436
G1 X167.113 Y59.648 E.50594
G1 X167.222 Y60.331 E.02169
G1 X167.222 Y140.398 E2.51044
G1 X162.144 Y165.439 E.80112
G1 X161.511 Y166.583 E.04099
G1 X160 Y167.189 E.05104
G1 X90 Y167.189 E2.1948
G1 X88.752 Y166.798 E.04101
G1 X87.856 Y165.439 E.05104
G1 X82.778 Y140.398 E.80112
G1 X82.778 Y60.331 E2.51044
G1 X82.887 Y59.648 E.02169
G1 X87.902 Y44.374 E.50406
M204 S1000
;WIPE_START
G1 F8640
G1 X87.921 Y44.317 E-.01387
G1 X88.681 Y43.253 E-.30192
G1 X90 Y42.811 E-.32121
G1 X90.706 Y42.811 E-.163
;WIPE_END
G1 Z.6 F720
; printing object Pen lifter - moving plate - Z - axis.stl id:0 copy 0
G1 X89.52 Y140.398 F10800
G1 Z.2 F720
G1 E.8 F2100
M204 S800
;TYPE:Support material
G1 F1200
G1 X84.966 Y140.398 E.14279
G1 X84.966 Y129.865 E.33025
G1 X89.52 Y129.865 E.14279
G1 X89.52 Y140.342 E.3285
M204 S1000
G1 X89.52 Y140.342 F10800
G1 X88.968 Y140.228
M204 S800
G1 F1200
G1 X88.968 Y130.204 E.3143
G1 X88.549 Y130.204 E.01314
G1 X88.549 Y140.059 E.309
G1 X88.13 Y140.059 E.01314
G1 X88.13 Y130.204 E.309
G1 X87.711 Y130.204 E.01314
G1 X87.711 Y140.059 E.309
G1 X87.292 Y140.059 E.01314
G1 X87.292 Y130.204 E.309
G1 X86.873 Y130.204 E.01314
G1 X86.873 Y140.059 E.309
G1 X86.454 Y140.059 E.01314
G1 X86.454 Y130.204 E.309
G1 X86.035 Y130.204 E.01314
G1 X86.035 Y140.059 E.309
G1 X85.616 Y140.059 E.01314
G1 X85.616 Y130.035 E.3143
M204 S1000
;WIPE_START
G1 F8640
G1 X85.616 Y133.5 E-.8
;WIPE_END
G1 Z.6 F720
G1 X89.52 Y68.546 F10800
G1 Z.2 F720
G1 E.8 F2100
M204 S800
G1 F1200
G1 X84.966 Y68.546 E.14279
G1 X84.966 Y60.331 E.25758
G1 X89.52 Y60.331 E.14279
G1 X89.52 Y68.49 E.25582
M204 S1000
G1 X89.52 Y68.49 F10800
G1 X88.968 Y68.376
M204 S800
G1 F1200
G1 X88.968 Y60.67 E.24162
G1 X88.549 Y60.67 E.01314
G1 X88.549 Y68.207 E.23632
G1 X88.13 Y68.207 E.01314
G1 X88.13 Y60.67 E.23632
G1 X87.711 Y60.67 E.01314
G1 X87.711 Y68.207 E.23632
G1 X87.292 Y68.207 E.01314
G1 X87.292 Y60.67 E.23632
G1 X86.873 Y60.67 E.01314
G1 X86.873 Y68.207 E.23632
G1 X86.454 Y68.207 E.01314
G1 X86.454 Y60.67 E.23632
G1 X86.035 Y60.67 E.01314
G1 X86.035 Y68.207 E.23632
G1 X85.616 Y68.207 E.01314
G1 X85.616 Y60.5 E.24165
M204 S1000
;WIPE_START
G1 F8640
G1 X85.616 Y63.965 E-.8
;WIPE_END
G1 Z.6 F720
G1 X165.034 Y68.546 F10800
G1 Z.2 F720
G1 E.8 F2100
M204 S800
G1 F1200
G1 X160.48 Y68.546 E.14279
G1 X160.48 Y60.331 E.25758
G1 X165.034 Y60.331 E.14279
G1 X165.034 Y68.49 E.25582
M204 S1000
G1 X165.034 Y68.49 F10800
G1 X164.384 Y68.376
M204 S800
G1 F1200
G1 X164.384 Y60.67 E.24162
G1 X163.965 Y60.67 E.01314
G1 X163.965 Y68.207 E.23632
G1 X163.546 Y68.207 E.01314
G1 X163.546 Y60.67 E.23632
G1 X163.127 Y60.67 E.01314
G1 X163.127 Y68.207 E.23632
G1 X162.708 Y68.207 E.01314
G1 X162.708 Y60.67 E.23632
G1 X162.289 Y60.67 E.01314
G1 X162.289 Y68.207 E.23632
G1 X161.87 Y68.207 E.01314
G1 X161.87 Y60.67 E.23632
G1 X161.451 Y60.67 E.01314
G1 X161.451 Y68.207 E.23632
G1 X161.032 Y68.207 E.01314
G1 X161.032 Y60.5 E.24165
M204 S1000
;WIPE_START
G1 F8640
G1 X161.032 Y63.965 E-.8
;WIPE_END
G1 Z.6 F720
G1 X165.034 Y140.398 F10800
G1 Z.2 F720
G1 E.8 F2100
M204 S800
G1 F1200
G1 X160.48 Y140.398 E.14279
G1 X160.48 Y129.865 E.33025
G1 X165.034 Y129.865 E.14279
G1 X165.034 Y140.342 E.3285
M204 S1000
G1 X165.034 Y140.342 F10800
G1 X164.384 Y140.228
M204 S800
G1 F1200
G1 X164.384 Y130.204 E.3143
G1 X163.965 Y130.204 E.01314
G1 X163.965 Y140.059 E.309
G1 X163.546 Y140.059 E.01314
G1 X163.546 Y130.204 E.309
G1 X163.127 Y130.204 E.01314
G1 X163.127 Y140.059 E.309
G1 X162.708 Y140.059 E.01314
G1 X162.708 Y130.204 E.309
G1 X162.289 Y130.204 E.01314
G1 X162.289 Y140.059 E.309
G1 X161.87 Y140.059 E.01314
G1 X161.87 Y130.204 E.309
G1 X161.451 Y130.204 E.01314
G1 X161.451 Y140.059 E.309
G1 X161.032 Y140.059 E.01314
G1 X161.032 Y130.035 E.3143
M204 S1000
;WIPE_START
G1 F8640
G1 X161.032 Y133.5 E-.8
;WIPE_END
G1 Z.6 F720
G1 X123.781 Y94.504 F10800
G1 Z.2 F720
G1 E.8 F2100
M204 S800
;TYPE:External perimeter
;WIDTH:0.419999
G1 F1200
G1 X123.766 Y94.484 E.00078
G1 X123.631 Y94.141 E.01156
G1 X123.59 Y93.775 E.01155
G1 X123.644 Y93.411 E.01154
G1 X123.791 Y93.074 E.01153
G1 X124.02 Y92.785 E.01156
G1 X124.316 Y92.566 E.01154
;WIDTH:0.456637
G1 X124.485 Y92.481 E.00651
;WIDTH:0.493274
G1 X124.654 Y92.395 E.0071
G1 X125.028 Y92.364 E.01405
;WIDTH:0.472341
G1 X125.399 Y92.42 E.0134
;WIDTH:0.471171
G1 X125.563 Y92.506 E.00659
;WIDTH:0.445585
G1 X125.726 Y92.591 E.00615
;WIDTH:0.419999
G1 X126.015 Y92.82 E.01156
G1 X126.234 Y93.116 E.01154
G1 X126.369 Y93.459 E.01156
G1 X126.41 Y93.825 E.01155
G1 X126.356 Y94.189 E.01154
G1 X126.209 Y94.526 E.01153
G1 X125.98 Y94.815 E.01156
G1 X125.677 Y95.037 E.01178
G1 X125.341 Y95.169 E.01132
G1 X124.975 Y95.21 E.01155
G1 X124.645 Y95.166 E.01044
G1 X124.274 Y95.009 E.01263
G1 X123.985 Y94.78 E.01156
G1 X123.817 Y94.552 E.00888
M204 S1000
;WIPE_START
G1 F8640
G1 X123.781 Y94.504 E-.01385
G1 X123.766 Y94.484 E-.00577
G1 X123.631 Y94.141 E-.08511
G1 X123.59 Y93.775 E-.08504
G1 X123.644 Y93.411 E-.08497
G1 X123.791 Y93.074 E-.0849
G1 X124.02 Y92.785 E-.08514
G1 X124.316 Y92.566 E-.08502
G1 X124.485 Y92.481 E-.04368
G1 X124.654 Y92.395 E-.04378
G1 X125.028 Y92.364 E-.08665
G1 X125.399 Y92.42 E-.08664
G1 X125.435 Y92.439 E-.00945
;WIPE_END
G1 Z.6 F720
G1 X137.163 Y100.015 F10800
G1 Z.2 F720
G1 E.8 F2100
M204 S800
;TYPE:Perimeter
G1 F1200
G1 X136.675 Y100.236 E.0168
G1 X136.074 Y100.334 E.01909
G1 X135.467 Y100.274 E.01912
G1 X134.856 Y100.04 E.02051
G1 X134.402 Y99.703 E.01773
G1 X134.079 Y99.314 E.01585
G1 X133.884 Y98.963 E.01259
G1 X133.725 Y98.526 E.01458
G1 X133.661 Y98.011 E.01627
G1 X133.726 Y97.467 E.01718
G1 X133.942 Y96.897 E.01911
G1 X134.297 Y96.402 E.0191
G1 X134.769 Y96.015 E.01914
G1 X135.325 Y95.764 E.01913
G1 X135.892 Y95.67 E.01802
G1 X136.522 Y95.725 E.01983
G1 X137.103 Y95.942 E.01945
G1 X137.554 Y96.264 E.01738
G1 X137.703 Y96.402 E.00637
G1 X138.025 Y96.829 E.01677
G1 X138.236 Y97.325 E.0169
G1 X138.334 Y97.926 E.01909
G1 X138.274 Y98.533 E.01912
G1 X138.058 Y99.103 E.01911
G1 X137.703 Y99.598 E.0191
G1 X137.231 Y99.985 E.01914
G1 X137.218 Y99.991 E.00045
M204 S1000
G1 X137.218 Y99.991 F10800
G1 X136.978 Y99.695
M204 S800
;TYPE:External perimeter
G1 F1200
G1 X136.531 Y99.887 E.01525
G1 X136.025 Y99.96 E.01603
G1 X135.516 Y99.9 E.01607
G1 X135.028 Y99.704 E.01649
G1 X134.629 Y99.402 E.01569
G1 X134.315 Y99.001 E.01597
G1 X134.113 Y98.531 E.01604
G1 X134.04 Y98.025 E.01603
G1 X134.1 Y97.516 E.01607
G1 X134.29 Y97.041 E.01604
G1 X134.596 Y96.631 E.01604
G1 X134.999 Y96.315 E.01606
G1 X135.469 Y96.113 E.01604
G1 X135.977 Y96.043 E.01608
G1 X136.48 Y96.1 E.01587
G1 X136.959 Y96.29 E.01616
G1 X137.369 Y96.596 E.01604
G1 X137.685 Y96.999 E.01606
G1 X137.887 Y97.469 E.01604
G1 X137.96 Y97.975 E.01603
G1 X137.9 Y98.484 E.01607
G1 X137.71 Y98.959 E.01604
G1 X137.404 Y99.369 E.01604
G1 X137.029 Y99.664 E.01496
M204 S1000
;WIPE_START
G1 F8640
G1 X136.978 Y99.695 E-.01378
G1 X136.531 Y99.887 E-.11233
G1 X136.025 Y99.96 E-.11805
G1 X135.516 Y99.9 E-.11834
G1 X135.028 Y99.704 E-.12143
G1 X134.629 Y99.402 E-.11554
G1 X134.315 Y99.001 E-.1176
G1 X134.173 Y98.671 E-.08293
;WIPE_END
G1 Z.6 F720
G1 X132.125 Y92.105 F10800
G1 Z.2 F720
G1 E.8 F2100
M204 S800
;TYPE:Perimeter
G1 F1200
G1 X132.094 Y92.147 E.00164
G1 X131.885 Y92.263 E.00749
G1 X130.861 Y92.287 E.03212
G1 X125.958 Y92.29 E.15373
G1 X126.314 Y92.591 E.01462
G1 X126.582 Y92.972 E.01461
G1 X126.742 Y93.41 E.01462
G1 X126.784 Y93.874 E.01461
G1 X126.704 Y94.333 E.01461
G1 X126.508 Y94.756 E.01462
G1 X126.209 Y95.114 E.01462
G1 X125.821 Y95.385 E.01484
G1 X125.39 Y95.542 E.01438
G1 X124.926 Y95.584 E.01461
G1 X124.467 Y95.504 E.01461
G1 X124.044 Y95.308 E.01462
G1 X123.686 Y95.009 E.01462
G1 X123.418 Y94.628 E.01461
G1 X123.258 Y94.19 E.01462
G1 X123.216 Y93.726 E.01461
G1 X123.296 Y93.267 E.01461
G1 X123.492 Y92.844 E.01462
G1 X123.791 Y92.486 E.01462
G1 X124.042 Y92.29 E.00999
G1 X118.279 Y92.287 E.18069
G1 X118.02 Y92.225 E.00835
G1 X117.818 Y92.05 E.00838
G1 X117.717 Y91.787 E.00883
G1 X117.713 Y68.279 E.73708
G1 X117.781 Y68.009 E.00873
G1 X117.975 Y67.802 E.0089
G1 X118.248 Y67.714 E.00899
G1 X124.042 Y67.71 E.18167
G1 X123.686 Y67.409 E.01462
G1 X123.418 Y67.028 E.01461
G1 X123.258 Y66.59 E.01462
G1 X123.216 Y66.126 E.01461
G1 X123.296 Y65.667 E.01461
G1 X123.492 Y65.244 E.01462
G1 X123.791 Y64.886 E.01462
G1 X124.172 Y64.618 E.01461
G1 X124.61 Y64.458 E.01462
G1 X125.074 Y64.416 E.01461
G1 X125.533 Y64.496 E.01461
G1 X125.956 Y64.692 E.01462
G1 X126.314 Y64.991 E.01462
G1 X126.582 Y65.372 E.01461
G1 X126.742 Y65.81 E.01462
G1 X126.784 Y66.274 E.01461
G1 X126.704 Y66.733 E.01461
G1 X126.508 Y67.156 E.01462
G1 X126.209 Y67.514 E.01462
G1 X125.958 Y67.71 E.00999
G1 X131.721 Y67.713 E.18069
G1 X131.957 Y67.764 E.00757
G1 X132.146 Y67.905 E.00739
G1 X132.26 Y68.107 E.00727
G1 X132.287 Y68.652 E.01711
G1 X132.287 Y91.721 E.72331
G1 X132.235 Y91.958 E.00761
G1 X132.161 Y92.057 E.00388
M204 S1000
G1 X132.161 Y92.057 F10800
G1 X131.864 Y91.823
M204 S800
;TYPE:External perimeter
G1 F1200
G1 X131.846 Y91.863 E.00138
G1 X131.721 Y91.91 E.00419
G1 X125.814 Y91.91 E.18521
;WIDTH:0.44617
G1 X125.435 Y91.923 E.01272
;WIDTH:0.472341
G1 X125.056 Y91.936 E.01354
;WIDTH:0.475807
G1 X124.114 Y91.924 E.03391
;WIDTH:0.447903
G1 X123.723 Y91.91 E.01318
;WIDTH:0.419999
G1 X118.276 Y91.91 E.17079
G1 X118.131 Y91.839 E.00506
G1 X118.09 Y91.721 E.00392
G1 X118.09 Y68.279 E.73501
G1 X118.159 Y68.133 E.00506
G1 X118.279 Y68.09 E.004
G1 X124.186 Y68.09 E.18521
;WIDTH:0.44617
G1 X124.565 Y68.077 E.01272
;WIDTH:0.472341
G1 X124.944 Y68.064 E.01354
;WIDTH:0.475807
G1 X125.886 Y68.076 E.03391
;WIDTH:0.447903
G1 X126.277 Y68.09 E.01318
;WIDTH:0.419999
G1 X131.721 Y68.09 E.17069
G1 X131.863 Y68.154 E.00488
G1 X131.91 Y68.279 E.00419
G1 X131.91 Y91.721 E.73501
G1 X131.889 Y91.769 E.00164
M204 S1000
;WIPE_START
G1 F8640
G1 X131.864 Y91.823 E-.01374
G1 X131.846 Y91.863 E-.01013
G1 X131.721 Y91.91 E-.03084
G1 X128.493 Y91.91 E-.74529
;WIPE_END
G1 Z.6 F720
M73 P0 R241
G1 X125.995 Y65.205 F10800
G1 Z.2 F720
G1 E.8 F2100
M204 S800
G1 F1200
G1 X126.015 Y65.22 E.00078
G1 X126.234 Y65.516 E.01154
G1 X126.369 Y65.859 E.01156
G1 X126.41 Y66.225 E.01155
G1 X126.356 Y66.589 E.01154
G1 X126.209 Y66.926 E.01153
G1 X125.98 Y67.215 E.01156
G1 X125.684 Y67.434 E.01154
;WIDTH:0.456637
G1 X125.515 Y67.519 E.00651
;WIDTH:0.493274
G1 X125.346 Y67.605 E.0071
G1 X124.972 Y67.636 E.01405
;WIDTH:0.472341
G1 X124.601 Y67.58 E.0134
;WIDTH:0.47117
G1 X124.437 Y67.494 E.00659
;WIDTH:0.445585
G1 X124.274 Y67.409 E.00615
;WIDTH:0.419999
G1 X123.985 Y67.18 E.01156
G1 X123.766 Y66.884 E.01154
G1 X123.631 Y66.541 E.01156
G1 X123.59 Y66.175 E.01155
G1 X123.644 Y65.811 E.01154
G1 X123.791 Y65.474 E.01153
G1 X123.998 Y65.206 E.01062
G1 X124.316 Y64.966 E.01249
G1 X124.659 Y64.831 E.01156
G1 X125.025 Y64.79 E.01155
G1 X125.389 Y64.844 E.01154
G1 X125.726 Y64.991 E.01153
G1 X125.948 Y65.167 E.00888
M204 S1000
;WIPE_START
G1 F8640
G1 X125.995 Y65.205 E-.01396
G1 X126.015 Y65.22 E-.00577
G1 X126.234 Y65.516 E-.08502
G1 X126.369 Y65.859 E-.08511
G1 X126.41 Y66.225 E-.08504
G1 X126.356 Y66.589 E-.08497
G1 X126.209 Y66.926 E-.0849
G1 X125.98 Y67.215 E-.08514
G1 X125.684 Y67.434 E-.08502
G1 X125.515 Y67.519 E-.04368
G1 X125.346 Y67.605 E-.04378
G1 X124.972 Y67.636 E-.08665
G1 X124.925 Y67.629 E-.01096
;WIPE_END
G1 Z.6 F720
G1 X135.398 Y59.752 F10800
G1 Z.2 F720
G1 E.8 F2100
M204 S800
;TYPE:Perimeter
G1 F1200
G1 X135.892 Y59.67 E.0157
G1 X136.522 Y59.725 E.01983
G1 X137.103 Y59.942 E.01945
G1 X137.598 Y60.297 E.0191
G1 X137.985 Y60.769 E.01914
G1 X138.236 Y61.325 E.01913
G1 X138.334 Y61.926 E.01909
G1 X138.274 Y62.533 E.01912
G1 X138.058 Y63.103 E.01911
G1 X137.703 Y63.598 E.0191
G1 X137.231 Y63.985 E.01914
G1 X136.675 Y64.236 E.01913
G1 X136.074 Y64.334 E.01909
G1 X135.467 Y64.274 E.01912
G1 X134.897 Y64.058 E.01911
G1 X134.402 Y63.703 E.0191
G1 X134.015 Y63.231 E.01914
G1 X133.764 Y62.675 E.01913
G1 X133.666 Y62.074 E.01909
G1 X133.725 Y61.474 E.0189
G1 X133.942 Y60.897 E.01933
G1 X134.297 Y60.402 E.0191
G1 X134.769 Y60.015 E.01914
G1 X135.325 Y59.764 E.01913
G1 X135.339 Y59.762 E.00044
M204 S1000
G1 X135.339 Y59.762 F10800
G1 X135.494 Y60.109
M204 S800
;TYPE:External perimeter
G1 F1200
G1 X135.964 Y60.043 E.01488
G1 X136.48 Y60.1 E.01628
G1 X136.959 Y60.29 E.01616
G1 X137.369 Y60.596 E.01604
G1 X137.685 Y60.999 E.01606
G1 X137.887 Y61.469 E.01604
G1 X137.96 Y61.975 E.01603
G1 X137.9 Y62.484 E.01607
G1 X137.71 Y62.959 E.01604
G1 X137.404 Y63.369 E.01604
G1 X137.001 Y63.685 E.01606
G1 X136.531 Y63.887 E.01604
G1 X136.025 Y63.96 E.01603
G1 X135.516 Y63.9 E.01607
G1 X135.041 Y63.71 E.01604
G1 X134.631 Y63.404 E.01604
G1 X134.315 Y63.001 E.01606
G1 X134.113 Y62.531 E.01604
G1 X134.04 Y62.025 E.01603
G1 X134.099 Y61.523 E.01585
G1 X134.29 Y61.041 E.01626
G1 X134.596 Y60.631 E.01604
G1 X134.999 Y60.315 E.01606
G1 X135.437 Y60.127 E.01494
M204 S1000
;WIPE_START
G1 F8640
G1 X135.494 Y60.109 E-.0138
G1 X135.964 Y60.043 E-.10959
G1 X136.48 Y60.1 E-.11987
G1 X136.959 Y60.29 E-.11899
G1 X137.369 Y60.596 E-.11813
G1 X137.685 Y60.999 E-.11825
G1 X137.887 Y61.469 E-.11812
G1 X137.939 Y61.826 E-.08325
;WIPE_END
G1 Z.6 F720
G1 X159.213 Y45.787 F10800
G1 Z.2 F720
G1 E.8 F2100
M204 S800
;TYPE:Perimeter
G1 F1200
G1 X159.213 Y56.767 E.34427
G1 X159.213 Y164.213 E3.36889
G1 X90.787 Y164.213 E2.14545
G1 X90.787 Y45.787 E3.71316
G1 X159.153 Y45.787 E2.14356
M204 S1000
G1 X159.59 Y45.41 F10800
M204 S800
;TYPE:External perimeter
G1 F1200
G1 X159.59 Y56.767 E.35609
G1 X159.59 Y164.59 E3.38071
G1 X90.41 Y164.59 E2.16909
G1 X90.41 Y45.41 E3.7368
G1 X159.53 Y45.41 E2.16721
M204 S1000
;WIPE_START
G1 F8640
G1 X159.59 Y45.41 E-.01385
G1 X159.59 Y48.815 E-.78615
;WIPE_END
G1 Z.6 F720
G1 X159.043 Y46.72 F10800
G1 Z.2 F720
G1 E.8 F2100
M204 S800
;TYPE:Solid infill
;WIDTH:0.420276
G1 F1200
G1 X158.45 Y46.126 E.02634
G1 X157.916 Y46.126 E.01676
G1 X158.874 Y47.084 E.04251
G1 X158.874 Y47.617 E.01672
G1 X157.383 Y46.126 E.06616
G1 X156.849 Y46.126 E.01676
G1 X158.874 Y48.151 E.08986
G1 X158.874 Y48.685 E.01676
G1 X156.315 Y46.126 E.11355
G1 X155.782 Y46.126 E.01672
G1 X158.874 Y49.218 E.1372
G1 X158.874 Y49.752 E.01676
G1 X155.248 Y46.126 E.1609
G1 X154.714 Y46.126 E.01676
