; generated by PrusaSlicer 2.8.1+win64 on 2024-10-28 at 01:04:38 UTC


;
;
; 

; external perimeters extrusion width = 0.45mm
; perimeters extrusion width = 0.45mm
; infill extrusion width = 0.45mm
; solid infill extrusion width = 0.45mm
; top infill extrusion width = 0.45mm
; first layer extrusion width = 0.42mm

M73 P0 R43
M201 X9000 Y9000 Z500 E10000 ; sets maximum accelerations, mm/sec^2
M203 X500 Y500 Z12 E120 ; sets maximum feedrates, mm / sec
M204 S2000 T1500 ; sets acceleration (S) and retract acceleration (R), mm/sec^2
M205 X10.00 Y10.00 Z0.20 E4.50 ; sets the jerk limits, mm/sec
M205 S0 T0 ; sets the minimum extruding and travel feed rate, mm/sec

; printing object Pen lifter - pen holder.stl id:0 copy 0
; stop printing object Pen lifter - pen holder.stl id:0 copy 0

;TYPE:Custom
M862.3 P "MK2.5S" ; printer model check
M862.1 P0.4 ; nozzle diameter check
M115 U3.14.0 ; tell printer latest fw version
G90 ; use absolute coordinates
M83 ; extruder relative mode
M104 S215 ; set extruder temp
M140 S60 ; set bed temp
M190 S60 ; wait for bed temp
M109 S215 ; wait for extruder temp
G28 W ; home all without mesh bed level
G80 X110.172 Y63.8323 W29.7542 H74.7542 ; mesh bed levelling

G1 Z0.2 F720
G1 Y-3 F1000 ; go outside print area
G92 E0
G1 X60 E9 F1000 ; intro line
G1 X100 E12.5 F1000 ; intro line

G92 E0
G21 ; set units to millimeters
G90 ; use absolute coordinates
M83 ; use relative distances for extrusion

M900 K0.05 ; Filament gcode LA 1.5
M900 K30 ; Filament gcode LA 1.0




M107
;LAYER_CHANGE
;Z:0.2
;HEIGHT:0.2
G1 E-.8 F2100
G1 Z.6 F720
G1 X110.752 Y64.961 F10800
G1 Z.2 F720
G1 E.8 F2100
M204 S800
;TYPE:Skirt/Brim
;WIDTH:0.42
G1 F1200
G1 X111.785 Y64.159 E.041
G1 X112.549 Y64.021 E.02434
G1 X137.549 Y64.021 E.78386
G1 X138.798 Y64.412 E.04104
G1 X139.6 Y65.445 E.041
G1 X139.738 Y66.209 E.02434
G1 X139.738 Y136.209 E2.1948
G1 X139.347 Y137.458 E.04104
G1 X138.314 Y138.26 E.041
G1 X137.549 Y138.398 E.02437
G1 X112.549 Y138.398 E.78386
G1 X111.301 Y138.007 E.04101
G1 X110.499 Y136.974 E.041
G1 X110.361 Y136.209 E.02437
G1 X110.361 Y66.209 E2.1948
G1 X110.734 Y65.018 E.03913
M204 S1000
;WIPE_START
G1 F8640
G1 X110.752 Y64.961 E-.0138
G1 X111.785 Y64.159 E-.30197
G1 X112.549 Y64.021 E-.17926
G1 X113.87 Y64.021 E-.30497
;WIPE_END
G1 Z.6 F720
; printing object Pen lifter - pen holder.stl id:0 copy 0
G1 X113.337 Y135.422 F10800
G1 Z.2 F720
G1 E.8 F2100
M204 S800
;TYPE:Perimeter
;WIDTH:0.419999
G1 F1200
G1 X113.337 Y66.996 E2.14545
G1 X136.762 Y66.996 E.73447
G1 X136.762 Y78.709 E.36725
G1 X136.762 Y135.422 E1.77819
G1 X113.397 Y135.422 E.73259
M204 S1000
G1 X113.397 Y135.422 F10800
M73 P1 R43
G1 X112.959 Y135.799
M204 S800
;TYPE:External perimeter
G1 F1200
G1 X112.959 Y66.619 E2.16909
G1 X137.139 Y66.619 E.75815
G1 X137.139 Y78.709 E.37907
G1 X137.139 Y135.799 E1.79001
G1 X113.019 Y135.799 E.75626
M204 S1000
;WIPE_START
G1 F8640
G1 X112.959 Y135.799 E-.01385
G1 X112.959 Y132.394 E-.78615
;WIPE_END
G1 Z.6 F720
G1 X136.593 Y67.929 F10800
G1 Z.2 F720
G1 E.8 F2100
M204 S800
;TYPE:Solid infill
;WIDTH:0.420243
G1 F1200
G1 X136 Y67.336 E.02631
G1 X135.466 Y67.336 E.01675
G1 X136.423 Y68.293 E.04246
G1 X136.423 Y68.826 E.01672
G1 X134.932 Y67.336 E.06613
G1 X134.399 Y67.336 E.01672
G1 X136.423 Y69.36 E.08981
G1 X136.423 Y69.894 E.01675
G1 X133.865 Y67.336 E.1135
G1 X133.332 Y67.336 E.01672
G1 X136.423 Y70.427 E.13715
G1 X136.423 Y70.961 E.01675
G1 X132.798 Y67.336 E.16084
G1 X132.264 Y67.336 E.01675
G1 X136.423 Y71.495 E.18454
G1 X136.423 Y72.028 E.01672
G1 X131.731 Y67.336 E.20819
G1 X131.197 Y67.336 E.01675
G1 X136.423 Y72.562 E.23188
G1 X136.423 Y73.095 E.01672
G1 X130.663 Y67.336 E.25555
G1 X130.13 Y67.336 E.01672
G1 X136.423 Y73.629 E.27922
G1 X136.423 Y74.163 E.01675
G1 X129.596 Y67.336 E.30292
G1 X129.063 Y67.336 E.01672
G1 X136.423 Y74.696 E.32657
G1 X136.423 Y75.23 E.01675
G1 X128.529 Y67.336 E.35026
G1 X127.995 Y67.336 E.01675
G1 X136.423 Y75.763 E.37393
G1 X136.423 Y76.297 E.01675
G1 X127.462 Y67.336 E.3976
G1 X126.928 Y67.336 E.01675
G1 X136.423 Y76.831 E.4213
G1 X136.423 Y77.364 E.01672
G1 X126.395 Y67.336 E.44495
G1 X125.861 Y67.336 E.01675
G1 X136.423 Y77.898 E.46864
G1 X136.423 Y78.432 E.01675
G1 X125.327 Y67.336 E.49233
G1 X124.794 Y67.336 E.01672
G1 X136.423 Y78.965 E.51598
G1 X136.423 Y79.499 E.01675
G1 X124.26 Y67.336 E.53968
G1 X123.726 Y67.336 E.01675
M73 P1 R42
G1 X136.423 Y80.032 E.56335
G1 X136.423 Y80.566 E.01675
G1 X123.193 Y67.336 E.58702
G1 X122.659 Y67.336 E.01675
G1 X136.423 Y81.1 E.61071
G1 X136.423 Y81.633 E.01672
G1 X122.126 Y67.336 E.63436
G1 X121.592 Y67.336 E.01675
G1 X136.423 Y82.167 E.65806
G1 X136.423 Y82.7 E.01672
M73 P2 R42
G1 X121.058 Y67.336 E.68173
G1 X120.525 Y67.336 E.01672
G1 X136.423 Y83.234 E.7054
G1 X136.423 Y83.768 E.01675
G1 X119.991 Y67.336 E.72909
G1 X119.458 Y67.336 E.01672
G1 X136.423 Y84.301 E.75274
G1 X136.423 Y84.835 E.01675
G1 X118.924 Y67.336 E.77644
G1 X118.39 Y67.336 E.01675
G1 X136.423 Y85.369 E.80013
G1 X136.423 Y85.902 E.01672
G1 X117.857 Y67.336 E.82378
G1 X117.323 Y67.336 E.01675
G1 X136.423 Y86.436 E.84747
G1 X136.423 Y86.969 E.01672
G1 X116.789 Y67.336 E.87114
G1 X116.256 Y67.336 E.01672
G1 X136.423 Y87.503 E.89482
G1 X136.423 Y88.037 E.01675
G1 X115.722 Y67.336 E.91851
G1 X115.189 Y67.336 E.01672
G1 X136.423 Y88.57 E.94216
G1 X136.423 Y89.104 E.01675
G1 X114.655 Y67.336 E.96585
G1 X114.121 Y67.336 E.01675
G1 X136.423 Y89.637 E.98952
G1 X136.423 Y90.171 E.01675
G1 X113.676 Y67.424 E1.00929
G1 X113.676 Y67.958 E.01675
G1 X136.423 Y90.705 E1.00929
G1 X136.423 Y91.238 E.01672
G1 X113.676 Y68.491 E1.00929
G1 X113.676 Y69.025 E.01675
G1 X136.423 Y91.772 E1.00929
G1 X136.423 Y92.306 E.01675
M73 P3 R42
G1 X113.676 Y69.558 E1.00931
G1 X113.676 Y70.092 E.01675
G1 X136.423 Y92.839 E1.00929
G1 X136.423 Y93.373 E.01675
G1 X113.676 Y70.626 E1.00929
G1 X113.676 Y71.159 E.01672
G1 X136.423 Y93.906 E1.00929
G1 X136.423 Y94.44 E.01675
G1 X113.676 Y71.693 E1.00929
G1 X113.676 Y72.227 E.01675
G1 X136.423 Y94.974 E1.00929
G1 X136.423 Y95.507 E.01672
G1 X113.676 Y72.76 E1.00929
G1 X113.676 Y73.294 E.01675
G1 X136.423 Y96.041 E1.00929
G1 X136.423 Y96.574 E.01672
G1 X113.676 Y73.827 E1.00929
G1 X113.676 Y74.361 E.01675
G1 X136.423 Y97.108 E1.00929
G1 X136.423 Y97.642 E.01675
G1 X113.676 Y74.895 E1.00929
G1 X113.676 Y75.428 E.01672
G1 X136.423 Y98.175 E1.00929
G1 X136.423 Y98.709 E.01675
G1 X113.676 Y75.962 E1.00929
G1 X113.676 Y76.495 E.01672
G1 X136.423 Y99.243 E1.00931
G1 X136.423 Y99.776 E.01672
G1 X113.676 Y77.029 E1.00929
G1 X113.676 Y77.563 E.01675
G1 X136.423 Y100.31 E1.00929
G1 X136.423 Y100.843 E.01672
M73 P4 R42
G1 X113.676 Y78.096 E1.00929
G1 X113.676 Y78.63 E.01675
G1 X136.423 Y101.377 E1.00929
G1 X136.423 Y101.911 E.01675
M73 P4 R41
G1 X113.676 Y79.164 E1.00929
G1 X113.676 Y79.697 E.01672
G1 X136.423 Y102.444 E1.00929
G1 X136.423 Y102.978 E.01675
G1 X113.676 Y80.231 E1.00929
G1 X113.676 Y80.764 E.01672
G1 X136.423 Y103.511 E1.00929
G1 X136.423 Y104.045 E.01675
G1 X113.676 Y81.298 E1.00929
G1 X113.676 Y81.832 E.01675
G1 X136.423 Y104.579 E1.00929
G1 X136.423 Y105.112 E.01672
G1 X113.676 Y82.365 E1.00929
G1 X113.676 Y82.899 E.01675
G1 X136.423 Y105.646 E1.00929
G1 X136.423 Y106.18 E.01675
G1 X113.676 Y83.432 E1.00931
G1 X113.676 Y83.966 E.01675
G1 X136.423 Y106.713 E1.00929
G1 X136.423 Y107.247 E.01675
G1 X113.676 Y84.5 E1.00929
G1 X113.676 Y85.033 E.01672
G1 X136.423 Y107.78 E1.00929
G1 X136.423 Y108.314 E.01675
G1 X113.676 Y85.567 E1.00929
G1 X113.676 Y86.101 E.01675
G1 X136.423 Y108.848 E1.00929
G1 X136.423 Y109.381 E.01672
M73 P5 R41
G1 X113.676 Y86.634 E1.00929
G1 X113.676 Y87.168 E.01675
G1 X136.423 Y109.915 E1.00929
G1 X136.423 Y110.448 E.01672
G1 X113.676 Y87.701 E1.00929
G1 X113.676 Y88.235 E.01675
G1 X136.423 Y110.982 E1.00929
G1 X136.423 Y111.516 E.01675
G1 X113.676 Y88.769 E1.00929
G1 X113.676 Y89.302 E.01672
G1 X136.423 Y112.049 E1.00929
G1 X136.423 Y112.583 E.01675
G1 X113.676 Y89.836 E1.00929
G1 X113.676 Y90.369 E.01672
G1 X136.423 Y113.117 E1.00931
G1 X136.423 Y113.65 E.01672
G1 X113.676 Y90.903 E1.00929
G1 X113.676 Y91.437 E.01675
G1 X136.423 Y114.184 E1.00929
G1 X136.423 Y114.717 E.01672
G1 X113.676 Y91.97 E1.00929
G1 X113.676 Y92.504 E.01675
G1 X136.423 Y115.251 E1.00929
G1 X136.423 Y115.785 E.01675
G1 X113.676 Y93.038 E1.00929
G1 X113.676 Y93.571 E.01672
G1 X136.423 Y116.318 E1.00929
G1 X136.423 Y116.852 E.01675
G1 X113.676 Y94.105 E1.00929
G1 X113.676 Y94.638 E.01672
G1 X136.423 Y117.385 E1.00929
G1 X136.423 Y117.919 E.01675
M73 P6 R41
G1 X113.676 Y95.172 E1.00929
G1 X113.676 Y95.706 E.01675
G1 X136.423 Y118.453 E1.00929
G1 X136.423 Y118.986 E.01672
G1 X113.676 Y96.239 E1.00929
G1 X113.676 Y96.773 E.01675
G1 X136.423 Y119.52 E1.00929
G1 X136.423 Y120.054 E.01675
G1 X113.676 Y97.306 E1.00931
G1 X113.676 Y97.84 E.01675
G1 X136.423 Y120.587 E1.00929
G1 X136.423 Y121.121 E.01675
M73 P6 R40
G1 X113.676 Y98.374 E1.00929
G1 X113.676 Y98.907 E.01672
G1 X136.423 Y121.654 E1.00929
G1 X136.423 Y122.188 E.01675
G1 X113.676 Y99.441 E1.00929
G1 X113.676 Y99.975 E.01675
G1 X136.423 Y122.722 E1.00929
G1 X136.423 Y123.255 E.01672
G1 X113.676 Y100.508 E1.00929
G1 X113.676 Y101.042 E.01675
G1 X136.423 Y123.789 E1.00929
G1 X136.423 Y124.322 E.01672
G1 X113.676 Y101.575 E1.00929
G1 X113.676 Y102.109 E.01675
G1 X136.423 Y124.856 E1.00929
G1 X136.423 Y125.39 E.01675
G1 X113.676 Y102.643 E1.00929
G1 X113.676 Y103.176 E.01672
G1 X136.423 Y125.923 E1.00929
G1 X136.423 Y126.457 E.01675
M73 P7 R40
G1 X113.676 Y103.71 E1.00929
G1 X113.676 Y104.243 E.01672
G1 X136.423 Y126.991 E1.00931
G1 X136.423 Y127.524 E.01672
G1 X113.676 Y104.777 E1.00929
G1 X113.676 Y105.311 E.01675
G1 X136.423 Y128.058 E1.00929
G1 X136.423 Y128.591 E.01672
G1 X113.676 Y105.844 E1.00929
G1 X113.676 Y106.378 E.01675
G1 X136.423 Y129.125 E1.00929
G1 X136.423 Y129.659 E.01675
G1 X113.676 Y106.912 E1.00929
G1 X113.676 Y107.445 E.01672
G1 X136.423 Y130.192 E1.00929
G1 X136.423 Y130.726 E.01675
G1 X113.676 Y107.979 E1.00929
G1 X113.676 Y108.512 E.01672
G1 X136.423 Y131.259 E1.00929
G1 X136.423 Y131.793 E.01675
G1 X113.676 Y109.046 E1.00929
G1 X113.676 Y109.58 E.01675
G1 X136.423 Y132.327 E1.00929
G1 X136.423 Y132.86 E.01672
G1 X113.676 Y110.113 E1.00929
G1 X113.676 Y110.647 E.01675
G1 X136.423 Y133.394 E1.00929
G1 X136.423 Y133.928 E.01675
G1 X113.676 Y111.18 E1.00931
G1 X113.676 Y111.714 E.01675
G1 X136.423 Y134.461 E1.00929
G1 X136.423 Y134.995 E.01675
M73 P8 R40
G1 X113.676 Y112.248 E1.00929
G1 X113.676 Y112.781 E.01672
G1 X135.978 Y135.083 E.98955
G1 X135.444 Y135.083 E.01675
G1 X113.676 Y113.315 E.96585
G1 X113.676 Y113.849 E.01675
G1 X134.91 Y135.083 E.94216
G1 X134.377 Y135.083 E.01672
G1 X113.676 Y114.382 E.91851
G1 X113.676 Y114.916 E.01675
G1 X133.843 Y135.083 E.89482
G1 X133.309 Y135.083 E.01675
G1 X113.676 Y115.449 E.87114
G1 X113.676 Y115.983 E.01675
G1 X132.776 Y135.083 E.84747
G1 X132.242 Y135.083 E.01675
G1 X113.676 Y116.517 E.82378
G1 X113.676 Y117.05 E.01672
G1 X131.709 Y135.083 E.80013
G1 X131.175 Y135.083 E.01675
G1 X113.676 Y117.584 E.77644
G1 X113.676 Y118.117 E.01672
G1 X130.641 Y135.083 E.75276
G1 X130.108 Y135.083 E.01672
M73 P8 R39
G1 X113.676 Y118.651 E.72909
G1 X113.676 Y119.185 E.01675
G1 X129.574 Y135.083 E.7054
G1 X129.041 Y135.083 E.01672
G1 X113.676 Y119.718 E.68175
G1 X113.676 Y120.252 E.01675
G1 X128.507 Y135.083 E.65806
G1 X127.973 Y135.083 E.01675
G1 X113.676 Y120.786 E.63436
G1 X113.676 Y121.319 E.01672
G1 X127.44 Y135.083 E.61071
G1 X126.906 Y135.083 E.01675
G1 X113.676 Y121.853 E.58702
G1 X113.676 Y122.386 E.01672
G1 X126.372 Y135.083 E.56335
G1 X125.839 Y135.083 E.01672
G1 X113.676 Y122.92 E.53968
G1 X113.676 Y123.454 E.01675
M73 P9 R39
G1 X125.305 Y135.083 E.51598
G1 X124.772 Y135.083 E.01672
G1 X113.676 Y123.987 E.49233
G1 X113.676 Y124.521 E.01675
G1 X124.238 Y135.083 E.46864
G1 X123.704 Y135.083 E.01675
G1 X113.676 Y125.054 E.44497
G1 X113.676 Y125.588 E.01675
G1 X123.171 Y135.083 E.4213
G1 X122.637 Y135.083 E.01675
G1 X113.676 Y126.122 E.3976
G1 X113.676 Y126.655 E.01672
G1 X122.104 Y135.083 E.37395
G1 X121.57 Y135.083 E.01675
G1 X113.676 Y127.189 E.35026
G1 X113.676 Y127.723 E.01675
G1 X121.036 Y135.083 E.32657
G1 X120.503 Y135.083 E.01672
G1 X113.676 Y128.256 E.30292
G1 X113.676 Y128.79 E.01675
G1 X119.969 Y135.083 E.27922
G1 X119.435 Y135.083 E.01675
G1 X113.676 Y129.323 E.25555
G1 X113.676 Y129.857 E.01675
G1 X118.902 Y135.083 E.23188
G1 X118.368 Y135.083 E.01675
G1 X113.676 Y130.391 E.20819
G1 X113.676 Y130.924 E.01672
G1 X117.835 Y135.083 E.18454
G1 X117.301 Y135.083 E.01675
G1 X113.676 Y131.458 E.16084
G1 X113.676 Y131.991 E.01672
G1 X116.767 Y135.083 E.13717
G1 X116.234 Y135.083 E.01672
G1 X113.676 Y132.525 E.1135
G1 X113.676 Y133.059 E.01675
G1 X115.7 Y135.083 E.08981
G1 X115.167 Y135.083 E.01672
G1 X113.676 Y133.592 E.06616
G1 X113.676 Y134.126 E.01675
G1 X114.633 Y135.083 E.04246
G1 X114.099 Y135.083 E.01675
G1 X113.506 Y134.49 E.02631
M204 S1000
M106 S84.15
;LAYER_CHANGE
;Z:0.35
;HEIGHT:0.15
;BEFORE_LAYER_CHANGE
G92 E0.0
;0.35


;WIPE_START
G1 F8640
G1 X114.099 Y135.083 E-.19364
G1 X114.633 Y135.083 E-.1233
G1 X113.676 Y134.126 E-.3125
G1 X113.676 Y133.592 E-.1233
G1 X113.821 Y133.737 E-.04726
;WIPE_END
G1 Z.35 F720
;AFTER_LAYER_CHANGE
;0.35
M104 S210 ; set temperature
; stop printing object Pen lifter - pen holder.stl id:0 copy 0
G1 Z.75
G1 X110.361 Y134.49 F10800
G1 Z.35 F720
G1 E.8 F2100
;TYPE:Skirt/Brim
;WIDTH:0.42
G1 F3000
G1 X110.361 Y66.209 E1.65137
G1 X110.752 Y64.961 E.03163
G1 X111.785 Y64.159 E.03163
G1 X112.549 Y64.021 E.01878
G1 X137.549 Y64.021 E.60462
G1 X138.798 Y64.412 E.03165
G1 X139.6 Y65.445 E.03163
G1 X139.738 Y66.209 E.01878
G1 X139.738 Y136.209 E1.69294
G1 X139.347 Y137.458 E.03165
G1 X138.314 Y138.26 E.03163
G1 X137.549 Y138.398 E.0188
G1 X112.549 Y138.398 E.60462
G1 X111.301 Y138.007 E.03163
G1 X110.499 Y136.974 E.03163
G1 X110.361 Y136.209 E.0188
G1 X110.361 Y134.55 E.04012
;WIPE_START
G1 F8640
G1 X110.361 Y134.49 E-.01385
G1 X110.361 Y131.085 E-.78615
;WIPE_END
G1 Z.75 F720
; printing object Pen lifter - pen holder.stl id:0 copy 0
G1 X113.192 Y135.567 F10800
G1 Z.35 F720
G1 E.8 F2100
M204 S800
;TYPE:Perimeter
;WIDTH:0.449999
G1 F3000
G1 X113.192 Y66.852 E1.79042
G1 F2442.441
G1 X136.907 Y66.852 E.61791
G1 F3000
G1 X136.907 Y135.567 E1.79042
G1 F2442.389
G1 X113.252 Y135.567 E.61635
M204 S1000
G1 X113.252 Y135.567 F10800
G1 X112.774 Y135.984
M204 S800
;TYPE:External perimeter
G1 F1953.668
G1 X112.774 Y135.309 E.01759
G1 F2399.995
G1 X112.774 Y67.109 E1.777
G1 F1969.15
G1 X112.774 Y66.434 E.01759
G1 F1953.666
G1 X113.449 Y66.434 E.01759
G1 F1993.481
G1 X136.649 Y66.434 E.60449
G1 F1977.26
G1 X137.324 Y66.434 E.01759
G1 F1953.668
G1 X137.324 Y67.109 E.01759
G1 F2399.995
G1 X137.324 Y135.309 E1.777
G1 F1977.262
G1 X137.324 Y135.984 E.01759
G1 F1953.666
G1 X136.649 Y135.984 E.01759
G1 F1993.444
G1 X113.449 Y135.984 E.60449
G1 F1977.26
G1 X112.834 Y135.984 E.01602
M204 S1000
;WIPE_START
G1 F8640
G1 X112.774 Y135.984 E-.01385
G1 X112.774 Y135.309 E-.15586
G1 X112.774 Y132.579 E-.63029
;WIPE_END
G1 Z.75 F720
G1 X113.682 Y67.262 F10800
G1 Z.35 F720
G1 E.8 F2100
M204 S2000
;TYPE:Solid infill
;WIDTH:0.55137
G1 F3000
G1 X113.636 Y67.216 E.00211
G1 X113.573 Y67.233 E.00211
G1 X113.556 Y67.296 E.00211
G1 X113.602 Y67.342 E.00211
G1 X113.665 Y67.325 E.00211
M204 S1000
G1 X113.665 Y67.325 F10800
G1 X113.431 Y68.142
M204 S2000
;WIDTH:0.37219
G1 F3000
G1 X113.36 Y68.122 E.00156
G1 X113.379 Y68.194 E.00158
G1 X113.42 Y68.183 E.0009
;WIDTH:0.411095
G1 X113.494 Y68.087 E.00286
;WIDTH:0.449999
G1 X113.568 Y67.992 E.00314
G1 X114.332 Y67.228 E.02815
G1 X114.427 Y67.154 E.00314
;WIDTH:0.411095
G1 X114.523 Y67.08 E.00286
;WIDTH:0.37219
G1 X114.482 Y67.091 E.0009
G1 X114.463 Y67.02 E.00156
G1 X114.534 Y67.039 E.00156
;WIDTH:0.449999
G1 X114.923 Y67.228 E.01127
G1 X113.568 Y68.583 E.04993
G1 X113.568 Y69.174 E.0154
G1 X115.514 Y67.228 E.07171
G1 X116.105 Y67.228 E.0154
M73 P10 R39
G1 X113.568 Y69.765 E.09348
G1 X113.568 Y70.356 E.0154
G1 X116.696 Y67.228 E.11526
G1 X117.287 Y67.228 E.0154
G1 X113.568 Y70.946 E.13702
