; generated by PrusaSlicer 2.8.1+win64 on 2024-10-28 at 23:50:43 UTC


;
;
; 

; external perimeters extrusion width = 0.45mm
; perimeters extrusion width = 0.45mm
; infill extrusion width = 0.45mm
; solid infill extrusion width = 0.45mm
; top infill extrusion width = 0.45mm
; first layer extrusion width = 0.42mm

M73 P0 R64
M201 X9000 Y9000 Z500 E10000 ; sets maximum accelerations, mm/sec^2
M203 X500 Y500 Z12 E120 ; sets maximum feedrates, mm / sec
M204 S2000 T1500 ; sets acceleration (S) and retract acceleration (R), mm/sec^2
M205 X10.00 Y10.00 Z0.20 E4.50 ; sets the jerk limits, mm/sec
M205 S0 T0 ; sets the minimum extruding and travel feed rate, mm/sec

; printing object Pen holder -support 1.stl id:0 copy 0
; stop printing object Pen holder -support 1.stl id:0 copy 0

;TYPE:Custom
M862.3 P "MK2.5S" ; printer model check
M862.1 P0.4 ; nozzle diameter check
M115 U3.14.0 ; tell printer latest fw version
G90 ; use absolute coordinates
M83 ; extruder relative mode
M104 S215 ; set extruder temp
M140 S60 ; set bed temp
M190 S60 ; wait for bed temp
M109 S215 ; wait for extruder temp
G28 W ; home all without mesh bed level
G80 X96.7229 Y32.7229 W56.5542 H144.554 ; mesh bed levelling

G1 Z0.2 F720
G1 Y-3 F1000 ; go outside print area
G92 E0
G1 X60 E9 F1000 ; intro line
G1 X100 E12.5 F1000 ; intro line

G92 E0
G21 ; set units to millimeters
G90 ; use absolute coordinates
M83 ; use relative distances for extrusion

M900 K0.05 ; Filament gcode LA 1.5
M900 K30 ; Filament gcode LA 1.0




M107
;LAYER_CHANGE
;Z:0.2
;HEIGHT:0.2
G1 E-.8 F2100
G1 Z.6 F720
G1 X96.911 Y38.088 F10800
G1 Z.2 F720
G1 E.8 F2100
M204 S800
;TYPE:Skirt/Brim
;WIDTH:0.42
G1 F1200
G1 X97.552 Y36.54 E.05253
G1 X100.54 Y33.552 E.13249
G1 X102.088 Y32.911 E.05253
G1 X147.912 Y32.911 E1.43678
G1 X149.46 Y33.552 E.05253
G1 X152.448 Y36.54 E.13249
G1 X153.089 Y38.088 E.05253
G1 X153.089 Y171.912 E4.19596
G1 X152.448 Y173.46 E.05253
G1 X149.46 Y176.448 E.13249
G1 X147.912 Y177.089 E.05253
G1 X117.088 Y177.089 E.96646
G1 X115.54 Y176.448 E.05253
G1 X112.552 Y173.46 E.13249
G1 X111.96 Y172.371 E.03886
G1 X96.96 Y102.371 E2.24463
G1 X96.912 Y38.148 E2.01367
M204 S1000
;WIPE_START
G1 F8640
M73 P0 R63
G1 X96.911 Y38.088 E-.01386
G1 X97.552 Y36.54 E-.38687
G1 X98.775 Y35.317 E-.39927
;WIPE_END
G1 Z.6 F720
G1 X99.481 Y39.151 F10800
G1 Z.2 F720
G1 E.8 F2100
M204 S800
G1 F1200
G1 X100.052 Y37.73 E.04802
G1 X101.034 Y36.564 E.0478
G1 X102.301 Y35.765 E.04697
G1 X103.781 Y35.386 E.0479
G1 X146.189 Y35.39 E1.32967
G1 X147.21 Y35.584 E.03259
G1 X148.188 Y36 E.03332
G1 X149.312 Y36.895 E.04505
G1 X150.151 Y38.116 E.04645
G1 X150.578 Y39.517 E.04592
G1 X150.614 Y56.236 E.52421
G1 X150.195 Y57.787 E.05037
G1 X149.607 Y58.758 E.03559
G1 X149.021 Y59.386 E.02693
G1 X148.336 Y59.917 E.02718
G1 X146.521 Y60.571 E.06049
G1 X138.613 Y60.61 E.24795
G1 X138.613 Y149.387 E2.78354
G1 X146.421 Y149.414 E.24482
G1 X148.219 Y150.011 E.0594
G1 X148.904 Y150.519 E.02674
G1 X149.841 Y151.55 E.04368
G1 X150.299 Y152.47 E.03222
G1 X150.613 Y153.782 E.0423
G1 X150.613 Y170.095 E.51148
G1 X150.519 Y170.849 E.02382
G1 X149.948 Y172.27 E.04802
G1 X148.966 Y173.436 E.0478
G1 X147.699 Y174.235 E.04697
G1 X146.22 Y174.613 E.04786
G1 X118.905 Y174.613 E.85644
G1 X118.151 Y174.519 E.02382
G1 X116.73 Y173.948 E.04802
G1 X115.564 Y172.966 E.0478
G1 X114.765 Y171.699 E.04697
G1 X114.387 Y170.22 E.04786
G1 X114.387 Y104.609 E2.05719
G1 X103.378 Y104.556 E.34518
M73 P1 R63
G1 X102.038 Y104.113 E.04425
G1 X100.888 Y103.304 E.04409
G1 X100 Y102.19 E.04467
G1 X99.652 Y101.418 E.02655
G1 X99.436 Y100.589 E.02686
G1 X99.386 Y39.906 E1.90267
G1 X99.474 Y39.211 E.02197
M204 S1000
G1 X99.474 Y39.211 F10800
G1 X99.848 Y39.259
M204 S800
G1 F1200
G1 X99.852 Y39.223 E.00114
G1 X100.361 Y37.947 E.04307
G1 X101.262 Y36.865 E.04415
G1 X102.426 Y36.122 E.0433
G1 X103.805 Y35.764 E.04467
G1 X146.171 Y35.767 E1.32836
G1 X147.117 Y35.95 E.03021
G1 X148.015 Y36.336 E.03065
G1 X149.053 Y37.171 E.04177
G1 X149.822 Y38.303 E.04291
G1 X150.208 Y39.598 E.04237
G1 X150.236 Y56.211 E.52089
G1 X149.839 Y57.661 E.04714
G1 X149.297 Y58.544 E.03249
G1 X148.776 Y59.1 E.02389
G1 X148.177 Y59.574 E.02395
G1 X146.486 Y60.194 E.05647
G1 X138.236 Y60.235 E.25868
G1 X138.236 Y149.764 E2.80712
G1 X146.333 Y149.781 E.25388
G1 X148.021 Y150.333 E.05568
G1 X148.639 Y150.788 E.02406
G1 X149.516 Y151.743 E.04065
G1 X149.938 Y152.581 E.02942
G1 X150.236 Y153.805 E.0395
G1 X150.236 Y170.083 E.51039
G1 X150.148 Y170.777 E.02193
G1 X149.639 Y172.053 E.04307
G1 X148.738 Y173.135 E.04415
G1 X147.574 Y173.878 E.0433
G1 X146.195 Y174.236 E.04467
G1 X118.917 Y174.236 E.85528
G1 X118.223 Y174.148 E.02193
G1 X116.947 Y173.639 E.04307
G1 X115.865 Y172.738 E.04415
G1 X115.122 Y171.574 E.0433
G1 X114.764 Y170.195 E.04467
G1 X114.764 Y104.234 E2.06816
G1 X103.466 Y104.188 E.35424
G1 X102.23 Y103.787 E.04074
G1 X101.164 Y103.046 E.04071
G1 X100.334 Y102.013 E.04155
G1 X100.003 Y101.278 E.02527
G1 X99.807 Y100.518 E.02461
G1 X99.764 Y39.918 E1.90007
G1 X99.84 Y39.318 E.01896
M204 S1000
G1 X100.214 Y39.367 F10800
M204 S800
G1 F1200
G1 X100.223 Y39.296 E.00224
G1 X100.699 Y38.117 E.03987
G1 X101.531 Y37.131 E.04045
G1 X102.601 Y36.457 E.03965
G1 X103.829 Y36.141 E.03976
G1 X146.152 Y36.144 E1.32701
G1 X147.024 Y36.316 E.02787
G1 X147.84 Y36.671 E.0279
G1 X148.793 Y37.445 E.03849
G1 X149.492 Y38.487 E.03934
G1 X149.839 Y39.677 E.03887
G1 X149.859 Y56.185 E.5176
G1 X149.483 Y57.533 E.04388
G1 X149.009 Y58.3 E.02827
G1 X148.51 Y58.831 E.02285
G1 X147.968 Y59.259 E.02165
G1 X146.389 Y59.828 E.05262
G1 X137.859 Y59.859 E.26745
G1 X137.859 Y150.14 E2.8307
G1 X146.246 Y150.149 E.26297
G1 X147.824 Y150.656 E.05197
G1 X148.376 Y151.059 E.02143
G1 X149.193 Y151.939 E.03765
G1 X149.577 Y152.694 E.02656
G1 X149.859 Y153.829 E.03667
G1 X149.859 Y170.071 E.50926
G1 X149.777 Y170.704 E.02001
G1 X149.301 Y171.883 E.03987
G1 X148.469 Y172.869 E.04045
G1 X147.399 Y173.543 E.03965
G1 X146.172 Y173.859 E.03973
G1 X118.929 Y173.859 E.85419
G1 X118.296 Y173.777 E.02001
G1 X117.117 Y173.301 E.03987
G1 X116.131 Y172.469 E.04045
G1 X115.457 Y171.399 E.03965
G1 X115.141 Y170.172 E.03973
G1 X115.141 Y103.858 E2.07923
G1 X103.552 Y103.82 E.36337
M73 P2 R63
G1 X102.419 Y103.46 E.03727
G1 X101.439 Y102.787 E.03728
G1 X100.667 Y101.834 E.03845
G1 X100.364 Y101.168 E.02294
G1 X100.178 Y100.447 E.02335
G1 X100.141 Y39.93 E1.89747
G1 X100.206 Y39.426 E.01593
M204 S1000
G1 X100.579 Y39.475 F10800
M204 S800
G1 F1200
G1 X100.594 Y39.368 E.00339
G1 X101.008 Y38.335 E.03489
G1 X101.759 Y37.432 E.03683
G1 X102.726 Y36.814 E.03598
G1 X103.853 Y36.518 E.03653
G1 X146.133 Y36.521 E1.32566
G1 X146.929 Y36.681 E.02546
M73 P2 R62
G1 X147.664 Y37.005 E.02519
G1 X148.531 Y37.717 E.03518
G1 X149.161 Y38.67 E.03582
G1 X149.469 Y39.754 E.03533
G1 X149.482 Y56.159 E.51437
G1 X149.128 Y57.404 E.04058
G1 X148.721 Y58.056 E.0241
G1 X148.265 Y58.544 E.02094
G1 X147.759 Y58.943 E.0202
G1 X146.294 Y59.462 E.04873
G1 X137.482 Y59.482 E.27629
G1 X137.482 Y150.518 E2.85437
G1 X146.161 Y150.518 E.27212
G1 X147.628 Y150.98 E.04822
G1 X148.114 Y151.331 E.0188
G1 X148.87 Y152.136 E.03463
G1 X149.217 Y152.808 E.02371
G1 X149.482 Y153.852 E.03377
G1 X149.482 Y170.058 E.50813
G1 X149.406 Y170.632 E.01815
G1 X148.992 Y171.665 E.03489
G1 X148.241 Y172.568 E.03683
G1 X147.274 Y173.186 E.03598
G1 X146.147 Y173.482 E.03653
G1 X118.942 Y173.482 E.85299
G1 X118.368 Y173.406 E.01815
G1 X117.335 Y172.992 E.03489
G1 X116.432 Y172.241 E.03683
G1 X115.814 Y171.274 E.03598
G1 X115.518 Y170.147 E.03653
G1 X115.518 Y103.481 E2.09027
G1 X103.636 Y103.452 E.37255
G1 X102.607 Y103.132 E.03379
G1 X101.713 Y102.526 E.03386
G1 X101 Y101.655 E.03529
G1 X100.714 Y101.028 E.02161
G1 X100.549 Y100.378 E.02103
G1 X100.518 Y39.942 E1.89493
G1 X100.572 Y39.535 E.01287
M204 S1000
G1 X100.572 Y39.535 F10800
G1 X100.945 Y39.585
M204 S800
G1 F1200
G1 X100.964 Y39.443 E.00449
G1 X101.346 Y38.506 E.03173
G1 X102.027 Y37.699 E.03311
G1 X102.902 Y37.149 E.0324
G1 X103.877 Y36.895 E.03159
G1 X146.115 Y36.898 E1.32434
G1 X146.796 Y37.035 E.02178
G1 X147.487 Y37.339 E.02367
G1 X148.267 Y37.988 E.03181
G1 X148.829 Y38.85 E.03226
G1 X149.099 Y39.829 E.03184
G1 X149.105 Y56.132 E.51117
G1 X148.774 Y57.272 E.03722
G1 X148.433 Y57.812 E.02002
G1 X147.551 Y58.627 E.03765
G1 X146.201 Y59.095 E.0448
G1 X137.105 Y59.105 E.2852
G1 X137.105 Y150.895 E2.87801
G1 X146.132 Y150.895 E.28304
G1 X147.434 Y151.304 E.04279
G1 X147.854 Y151.604 E.01618
G1 X148.549 Y152.335 E.03163
G1 X148.858 Y152.925 E.02088
G1 X149.105 Y153.877 E.03084
G1 X149.105 Y170.045 E.50694
G1 X149.036 Y170.557 E.0162
G1 X148.654 Y171.494 E.03173
G1 X147.973 Y172.301 E.03311
G1 X147.098 Y172.851 E.0324
G1 X146.123 Y173.105 E.03159
G1 X118.955 Y173.105 E.85183
G1 X118.443 Y173.036 E.0162
G1 X117.506 Y172.654 E.03173
G1 X116.699 Y171.973 E.03311
G1 X116.149 Y171.098 E.0324
G1 X115.895 Y170.123 E.03159
G1 X115.895 Y103.105 E2.1013
G1 X103.718 Y103.083 E.3818
M73 P3 R62
G1 X102.792 Y102.803 E.03033
G1 X101.985 Y102.264 E.03043
G1 X101.332 Y101.475 E.03211
G1 X101.064 Y100.887 E.02026
G1 X100.921 Y100.309 E.01867
G1 X100.895 Y39.955 E1.89236
G1 X100.937 Y39.645 E.00981
M204 S1000
G1 X100.937 Y39.645 F10800
G1 X101.31 Y39.696
M204 S800
G1 F1200
G1 X101.334 Y39.52 E.00557
G1 X101.682 Y38.679 E.02854
G1 X102.294 Y37.966 E.02946
G1 X103.027 Y37.505 E.02715
G1 X103.902 Y37.272 E.02839
G1 X146.095 Y37.276 E1.32293
G1 X146.699 Y37.4 E.01933
G1 X147.308 Y37.672 E.02091
G1 X148.001 Y38.257 E.02844
G1 X148.495 Y39.028 E.02871
G1 X148.728 Y39.902 E.02836
G1 X148.728 Y56.104 E.508
G1 X148.42 Y57.138 E.03383
G1 X148.145 Y57.568 E.016
G1 X147.345 Y58.31 E.03421
G1 X146.11 Y58.728 E.04088
G1 X136.728 Y58.728 E.29417
G1 X136.728 Y151.272 E2.90165
G1 X146.103 Y151.272 E.29395
G1 X147.241 Y151.63 E.03741
G1 X147.596 Y151.88 E.01361
G1 X148.229 Y152.537 E.02861
G1 X148.5 Y153.044 E.01803
G1 X148.728 Y153.902 E.02784
G1 X148.728 Y170.032 E.50574
G1 X148.666 Y170.48 E.01418
G1 X148.318 Y171.321 E.02854
G1 X147.706 Y172.034 E.02946
G1 X146.973 Y172.495 E.02715
G1 X146.098 Y172.728 E.02839
G1 X118.968 Y172.728 E.85064
G1 X118.52 Y172.666 E.01418
G1 X117.679 Y172.318 E.02854
G1 X116.966 Y171.706 E.02946
G1 X116.505 Y170.973 E.02715
G1 X116.272 Y170.098 E.02839
G1 X116.272 Y102.728 E2.11234
G1 X103.798 Y102.713 E.39111
G1 X102.974 Y102.471 E.02693
G1 X102.255 Y101.999 E.02697
G1 X101.664 Y101.295 E.02882
G1 X101.415 Y100.748 E.01884
G1 X101.292 Y100.243 E.0163
G1 X101.272 Y39.968 E1.88988
G1 X101.301 Y39.756 E.00671
M204 S1000
G1 X101.301 Y39.756 F10800
G1 X101.674 Y39.809
M204 S800
G1 F1200
G1 X101.704 Y39.596 E.00674
G1 X101.99 Y38.899 E.02362
G1 X102.523 Y38.267 E.02592
G1 X103.156 Y37.861 E.02358
G1 X103.928 Y37.649 E.0251
G1 X146.074 Y37.653 E1.32146
G1 X146.599 Y37.764 E.01682
G1 X147.127 Y38.004 E.01819
G1 X147.734 Y38.525 E.02508
G1 X148.139 Y39.156 E.02351
G1 X148.351 Y39.928 E.0251
G1 X148.351 Y56.075 E.50628
G1 X148.068 Y57.001 E.03036
M73 P3 R61
G1 X147.488 Y57.722 E.02901
G1 X147.139 Y57.992 E.01384
G1 X146.079 Y58.351 E.03509
G1 X136.351 Y58.351 E.30501
G1 X136.351 Y151.649 E2.92529
G1 X146.074 Y151.649 E.30486
G1 X147.05 Y151.956 E.03208
G1 X147.912 Y152.741 E.03656
G1 X148.142 Y153.166 E.01515
G1 X148.351 Y153.928 E.02477
G1 X148.351 Y170.018 E.50449
G1 X148.296 Y170.404 E.01223
G1 X148.01 Y171.101 E.02362
G1 X147.477 Y171.733 E.02592
G1 X146.844 Y172.139 E.02358
G1 X146.072 Y172.351 E.0251
G1 X118.982 Y172.351 E.84939
G1 X118.596 Y172.296 E.01223
G1 X117.899 Y172.01 E.02362
G1 X117.267 Y171.477 E.02592
G1 X116.861 Y170.844 E.02358
G1 X116.649 Y170.072 E.0251
G1 X116.649 Y102.351 E2.12334
G1 X103.878 Y102.344 E.40043
M73 P4 R61
G1 X103.107 Y102.118 E.02519
G1 X102.524 Y101.734 E.02189
G1 X101.996 Y101.114 E.02553
G1 X101.664 Y100.178 E.03114
G1 X101.649 Y39.982 E1.8874
G1 X101.665 Y39.868 E.00361
M204 S1000
G1 X101.665 Y39.868 F10800
G1 X102.037 Y39.923
M204 S800
G1 F1200
G1 X102.073 Y39.675 E.00786
G1 X102.325 Y39.073 E.02046
G1 X102.79 Y38.535 E.0223
G1 X103.286 Y38.215 E.01851
G1 X103.955 Y38.026 E.0218
G1 X146.053 Y38.03 E1.31995
G1 X146.497 Y38.127 E.01425
G1 X146.943 Y38.334 E.01542
G1 X147.466 Y38.791 E.02178
G1 X147.785 Y39.286 E.01846
G1 X147.974 Y39.955 E.0218
G1 X147.974 Y56.045 E.50449
G1 X147.718 Y56.86 E.02678
G1 X147.223 Y57.453 E.02422
G1 X146.935 Y57.674 E.01138
G1 X146.048 Y57.974 E.02936
G1 X135.974 Y57.974 E.31586
G1 X135.974 Y152.026 E2.94893
G1 X146.045 Y152.026 E.31577
G1 X146.861 Y152.283 E.02682
G1 X147.086 Y152.437 E.00855
G1 X147.596 Y152.949 E.02266
G1 X147.786 Y153.291 E.01227
G1 X147.974 Y153.955 E.02164
G1 X147.974 Y170.004 E.50321
G1 X147.927 Y170.325 E.01017
G1 X147.675 Y170.927 E.02046
G1 X147.21 Y171.465 E.0223
G1 X146.714 Y171.785 E.01851
G1 X146.045 Y171.974 E.0218
G1 X118.996 Y171.974 E.8481
G1 X118.675 Y171.927 E.01017
G1 X118.073 Y171.675 E.02046
G1 X117.535 Y171.21 E.0223
G1 X117.215 Y170.714 E.01851
G1 X117.026 Y170.045 E.0218
G1 X117.026 Y101.974 E2.13432
G1 X103.955 Y101.974 E.40983
G1 X103.286 Y101.785 E.0218
G1 X102.79 Y101.465 E.01851
G1 X102.328 Y100.933 E.02209
G1 X102.037 Y100.116 E.02719
G1 X102.026 Y39.996 E1.88502
G1 X102.028 Y39.982 E.00044
M204 S1000
G1 X102.028 Y39.982 F10800
G1 X102.442 Y39.982
M204 S800
G1 F1200
G1 X102.442 Y39.757 E.00705
G1 X102.659 Y39.251 E.01726
G1 X103.054 Y38.805 E.01868
G1 X103.42 Y38.569 E.01365
G1 X103.983 Y38.403 E.0184
G1 X146.031 Y38.407 E1.31839
G1 X146.756 Y38.662 E.0241
G1 X147.196 Y39.054 E.01848
G1 X147.431 Y39.42 E.01364
G1 X147.597 Y39.983 E.0184
G1 X147.597 Y56.016 E.5027
G1 X147.388 Y56.675 E.02168
G1 X146.732 Y57.355 E.02963
G1 X146.017 Y57.597 E.02367
G1 X135.597 Y57.597 E.32671
G1 X135.597 Y152.403 E2.97258
G1 X146.016 Y152.403 E.32668
G1 X146.675 Y152.612 E.02168
G1 X147.282 Y153.16 E.02564
G1 X147.597 Y153.983 E.02763
G1 X147.558 Y170.243 E.50982
G1 X147.341 Y170.749 E.01726
G1 X146.946 Y171.195 E.01868
G1 X146.58 Y171.431 E.01365
G1 X146.017 Y171.597 E.0184
G1 X118.757 Y171.558 E.85472
G1 X118.251 Y171.341 E.01726
G1 X117.805 Y170.946 E.01868
G1 X117.569 Y170.58 E.01365
G1 X117.403 Y170.017 E.0184
G1 X117.403 Y101.597 E2.14526
G1 X103.983 Y101.597 E.42077
M73 P5 R61
G1 X103.42 Y101.431 E.0184
G1 X103.054 Y101.195 E.01365
G1 X102.659 Y100.75 E.01866
G1 X102.41 Y100.056 E.02312
G1 X102.442 Y40.042 E1.8817
M204 S1000
G1 X102.442 Y40.042 F10800
G1 X102.78 Y40.042
M204 S800
G1 F1200
G1 X102.78 Y40.027 E.00047
G1 X102.99 Y39.434 E.01972
G1 X103.316 Y39.077 E.01516
G1 X104.012 Y38.78 E.02373
G1 X146.009 Y38.784 E1.31679
G1 X146.568 Y38.991 E.01869
G1 X147.079 Y39.557 E.02391
G1 X147.22 Y40.012 E.01494
G1 X147.22 Y55.987 E.50088
G1 X146.996 Y56.588 E.02011
G1 X146.533 Y57.034 E.02016
G1 X145.986 Y57.22 E.01812
G1 X135.22 Y57.22 E.33756
G1 X135.22 Y152.78 E2.99622
G1 X145.987 Y152.78 E.33759
M73 P5 R60
G1 X146.493 Y152.943 E.01667
G1 X146.972 Y153.375 E.02022
G1 X147.22 Y154.012 E.02143
G1 X147.22 Y169.973 E.50045
G1 X147.01 Y170.566 E.01972
G1 X146.443 Y171.079 E.02397
G1 X145.988 Y171.22 E.01494
G1 X119.027 Y171.22 E.84534
G1 X118.434 Y171.01 E.01972
G1 X117.921 Y170.443 E.02397
G1 X117.78 Y169.988 E.01494
G1 X117.78 Y101.22 E2.15617
G1 X104.012 Y101.22 E.43169
G1 X103.316 Y100.923 E.02373
G1 X102.989 Y100.566 E.01518
G1 X102.783 Y100.002 E.01883
G1 X102.78 Y40.102 E1.87812
M204 S1000
G1 X102.78 Y40.102 F10800
G1 X103.177 Y40.102
M204 S800
G1 F1200
G1 X103.177 Y39.933 E.0053
G1 X103.319 Y39.621 E.01075
G1 X103.573 Y39.353 E.01158
G1 X104.044 Y39.157 E.016
G1 X145.987 Y39.161 E1.31509
G1 X146.378 Y39.318 E.01321
G1 X146.647 Y39.573 E.01162
G1 X146.843 Y40.044 E.016
G1 X146.843 Y55.956 E.49891
G1 X146.705 Y56.348 E.01303
G1 X146.337 Y56.711 E.01621
G1 X145.954 Y56.843 E.0127
G1 X134.843 Y56.843 E.34838
G1 X134.843 Y153.157 E3.01986
G1 X145.956 Y153.157 E.34844
G1 X146.347 Y153.294 E.01299
G1 X146.666 Y153.597 E.01379
G1 X146.843 Y154.044 E.01507
G1 X146.823 Y170.067 E.50239
G1 X146.681 Y170.379 E.01075
G1 X146.427 Y170.647 E.01158
G1 X145.956 Y170.843 E.016
G1 X118.933 Y170.823 E.84729
G1 X118.621 Y170.681 E.01075
