; generated by PrusaSlicer 2.8.1+win64 on 2024-10-28 at 23:51:20 UTC


;
;
; 

; external perimeters extrusion width = 0.45mm
; perimeters extrusion width = 0.45mm
; infill extrusion width = 0.45mm
; solid infill extrusion width = 0.45mm
; top infill extrusion width = 0.45mm
; first layer extrusion width = 0.42mm

M73 P0 R40
M201 X9000 Y9000 Z500 E10000 ; sets maximum accelerations, mm/sec^2
M203 X500 Y500 Z12 E120 ; sets maximum feedrates, mm / sec
M204 S2000 T1500 ; sets acceleration (S) and retract acceleration (R), mm/sec^2
M205 X10.00 Y10.00 Z0.20 E4.50 ; sets the jerk limits, mm/sec
M205 S0 T0 ; sets the minimum extruding and travel feed rate, mm/sec

; printing object Pen holder -support 2.stl id:0 copy 0
; stop printing object Pen holder -support 2.stl id:0 copy 0

;TYPE:Custom
M862.3 P "MK2.5S" ; printer model check
M862.1 P0.4 ; nozzle diameter check
M115 U3.14.0 ; tell printer latest fw version
G90 ; use absolute coordinates
M83 ; extruder relative mode
M104 S215 ; set extruder temp
M140 S60 ; set bed temp
M190 S60 ; wait for bed temp
M109 S215 ; wait for extruder temp
G28 W ; home all without mesh bed level
G80 X110.223 Y32.7229 W29.5542 H144.554 ; mesh bed levelling

G1 Z0.2 F720
G1 Y-3 F1000 ; go outside print area
G92 E0
G1 X60 E9 F1000 ; intro line
G1 X100 E12.5 F1000 ; intro line

G92 E0
G21 ; set units to millimeters
G90 ; use absolute coordinates
M83 ; use relative distances for extrusion

M900 K0.05 ; Filament gcode LA 1.5
M900 K30 ; Filament gcode LA 1.0




M107
;LAYER_CHANGE
;Z:0.2
;HEIGHT:0.2
G1 E-.8 F2100
G1 Z.6 F720
G1 X110.411 Y38.088 F10800
G1 Z.2 F720
G1 E.8 F2100
M204 S800
;TYPE:Skirt/Brim
;WIDTH:0.42
G1 F1200
G1 X111.052 Y36.54 E.05253
G1 X114.04 Y33.552 E.13249
G1 X115.588 Y32.911 E.05253
G1 X134.412 Y32.911 E.59021
G1 X135.96 Y33.552 E.05253
G1 X138.948 Y36.54 E.13249
G1 X139.589 Y38.088 E.05253
G1 X139.589 Y171.912 E4.19596
G1 X138.948 Y173.46 E.05253
M73 P0 R39
G1 X135.96 Y176.448 E.13249
G1 X134.412 Y177.089 E.05253
G1 X115.588 Y177.089 E.59021
G1 X114.04 Y176.448 E.05253
G1 X111.052 Y173.46 E.13249
G1 X110.411 Y171.912 E.05253
G1 X110.411 Y38.148 E4.19408
M204 S1000
;WIPE_START
G1 F8640
G1 X110.411 Y38.088 E-.01385
G1 X111.052 Y36.54 E-.38687
G1 X112.275 Y35.317 E-.39928
;WIPE_END
G1 Z.6 F720
G1 X113.127 Y38.843 F10800
G1 Z.2 F720
G1 E.8 F2100
M204 S800
G1 F1200
G1 X113.267 Y38.295 E.01773
G1 X114.125 Y36.959 E.04978
G1 X115.3 Y36.001 E.04753
G1 X116.891 Y35.444 E.05285
G1 X132.892 Y35.411 E.5017
M73 P1 R39
G1 X133.837 Y35.625 E.03038
G1 X134.693 Y36.003 E.02934
G1 X135.813 Y36.896 E.04491
G1 X136.705 Y38.234 E.05042
G1 X137.113 Y39.779 E.0501
G1 X137.113 Y170.22 E4.08989
G1 X136.733 Y171.705 E.04806
G1 X135.875 Y173.041 E.04978
G1 X134.7 Y173.999 E.04753
G1 X133.11 Y174.556 E.05282
G1 X117.282 Y174.614 E.49628
G1 X115.795 Y174.233 E.04813
G1 X114.459 Y173.375 E.04978
G1 X113.498 Y172.196 E.04769
G1 X112.887 Y170.246 E.06407
G1 X112.887 Y39.78 E4.09067
G1 X113.112 Y38.902 E.02842
M204 S1000
G1 X113.112 Y38.902 F10800
G1 X113.474 Y38.996
M204 S800
G1 F1200
G1 X113.624 Y38.42 E.01866
G1 X114.399 Y37.22 E.04479
G1 X115.495 Y36.324 E.04439
G1 X116.984 Y35.811 E.04938
G1 X132.831 Y35.784 E.49687
G1 X133.702 Y35.977 E.02797
G1 X134.518 Y36.337 E.02796
G1 X135.554 Y37.171 E.0417
G1 X136.349 Y38.362 E.0449
G1 X136.736 Y39.804 E.04681
G1 X136.736 Y170.195 E4.08832
G1 X136.376 Y171.58 E.04487
G1 X135.601 Y172.78 E.04479
G1 X134.505 Y173.676 E.04439
G1 X133.016 Y174.189 E.04938
G1 X117.306 Y174.236 E.49258
G1 X115.92 Y173.876 E.0449
M73 P2 R39
G1 X114.72 Y173.101 E.04479
G1 X113.823 Y172.002 E.04448
G1 X113.264 Y170.218 E.05862
G1 X113.264 Y39.805 E4.08901
G1 X113.459 Y39.054 E.02433
M204 S1000
G1 X113.817 Y39.146 F10800
M204 S800
G1 F1200
G1 X113.958 Y38.597 E.01777
G1 X114.673 Y37.48 E.04158
G1 X115.689 Y36.649 E.04115
G1 X117.076 Y36.178 E.04593
G1 X132.771 Y36.157 E.49211
G1 X133.568 Y36.33 E.02557
G1 X134.342 Y36.672 E.02653
G1 X135.293 Y37.445 E.03843
G1 X136.017 Y38.543 E.04124
G1 X136.359 Y39.828 E.04169
G1 X136.359 Y170.172 E4.08684
G1 X136.042 Y171.403 E.03986
G1 X135.327 Y172.52 E.04158
G1 X134.311 Y173.351 E.04115
G1 X132.925 Y173.822 E.0459
G1 X117.329 Y173.859 E.489
G1 X116.097 Y173.542 E.03989
G1 X114.98 Y172.827 E.04158
G1 X114.148 Y171.81 E.0412
G1 X113.641 Y170.189 E.05325
G1 X113.641 Y39.828 E4.08738
G1 X113.802 Y39.204 E.02021
M73 P2 R38
M204 S1000
G1 X113.802 Y39.204 F10800
G1 X114.163 Y39.299
M204 S800
G1 F1200
G1 X114.315 Y38.723 E.01868
G1 X114.946 Y37.74 E.03662
G1 X115.882 Y36.974 E.03792
G1 X117.166 Y36.545 E.04245
G1 X132.71 Y36.529 E.48737
G1 X133.468 Y36.694 E.02432
M73 P3 R38
G1 X134.165 Y37.005 E.02393
G1 X135.03 Y37.717 E.03513
G1 X135.685 Y38.723 E.03764
G1 X135.982 Y39.852 E.0366
G1 X135.982 Y170.147 E4.08531
G1 X135.685 Y171.277 E.03663
G1 X135.054 Y172.26 E.03662
G1 X134.118 Y173.026 E.03792
G1 X132.834 Y173.455 E.04245
G1 X117.353 Y173.482 E.4854
G1 X116.223 Y173.185 E.03663
G1 X115.24 Y172.554 E.03662
G1 X114.474 Y171.618 E.03792
G1 X114.018 Y170.16 E.0479
G1 X114.018 Y39.853 E4.08568
G1 X114.148 Y39.358 E.01605
M204 S1000
G1 X114.148 Y39.358 F10800
G1 X114.506 Y39.451
M204 S800
G1 F1200
G1 X114.649 Y38.899 E.01788
G1 X115.221 Y38 E.03341
G1 X116.074 Y37.3 E.0346
G1 X117.254 Y36.913 E.03894
G1 X132.652 Y36.902 E.48279
G1 X133.333 Y37.047 E.02183
G1 X133.987 Y37.339 E.02246
G1 X134.767 Y37.988 E.03181
G1 X135.329 Y38.85 E.03226
G1 X135.605 Y39.878 E.03337
G1 X135.605 Y170.123 E4.08374
G1 X135.351 Y171.101 E.03168
G1 X134.779 Y172 E.03341
G1 X133.926 Y172.7 E.0346
G1 X132.746 Y173.087 E.03894
G1 X117.377 Y173.105 E.48188
G1 X116.399 Y172.851 E.03168
G1 X115.5 Y172.279 E.03341
G1 X114.8 Y171.427 E.03457
G1 X114.395 Y170.132 E.04254
G1 X114.395 Y39.877 E4.08405
G1 X114.491 Y39.509 E.01192
M73 P4 R38
M204 S1000
G1 X114.491 Y39.509 F10800
G1 X114.851 Y39.605
M204 S800
G1 F1200
G1 X115.006 Y39.025 E.01882
G1 X115.495 Y38.26 E.02847
G1 X116.264 Y37.626 E.03125
G1 X117.341 Y37.281 E.03546
G1 X132.595 Y37.276 E.47828
G1 X133.199 Y37.4 E.01933
G1 X133.808 Y37.672 E.02091
G1 X134.501 Y38.257 E.02844
G1 X134.995 Y39.028 E.02871
G1 X135.228 Y39.902 E.02836
G1 X135.228 Y170.098 E4.0822
G1 X134.994 Y170.975 E.02846
G1 X134.505 Y171.74 E.02847
G1 X133.736 Y172.374 E.03125
G1 X132.659 Y172.719 E.03546
G1 X117.402 Y172.728 E.47837
G1 X116.525 Y172.494 E.02846
G1 X115.76 Y172.005 E.02847
G1 X115.127 Y171.237 E.03121
G1 X114.772 Y170.103 E.03726
G1 X114.772 Y39.902 E4.08236
G1 X114.836 Y39.663 E.00776
M204 S1000
G1 X114.836 Y39.663 F10800
G1 X115.195 Y39.761
M204 S800
G1 F1200
G1 X115.361 Y39.154 E.01973
G1 X115.768 Y38.521 E.0236
G1 X116.452 Y37.954 E.02786
G1 X117.426 Y37.649 E.032
G1 X132.575 Y37.653 E.47499
G1 X133.099 Y37.764 E.01679
G1 X133.627 Y38.004 E.01819
G1 X134.234 Y38.525 E.02508
G1 X134.639 Y39.156 E.02351
G1 X134.851 Y39.928 E.0251
G1 X134.851 Y170.072 E4.08057
G1 X134.639 Y170.846 E.02516
M73 P5 R38
G1 X134.232 Y171.479 E.0236
G1 X133.548 Y172.046 E.02786
G1 X132.574 Y172.351 E.032
G1 X117.428 Y172.351 E.47489
G1 X116.654 Y172.139 E.02516
G1 X116.021 Y171.732 E.0236
G1 X115.454 Y171.048 E.02786
G1 X115.149 Y170.074 E.032
G1 X115.149 Y39.928 E4.08064
G1 X115.179 Y39.819 E.00354
M73 P5 R37
M204 S1000
G1 X115.179 Y39.819 F10800
G1 X115.536 Y39.92
M204 S800
G1 F1200
G1 X115.716 Y39.285 E.02069
G1 X116.041 Y38.782 E.01878
G1 X116.64 Y38.282 E.02446
G1 X117.455 Y38.026 E.02678
G1 X132.553 Y38.03 E.47339
G1 X132.997 Y38.127 E.01425
G1 X133.443 Y38.334 E.01542
G1 X133.966 Y38.791 E.02178
G1 X134.285 Y39.286 E.01846
G1 X134.474 Y39.955 E.0218
G1 X134.474 Y170.045 E4.07888
G1 X134.284 Y170.715 E.02184
G1 X133.959 Y171.218 E.01878
G1 X133.36 Y171.718 E.02446
G1 X132.545 Y171.974 E.02678
G1 X117.455 Y171.974 E.47314
G1 X116.785 Y171.784 E.02184
G1 X116.282 Y171.459 E.01878
G1 X115.782 Y170.86 E.02446
G1 X115.526 Y170.045 E.02678
G1 X115.526 Y39.979 E4.07813
M204 S1000
G1 X115.903 Y39.983 F10800
M73 P6 R37
M204 S800
G1 F1200
G1 X116.069 Y39.419 E.01843
G1 X116.314 Y39.043 E.01407
G1 X116.825 Y38.612 E.02096
G1 X117.484 Y38.403 E.02168
G1 X132.531 Y38.407 E.47179
G1 X133.256 Y38.662 E.0241
G1 X133.696 Y39.054 E.01848
G1 X133.931 Y39.42 E.01364
G1 X134.097 Y39.983 E.0184
G1 X134.097 Y170.017 E4.07712
G1 X133.931 Y170.581 E.01843
G1 X133.686 Y170.957 E.01407
G1 X133.175 Y171.388 E.02096
G1 X132.516 Y171.597 E.02168
G1 X117.483 Y171.597 E.47135
G1 X116.919 Y171.431 E.01843
G1 X116.543 Y171.186 E.01407
G1 X116.112 Y170.675 E.02096
G1 X115.903 Y170.016 E.02168
G1 X115.903 Y40.043 E4.07521
M204 S1000
G1 X115.903 Y40.043 F10800
G1 X116.28 Y40.043
M204 S800
G1 F1200
G1 X116.28 Y40.012 E.00097
G1 X116.421 Y39.557 E.01494
G1 X116.587 Y39.304 E.00949
G1 X117.007 Y38.943 E.01736
G1 X117.513 Y38.78 E.01667
G1 X132.509 Y38.784 E.47019
G1 X133.068 Y38.991 E.01869
G1 X133.423 Y39.315 E.01507
G1 X133.72 Y40.012 E.02376
G1 X133.72 Y169.988 E4.07531
G1 X133.579 Y170.443 E.01494
M73 P7 R37
G1 X133.413 Y170.696 E.00949
G1 X132.993 Y171.057 E.01736
G1 X132.487 Y171.22 E.01667
G1 X117.512 Y171.22 E.46953
G1 X117.057 Y171.079 E.01494
G1 X116.804 Y170.913 E.00949
G1 X116.443 Y170.493 E.01736
G1 X116.28 Y169.987 E.01667
G1 X116.28 Y40.103 E4.07242
M204 S1000
G1 X116.28 Y40.103 F10800
G1 X116.657 Y40.103
M204 S800
G1 F1200
G1 X116.657 Y40.044 E.00185
G1 X116.86 Y39.566 E.01628
G1 X117.183 Y39.276 E.01361
G1 X117.544 Y39.157 E.01192
G1 X132.487 Y39.161 E.46853
G1 X132.878 Y39.318 E.01321
G1 X133.147 Y39.573 E.01162
G1 X133.343 Y40.044 E.016
G1 X133.343 Y169.956 E4.0733
G1 X133.14 Y170.434 E.01628
G1 X132.817 Y170.724 E.01361
G1 X132.456 Y170.843 E.01192
G1 X117.544 Y170.843 E.46756
G1 X117.066 Y170.64 E.01628
G1 X116.776 Y170.317 E.01361
G1 X116.657 Y169.956 E.01192
G1 X116.657 Y40.163 E4.06957
M204 S1000
G1 X116.657 Y40.163 F10800
M73 P8 R36
G1 X117.034 Y40.163
M204 S800
G1 F1200
G1 X117.034 Y40.079 E.00263
G1 X117.132 Y39.828 E.00845
G1 X117.366 Y39.611 E.01001
G1 X117.579 Y39.534 E.0071
G1 X132.435 Y39.534 E.4658
G1 X132.866 Y39.825 E.01631
G1 X132.966 Y40.079 E.00856
G1 X132.966 Y169.921 E4.0711
G1 X132.868 Y170.172 E.00845
G1 X132.634 Y170.389 E.01001
G1 X132.421 Y170.466 E.0071
G1 X117.579 Y170.466 E.46536
G1 X117.328 Y170.368 E.00845
G1 X117.111 Y170.134 E.01001
G1 X117.034 Y169.921 E.0071
G1 X117.034 Y40.223 E4.06659
M204 S1000
G1 X117.034 Y40.223 F10800
G1 X117.411 Y40.223
M204 S800
G1 F1200
G1 X117.411 Y40.121 E.0032
G1 X117.621 Y39.911 E.00931
G1 X132.448 Y39.94 E.46489
G1 X132.589 Y40.121 E.00719
G1 X132.589 Y169.879 E4.06847
G1 X132.379 Y170.089 E.00931
G1 X117.621 Y170.089 E.46273
G1 X117.411 Y169.879 E.00931
G1 X117.411 Y40.283 E4.06339
M204 S1000
;WIPE_START
G1 F8640
M73 P9 R36
G1 X117.411 Y40.223 E-.01385
G1 X117.411 Y40.121 E-.02355
G1 X117.621 Y39.911 E-.06857
G1 X120.627 Y39.917 E-.69403
;WIPE_END
G1 Z.6 F720
; printing object Pen holder -support 2.stl id:0 copy 0
G1 X122.753 Y161.397 F10800
G1 Z.2 F720
G1 E.8 F2100
M204 S800
;TYPE:Perimeter
;WIDTH:0.419999
G1 F1200
G1 X122.942 Y160.897 E.01676
G1 X123.297 Y160.402 E.0191
G1 X123.769 Y160.015 E.01914
G1 X124.398 Y159.74 E.02152
G1 X124.968 Y159.666 E.01802
G1 X125.522 Y159.725 E.01747
G1 X126.103 Y159.942 E.01945
G1 X126.598 Y160.297 E.0191
G1 X126.985 Y160.769 E.01914
G1 X127.236 Y161.325 E.01913
G1 X127.334 Y161.926 E.01909
G1 X127.274 Y162.533 E.01912
G1 X127.072 Y163.071 E.01802
G1 X126.709 Y163.59 E.01986
G1 X126.231 Y163.985 E.01944
G1 X125.675 Y164.236 E.01913
G1 X125.074 Y164.334 E.01909
G1 X124.467 Y164.274 E.01912
G1 X123.897 Y164.058 E.01911
G1 X123.402 Y163.703 E.0191
G1 X123.015 Y163.231 E.01914
G1 X122.764 Y162.675 E.01913
G1 X122.666 Y162.074 E.01909
G1 X122.726 Y161.467 E.01912
G1 X122.731 Y161.454 E.00044
M204 S1000
G1 X122.731 Y161.454 F10800
G1 X123.109 Y161.494
M204 S800
;TYPE:External perimeter
G1 F1200
G1 X123.113 Y161.469 E.00079
G1 X123.315 Y160.999 E.01604
G1 X123.631 Y160.596 E.01606
G1 X124.041 Y160.29 E.01604
G1 X124.493 Y160.105 E.01531
G1 X124.987 Y160.044 E.01561
G1 X125.505 Y160.104 E.01635
G1 X126.001 Y160.315 E.0169
G1 X126.404 Y160.631 E.01606
G1 X126.71 Y161.041 E.01604
G1 X126.9 Y161.516 E.01604
G1 X126.96 Y162.025 E.01607
G1 X126.887 Y162.531 E.01603
G1 X126.701 Y162.967 E.01486
G1 X126.374 Y163.399 E.01699
G1 X125.959 Y163.71 E.01626
G1 X125.492 Y163.899 E.0158
G1 X124.975 Y163.96 E.01632
G1 X124.469 Y163.887 E.01603
G1 X123.999 Y163.685 E.01604
G1 X123.596 Y163.369 E.01606
G1 X123.29 Y162.959 E.01604
G1 X123.101 Y162.492 E.0158
G1 X123.04 Y161.975 E.01632
G1 X123.101 Y161.553 E.01337
M204 S1000
;WIPE_START
G1 F8640
G1 X123.109 Y161.494 E-.01375
G1 X123.113 Y161.469 E-.00585
G1 X123.315 Y160.999 E-.11812
G1 X123.631 Y160.596 E-.11825
G1 X124.041 Y160.29 E-.11813
G1 X124.493 Y160.105 E-.11277
G1 X124.987 Y160.044 E-.11493
G1 X125.505 Y160.104 E-.12041
G1 X125.815 Y160.236 E-.07779
;WIPE_END
G1 Z.6 F720
G1 X123.355 Y46.354 F10800
G1 Z.2 F720
G1 E.8 F2100
M204 S800
;TYPE:Perimeter
G1 F1200
G1 X123.769 Y46.015 E.01678
G1 X124.325 Y45.764 E.01913
G1 X124.892 Y45.67 E.01802
G1 X125.522 Y45.725 E.01983
G1 X126.103 Y45.942 E.01945
G1 X126.598 Y46.297 E.0191
G1 X126.985 Y46.769 E.01914
G1 X127.236 Y47.325 E.01913
G1 X127.334 Y47.926 E.01909
G1 X127.274 Y48.533 E.01912
G1 X127.072 Y49.071 E.01802
G1 X126.709 Y49.59 E.01986
G1 X126.231 Y49.985 E.01944
G1 X125.675 Y50.236 E.01913
G1 X125.074 Y50.334 E.01909
G1 X124.467 Y50.274 E.01912
G1 X123.897 Y50.058 E.01911
G1 X123.402 Y49.703 E.0191
G1 X123.015 Y49.231 E.01914
G1 X122.764 Y48.675 E.01913
G1 X122.666 Y48.074 E.01909
G1 X122.726 Y47.467 E.01912
G1 X122.942 Y46.897 E.01911
G1 X123.297 Y46.402 E.0191
G1 X123.309 Y46.392 E.00049
M204 S1000
G1 X123.309 Y46.392 F10800
G1 X123.616 Y46.616
M204 S800
;TYPE:External perimeter
G1 F1200
G1 X123.999 Y46.315 E.01527
G1 X124.469 Y46.113 E.01604
G1 X124.966 Y46.043 E.01574
G1 X125.48 Y46.1 E.01621
G1 X125.959 Y46.29 E.01616
G1 X126.369 Y46.596 E.01604
G1 X126.685 Y46.999 E.01606
G1 X126.887 Y47.469 E.01604
G1 X126.96 Y47.975 E.01603
G1 X126.9 Y48.484 E.01607
G1 X126.701 Y48.967 E.01638
G1 X126.369 Y49.403 E.01718
G1 X125.959 Y49.71 E.01606
G1 X125.484 Y49.9 E.01604
G1 X124.975 Y49.96 E.01607
G1 X124.469 Y49.887 E.01603
G1 X123.999 Y49.685 E.01604
G1 X123.596 Y49.369 E.01606
G1 X123.29 Y48.959 E.01604
G1 X123.101 Y48.492 E.0158
G1 X123.04 Y48.025 E.01477
G1 X123.1 Y47.516 E.01607
G1 X123.29 Y47.041 E.01604
G1 X123.576 Y46.659 E.01496
M204 S1000
;WIPE_START
G1 F8640
G1 X123.616 Y46.616 E-.01356
G1 X123.999 Y46.315 E-.11248
G1 X124.469 Y46.113 E-.11812
G1 X124.966 Y46.043 E-.11589
G1 X125.48 Y46.1 E-.11941
G1 X125.959 Y46.29 E-.11899
G1 X126.369 Y46.596 E-.11813
G1 X126.592 Y46.88 E-.08342
;WIPE_END
G1 Z.6 F720
G1 X131.713 Y169.213 F10800
G1 Z.2 F720
G1 E.8 F2100
M204 S800
;TYPE:Perimeter
G1 F1200
G1 X118.287 Y169.213 E.42096
G1 X118.287 Y40.787 E4.0267
G1 X131.713 Y40.787 E.42096
G1 X131.713 Y43.904 E.09773
G1 X131.713 Y169.153 E3.92709
M204 S1000
G1 X132.09 Y169.59 F10800
M73 P10 R36
M204 S800
;TYPE:External perimeter
G1 F1200
G1 X117.91 Y169.59 E.4446
G1 X117.91 Y40.41 E4.05034
G1 X132.09 Y40.41 E.4446
M73 P10 R35
G1 X132.09 Y43.904 E.10955
G1 X132.09 Y169.53 E3.93891
M204 S1000
;WIPE_START
G1 F8640
G1 X132.09 Y169.59 E-.01385
G1 X128.685 Y169.59 E-.78615
;WIPE_END
G1 Z.6 F720
G1 X131.543 Y41.722 F10800
G1 Z.2 F720
G1 E.8 F2100
M204 S800
;TYPE:Solid infill
;WIDTH:0.421244
G1 F1200
G1 X130.948 Y41.126 E.02649
G1 X130.413 Y41.126 E.01683
G1 X131.374 Y42.087 E.04275
G1 X131.374 Y42.622 E.01683
G1 X129.878 Y41.126 E.06655
G1 X129.343 Y41.126 E.01683
G1 X131.374 Y43.157 E.09036
G1 X131.374 Y43.692 E.01683
G1 X128.808 Y41.126 E.11416
G1 X128.273 Y41.126 E.01683
G1 X131.374 Y44.227 E.13796
G1 X131.374 Y44.762 E.01683
G1 X127.738 Y41.126 E.16176
G1 X127.203 Y41.126 E.01683
G1 X131.374 Y45.297 E.18556
G1 X131.374 Y45.832 E.01683
G1 X126.668 Y41.126 E.20936
G1 X126.133 Y41.126 E.01683
G1 X131.374 Y46.367 E.23316
G1 X131.374 Y46.902 E.01683
G1 X125.598 Y41.126 E.25696
G1 X125.063 Y41.126 E.01683
G1 X131.374 Y47.437 E.28076
G1 X131.374 Y47.972 E.01683
G1 X124.528 Y41.126 E.30456
