; generated by PrusaSlicer 2.8.1+win64 on 2024-10-31 at 23:48:02 UTC


;
;
; 

; external perimeters extrusion width = 0.45mm
; perimeters extrusion width = 0.45mm
; infill extrusion width = 0.45mm
; solid infill extrusion width = 0.45mm
; top infill extrusion width = 0.45mm
; first layer extrusion width = 0.42mm

M73 P0 R175
M201 X9000 Y9000 Z500 E10000 ; sets maximum accelerations, mm/sec^2
M203 X500 Y500 Z12 E120 ; sets maximum feedrates, mm / sec
M204 S2000 T1500 ; sets acceleration (S) and retract acceleration (R), mm/sec^2
M205 X10.00 Y10.00 Z0.20 E4.50 ; sets the jerk limits, mm/sec
M205 S0 T0 ; sets the minimum extruding and travel feed rate, mm/sec

; printing object Pen holder - upper part.stl id:0 copy 0
; stop printing object Pen holder - upper part.stl id:0 copy 0

;TYPE:Custom
M862.3 P "MK2.5S" ; printer model check
M862.1 P0.4 ; nozzle diameter check
M115 U3.14.0 ; tell printer latest fw version
G90 ; use absolute coordinates
M83 ; extruder relative mode
M104 S215 ; set extruder temp
M140 S60 ; set bed temp
M190 S60 ; wait for bed temp
M109 S215 ; wait for extruder temp
G28 W ; home all without mesh bed level
G80 X-0.009667 Y5.06532 W250.019 H204.456 ; mesh bed levelling

G1 Z0.2 F720
G1 Y-3 F1000 ; go outside print area
G92 E0
G1 X60 E9 F1000 ; intro line
G1 X100 E12.5 F1000 ; intro line

G92 E0
G21 ; set units to millimeters
G90 ; use absolute coordinates
M83 ; use relative distances for extrusion

M900 K0.05 ; Filament gcode LA 1.5
M900 K30 ; Filament gcode LA 1.0




M107
;LAYER_CHANGE
;Z:0.2
;HEIGHT:0.2
G1 E-.8 F2100
G1 Z.6 F720
G1 X90.526 Y115.195 F10800
G1 Z.2 F720
G1 E.8 F2100
M204 S800
;TYPE:Skirt/Brim
;WIDTH:0.42
G1 F1200
G1 X229.853 Y5.705 E5.556
G1 X231.466 Y5.253 E.05252
G1 X235.66 Y5.756 E.13244
G1 X237.121 Y6.576 E.05253
G1 X249.37 Y22.164 E.62159
G1 X249.822 Y23.777 E.05252
G1 X249.319 Y27.972 E.13247
G1 X248.499 Y29.432 E.0525
G1 X20.147 Y208.882 E9.10609
G1 X18.534 Y209.334 E.05252
G1 X14.34 Y208.831 E.13244
G1 X12.879 Y208.01 E.05255
G1 X.63 Y192.423 E.62157
G1 X.178 Y190.81 E.05252
G1 X.681 Y186.615 E.13247
G1 X1.501 Y185.155 E.0525
G1 X90.479 Y115.232 E3.54821
M204 S1000
;WIPE_START
G1 F8640
G1 X90.526 Y115.195 E-.01381
G1 X93.203 Y113.091 E-.78619
;WIPE_END
G1 Z.6 F720
G1 X92.008 Y117.178 F10800
G1 Z.2 F720
G1 E.8 F2100
M204 S800
G1 F1200
G1 X230.065 Y8.686 E5.50536
G1 X231.597 Y8.043 E.05209
G1 X232.735 Y7.92 E.03589
G1 X233.746 Y8.035 E.0319
G1 X234.779 Y8.387 E.03422
G1 X236.215 Y9.43 E.05565
G1 X246.369 Y22.36 E.51548
G1 X246.993 Y23.757 E.04797
G1 X247.156 Y25.29 E.04834
G1 X247.025 Y26.121 E.02638
G1 X246.814 Y26.831 E.02322
G1 X245.659 Y28.515 E.06403
G1 X19.991 Y205.857 E8.99908
G1 X18.558 Y206.504 E.0493
M73 P0 R174
G1 X17.021 Y206.668 E.04847
G1 X16.19 Y206.536 E.02638
G1 X15.481 Y206.326 E.02318
G1 X13.794 Y205.169 E.06414
G1 X3.448 Y191.922 E.52702
G1 X2.991 Y190.762 E.03909
G1 X2.843 Y189.297 E.04617
G1 X2.975 Y188.466 E.02638
G1 X3.186 Y187.756 E.02322
G1 X4.341 Y186.071 E.06405
G1 X91.961 Y117.215 E3.49406
M204 S1000
G1 X91.961 Y117.215 F10800
G1 X92.194 Y117.511
M204 S800
G1 F1200
G1 X230.278 Y8.998 E5.50643
G1 X231.716 Y8.402 E.04881
G1 X232.715 Y8.297 E.0315
G1 X233.645 Y8.398 E.02933
G1 X234.631 Y8.734 E.03266
G1 X235.935 Y9.683 E.05057
G1 X246.058 Y22.574 E.51392
G1 X246.636 Y23.882 E.04484
G1 X246.78 Y25.255 E.04329
G1 X246.462 Y26.694 E.04621
G1 X245.404 Y28.237 E.05866
G1 X19.776 Y205.546 E8.99745
G1 X18.486 Y206.132 E.04442
G1 X17.055 Y206.292 E.04515
G1 X15.617 Y205.973 E.04618
G1 X14.073 Y204.914 E.0587
G1 X3.788 Y191.757 E.52361
G1 X3.363 Y190.696 E.03584
G1 X3.22 Y189.331 E.04303
G1 X3.538 Y187.892 E.04621
G1 X4.596 Y186.35 E.05863
G1 X92.147 Y117.549 E3.49129
M204 S1000
G1 X92.147 Y117.549 F10800
G1 X92.38 Y117.845
M204 S800
G1 F1200
G1 X230.49 Y9.311 E5.50748
G1 X231.833 Y8.761 E.0455
M73 P1 R174
G1 X232.695 Y8.674 E.02716
G1 X233.544 Y8.762 E.02676
G1 X234.482 Y9.082 E.03107
G1 X235.654 Y9.936 E.04547
G1 X245.747 Y22.788 E.51237
G1 X246.265 Y23.952 E.03995
G1 X246.404 Y25.222 E.04006
G1 X246.109 Y26.558 E.0429
G1 X245.148 Y27.958 E.05324
G1 X19.561 Y205.235 E8.99582
G1 X18.358 Y205.776 E.04136
M73 P1 R173
G1 X17.09 Y205.915 E.04
G1 X15.754 Y205.621 E.04289
G1 X14.353 Y204.659 E.05329
G1 X4.127 Y191.59 E.5203
G1 X3.735 Y190.628 E.03257
G1 X3.596 Y189.365 E.03984
G1 X3.891 Y188.029 E.0429
G1 X4.852 Y186.629 E.05324
G1 X92.332 Y117.882 E3.4885
M204 S1000
G1 X92.332 Y117.882 F10800
G1 X92.565 Y118.179
M204 S800
G1 F1200
G1 X230.702 Y9.624 E5.50855
G1 X231.9 Y9.133 E.04059
G1 X232.676 Y9.051 E.02447
G1 X233.484 Y9.135 E.02547
G1 X234.285 Y9.405 E.0265
G1 X235.374 Y10.191 E.04211
G1 X245.413 Y22.965 E.50941
G1 X245.894 Y24.026 E.03653
G1 X246.027 Y25.188 E.03667
G1 X245.757 Y26.42 E.03955
G1 X244.893 Y27.679 E.04788
G1 X19.346 Y204.925 E8.99424
G1 X18.286 Y205.405 E.03648
G1 X17.123 Y205.539 E.03671
G1 X15.891 Y205.269 E.03955
G1 X14.632 Y204.404 E.04789
G1 X4.465 Y191.421 E.51704
G1 X4.106 Y190.557 E.02934
G1 X3.973 Y189.398 E.03658
G1 X4.243 Y188.167 E.03951
G1 X5.107 Y186.908 E.04788
G1 X92.518 Y118.216 E3.48573
M204 S1000
G1 X92.518 Y118.216 F10800
G1 X92.751 Y118.512
M204 S800
G1 F1200
G1 X230.914 Y9.937 E5.50958
G1 X232.015 Y9.493 E.03722
G1 X232.655 Y9.428 E.02017
G1 X233.423 Y9.508 E.02421
G1 X234.136 Y9.752 E.02363
G1 X235.094 Y10.444 E.03705
G1 X245.103 Y23.181 E.50791
G1 X245.523 Y24.101 E.03171
G1 X245.651 Y25.156 E.03332
G1 X245.405 Y26.282 E.03614
G1 X244.637 Y27.4 E.04253
G1 X19.13 Y204.615 E8.99265
G1 X18.211 Y205.035 E.03168
M73 P1 R172
G1 X17.156 Y205.162 E.03332
G1 X16.03 Y204.917 E.03613
G1 X14.911 Y204.149 E.04255
G1 X4.802 Y191.25 E.51384
G1 X4.477 Y190.484 E.02609
G1 X4.349 Y189.431 E.03326
G1 X4.595 Y188.305 E.03614
G1 X5.363 Y187.186 E.04255
G1 X92.704 Y118.549 E3.48294
M204 S1000
G1 X92.704 Y118.549 F10800
G1 X92.937 Y118.846
M204 S800
G1 F1200
G1 X231.125 Y10.251 E5.51058
G1 X232.128 Y9.853 E.03383
G1 X232.637 Y9.805 E.01603
G1 X233.322 Y9.872 E.02158
G1 X233.987 Y10.1 E.02204
G1 X234.814 Y10.698 E.032
G1 X244.793 Y23.397 E.50639
G1 X245.153 Y24.178 E.02696
G1 X245.274 Y25.124 E.0299
G1 X245.054 Y26.142 E.03266
G1 X244.382 Y27.121 E.03723
G1 X18.915 Y204.305 E8.99106
G1 X18.133 Y204.665 E.02699
M73 P2 R172
G1 X17.187 Y204.785 E.0299
G1 X16.169 Y204.565 E.03266
G1 X15.19 Y203.893 E.03723
G1 X5.138 Y191.077 E.51069
G1 X4.847 Y190.409 E.02285
G1 X4.726 Y189.463 E.0299
G1 X4.946 Y188.445 E.03266
G1 X5.618 Y187.465 E.03726
G1 X92.89 Y118.883 E3.48017
M204 S1000
G1 X92.89 Y118.883 F10800
G1 X93.123 Y119.179
M204 S800
G1 F1200
G1 X231.335 Y10.565 E5.51154
G1 X232.238 Y10.215 E.03037
G1 X233.222 Y10.236 E.03086
G1 X233.839 Y10.448 E.02046
G1 X234.533 Y10.951 E.02687
G1 X244.484 Y23.613 E.50494
G1 X244.783 Y24.258 E.02229
G1 X244.897 Y25.093 E.02642
G1 X244.703 Y26.001 E.02911
G1 X244.126 Y26.843 E.032
M73 P2 R171
G1 X18.698 Y203.995 E8.98948
G1 X18.053 Y204.295 E.0223
G1 X17.219 Y204.409 E.02639
G1 X16.31 Y204.214 E.02915
G1 X15.469 Y203.638 E.03196
G1 X5.472 Y190.901 E.50768
G1 X5.217 Y190.329 E.01964
G1 X5.103 Y189.494 E.02642
G1 X5.297 Y188.585 E.02914
G1 X5.874 Y187.744 E.03198
G1 X93.076 Y119.216 E3.4774
M204 S1000
G1 X93.076 Y119.216 F10800
G1 X93.309 Y119.513
M204 S800
G1 F1200
G1 X231.545 Y10.88 E5.5125
G1 X232.344 Y10.578 E.02678
G1 X232.603 Y10.559 E.00814
G1 X233.123 Y10.601 E.01636
G1 X233.69 Y10.795 E.01879
G1 X234.253 Y11.205 E.02184
G1 X244.174 Y23.829 E.50342
G1 X244.415 Y24.341 E.01774
G1 X244.52 Y25.063 E.02288
G1 X244.353 Y25.859 E.0255
G1 X243.87 Y26.564 E.02679
G1 X18.482 Y203.686 E8.98791
G1 X17.97 Y203.926 E.01773
G1 X17.249 Y204.032 E.02285
G1 X16.452 Y203.864 E.02554
G1 X15.747 Y203.382 E.02678
G1 X5.804 Y190.722 E.50473
G1 X5.585 Y190.246 E.01643
G1 X5.48 Y189.524 E.02288
G1 X5.647 Y188.728 E.0255
G1 X6.13 Y188.023 E.02679
G1 X93.261 Y119.55 E3.47458
M204 S1000
G1 X93.261 Y119.55 F10800
G1 X93.494 Y119.846
M204 S800
G1 F1200
G1 X231.755 Y11.194 E5.51349
G1 X232.402 Y10.951 E.02167
M73 P2 R170
G1 X233.07 Y10.975 E.02096
G1 X233.495 Y11.119 E.01407
G1 X233.974 Y11.46 E.01844
G1 X243.865 Y24.046 E.5019
G1 X244.047 Y24.428 E.01327
G1 X244.143 Y25.034 E.01924
G1 X244.004 Y25.715 E.02179
G1 X243.615 Y26.286 E.02166
G1 X18.265 Y203.377 E8.98638
G1 X17.883 Y203.559 E.01327
G1 X17.277 Y203.654 E.01923
G1 X16.597 Y203.515 E.02176
G1 X16.026 Y203.126 E.02166
G1 X6.135 Y190.54 E.5019
G1 X5.953 Y190.158 E.01327
G1 X5.857 Y189.553 E.01921
G1 X5.996 Y188.872 E.02179
G1 X6.385 Y188.301 E.02166
G1 X93.447 Y119.883 E3.47182
M204 S1000
G1 X93.447 Y119.883 F10800
M73 P3 R170
G1 X93.68 Y120.18
M204 S800
G1 F1200
G1 X231.965 Y11.509 E5.51445
G1 X232.576 Y11.313 E.02012
G1 X233.304 Y11.445 E.0232
G1 X233.696 Y11.716 E.01494
G1 X243.556 Y24.264 E.50037
G1 X243.681 Y24.521 E.00896
G1 X243.765 Y25.007 E.01546
G1 X243.656 Y25.567 E.01789
G1 X243.358 Y26.007 E.01666
G1 X18.047 Y203.068 E8.98483
G1 X17.791 Y203.192 E.00892
G1 X17.304 Y203.277 E.0155
G1 X16.744 Y203.168 E.01789
G1 X16.304 Y202.87 E.01666
G1 X6.444 Y190.323 E.50034
G1 X6.319 Y190.066 E.00896
G1 X6.235 Y189.58 E.01546
G1 X6.344 Y189.02 E.01789
G1 X6.642 Y188.579 E.01669
G1 X93.633 Y120.217 E3.46898
M204 S1000
G1 X93.633 Y120.217 F10800
G1 X93.866 Y120.513
M204 S800
G1 F1200
G1 X232.173 Y11.825 E5.51532
G1 X232.531 Y11.695 E.01194
M73 P3 R169
G1 X232.964 Y11.723 E.0136
G1 X233.419 Y11.974 E.01629
G1 X243.248 Y24.482 E.49878
G1 X243.387 Y24.983 E.0163
G1 X243.312 Y25.413 E.01369
G1 X243.101 Y25.73 E.01194
G1 X17.829 Y202.76 E8.98327
G1 X17.329 Y202.899 E.01627
G1 X16.898 Y202.823 E.01372
G1 X16.581 Y202.613 E.01192
G1 X6.752 Y190.104 E.4988
G1 X6.613 Y189.604 E.01627
G1 X6.688 Y189.174 E.01369
G1 X6.899 Y188.857 E.01194
G1 X93.819 Y120.551 E3.46615
M204 S1000
G1 X93.819 Y120.551 F10800
G1 X94.052 Y120.847
M204 S800
G1 F1200
G1 X232.379 Y12.143 E5.51612
G1 X232.593 Y12.071 E.00708
G1 X232.912 Y12.097 E.01004
G1 X233.144 Y12.234 E.00845
G1 X242.941 Y24.701 E.49715
G1 X243.009 Y24.962 E.00846
G1 X242.961 Y25.264 E.00959
G1 X242.841 Y25.455 E.00707
G1 X17.61 Y202.453 E8.98164
G1 X17.349 Y202.52 E.00845
G1 X17.048 Y202.472 E.00956
G1 X16.856 Y202.352 E.0071
G1 X7.059 Y189.885 E.49715
G1 X6.991 Y189.624 E.00846
G1 X7.039 Y189.323 E.00956
G1 X7.159 Y189.131 E.0071
G1 X94.005 Y120.884 E3.46318
M204 S1000
G1 X94.005 Y120.884 F10800
G1 X94.238 Y121.181
M204 S800
G1 F1200
G1 X232.579 Y12.465 E5.5167
G1 X232.808 Y12.464 E.00718
M73 P3 R168
G1 X242.61 Y24.89 E.49624
G1 X242.575 Y25.185 E.00931
M73 P4 R168
G1 X17.421 Y202.122 E8.97856
G1 X17.127 Y202.086 E.00929
G1 X7.39 Y189.696 E.49409
G1 X7.425 Y189.402 E.00928
G1 X94.191 Y121.218 E3.45999
M204 S1000
;WIPE_START
G1 F8640
G1 X94.238 Y121.181 E-.01381
G1 X96.915 Y119.077 E-.78619
;WIPE_END
G1 Z.6 F720
; printing object Pen holder - upper part.stl id:0 copy 0
G1 X29.17 Y185.164 F10800
G1 Z.2 F720
G1 E.8 F2100
M204 S800
;TYPE:Perimeter
;WIDTH:0.419999
G1 F1200
G1 X28.635 Y185.187 E.01679
G1 X28.04 Y185.055 E.01911
G1 X27.499 Y184.773 E.01913
G1 X27.05 Y184.361 E.01911
G1 X26.691 Y183.786 E.02125
G1 X26.54 Y183.265 E.01701
G1 X26.513 Y182.656 E.01911
G1 X26.645 Y182.061 E.01911
G1 X26.927 Y181.521 E.0191
G1 X27.339 Y181.071 E.01913
G1 X27.854 Y180.744 E.01913
G1 X28.435 Y180.561 E.0191
G1 X29.008 Y180.535 E.01798
G1 X29.629 Y180.664 E.01989
G1 X30.18 Y180.949 E.01945
G1 X30.629 Y181.361 E.01911
G1 X30.957 Y181.875 E.01912
G1 X31.14 Y182.457 E.01913
G1 X31.166 Y183.066 E.01911
G1 X31.034 Y183.661 E.01911
G1 X30.77 Y184.169 E.01795
G1 X30.348 Y184.643 E.0199
G1 X29.826 Y184.978 E.01945
G1 X29.244 Y185.161 E.01913
G1 X29.23 Y185.162 E.00044
M204 S1000
G1 X29.23 Y185.162 F10800
G1 X29.118 Y184.798
M204 S800
;TYPE:External perimeter
G1 F1200
G1 X29.094 Y184.805 E.00078
G1 X28.582 Y184.804 E.01605
G1 X28.088 Y184.671 E.01604
G1 X27.645 Y184.415 E.01604
G1 X27.287 Y184.06 E.01581
G1 X27.037 Y183.634 E.01549
G1 X26.898 Y183.14 E.01609
G1 X26.896 Y182.603 E.01684
G1 X27.029 Y182.109 E.01604
G1 X27.28 Y181.672 E.0158
G1 X27.648 Y181.304 E.01632
G1 X28.091 Y181.049 E.01603
G1 X28.586 Y180.917 E.01606
G1 X29.057 Y180.917 E.01477
G1 X29.569 Y181.039 E.0165
G1 X30.017 Y181.292 E.01613
G1 X30.382 Y181.649 E.01601
G1 X30.643 Y182.088 E.01601
G1 X30.782 Y182.581 E.01606
G1 X30.783 Y183.119 E.01687
G1 X30.65 Y183.613 E.01604
G1 X30.414 Y184.021 E.01478
G1 X30.052 Y184.403 E.0165
G1 X29.588 Y184.673 E.01683
G1 X29.176 Y184.783 E.01337
M204 S1000
;WIPE_START
G1 F8640
G1 X29.118 Y184.798 E-.01383
G1 X29.094 Y184.805 E-.00577
G1 X28.582 Y184.804 E-.11822
G1 X28.088 Y184.671 E-.11813
G1 X27.645 Y184.415 E-.11814
G1 X27.287 Y184.06 E-.11641
G1 X27.037 Y183.634 E-.11405
G1 X26.898 Y183.14 E-.1185
G1 X26.897 Y182.807 E-.07695
;WIPE_END
G1 Z.6 F720
G1 X20.528 Y190.872 F10800
G1 Z.2 F720
G1 E.8 F2100
M204 S800
;TYPE:Perimeter
G1 F1200
G1 X20.551 Y191.407 E.01679
G1 X20.419 Y192.002 E.01911
G1 X20.137 Y192.543 E.01913
G1 X20.049 Y192.661 E.00462
G1 X19.67 Y193.042 E.01685
G1 X19.211 Y193.319 E.01681
G1 X18.629 Y193.502 E.01913
G1 X18.02 Y193.529 E.01911
G1 X17.425 Y193.397 E.01911
G1 X16.885 Y193.115 E.0191
G1 X16.435 Y192.703 E.01913
G1 X16.108 Y192.188 E.01913
G1 X15.925 Y191.607 E.0191
G1 X15.899 Y190.998 E.01911
G1 X16.031 Y190.403 E.01911
G1 X16.313 Y189.862 E.01913
G1 X16.725 Y189.413 E.01911
G1 X17.239 Y189.085 E.01912
G1 X17.821 Y188.902 E.01913
G1 X18.393 Y188.877 E.01795
G1 X19.014 Y189.006 E.01989
G1 X19.565 Y189.29 E.01944
G1 X20.015 Y189.702 E.01913
G1 X20.342 Y190.216 E.0191
G1 X20.525 Y190.798 E.01913
G1 X20.526 Y190.813 E.00047
M204 S1000
G1 X20.526 Y190.813 F10800
G1 X20.167 Y190.924
M204 S800
;TYPE:External perimeter
G1 F1200
G1 X20.168 Y191.46 E.01681
G1 X20.035 Y191.954 E.01604
G1 X19.779 Y192.397 E.01604
G1 X19.417 Y192.759 E.01605
G1 X18.973 Y193.014 E.01605
G1 X18.479 Y193.146 E.01603
G1 X17.967 Y193.146 E.01605
G1 X17.473 Y193.013 E.01604
G1 X17.036 Y192.762 E.0158
G1 X16.668 Y192.394 E.01632
G1 X16.413 Y191.951 E.01603
G1 X16.281 Y191.456 E.01606
G1 X16.28 Y190.951 E.01583
G1 X16.415 Y190.45 E.01627
G1 X16.665 Y190.013 E.01579
G1 X17.033 Y189.646 E.0163
G1 X17.477 Y189.39 E.01607
G1 X17.971 Y189.258 E.01603
G1 X18.443 Y189.259 E.0148
G1 X18.954 Y189.381 E.01647
G1 X19.403 Y189.633 E.01614
G1 X19.768 Y189.99 E.01601
G1 X20.028 Y190.429 E.016
G1 X20.151 Y190.867 E.01426
M204 S1000
;WIPE_START
G1 F8640
G1 X20.167 Y190.924 E-.01367
G1 X20.168 Y191.46 E-.12376
G1 X20.035 Y191.954 E-.11813
G1 X19.779 Y192.397 E-.11814
G1 X19.417 Y192.759 E-.11821
G1 X18.973 Y193.014 E-.11823
G1 X18.479 Y193.146 E-.11807
G1 X18.168 Y193.146 E-.07179
;WIPE_END
G1 Z.6 F720
G1 X233.64 Y24.781 F10800
G1 Z.2 F720
G1 E.8 F2100
M204 S800
;TYPE:Perimeter
G1 F1200
G1 X233.633 Y24.793 E.00044
G1 X233.283 Y25.166 E.01604
G1 X232.761 Y25.501 E.01945
G1 X232.179 Y25.684 E.01913
G1 X231.57 Y25.711 E.01911
G1 X230.975 Y25.578 E.01912
G1 X230.435 Y25.297 E.01909
G1 X229.985 Y24.884 E.01915
G1 X229.658 Y24.37 E.0191
G1 X229.475 Y23.789 E.0191
G1 X229.449 Y23.18 E.01911
G1 X229.581 Y22.584 E.01914
G1 X229.863 Y22.044 E.0191
G1 X230.275 Y21.595 E.01911
G1 X230.789 Y21.267 E.01912
G1 X231.371 Y21.084 E.01913
G1 X231.943 Y21.058 E.01795
G1 X232.564 Y21.187 E.01989
G1 X233.115 Y21.472 E.01945
G1 X233.565 Y21.884 E.01913
G1 X233.892 Y22.398 E.0191
G1 X234.065 Y22.944 E.01796
G1 X234.101 Y23.578 E.01991
G1 X234.088 Y23.716 E.00435
G1 X233.914 Y24.321 E.01974
G1 X233.671 Y24.73 E.01492
M204 S1000
G1 X233.671 Y24.73 F10800
G1 X233.339 Y24.556
M204 S800
;TYPE:External perimeter
G1 F1200
G1 X232.987 Y24.927 E.01604
G1 X232.523 Y25.196 E.01682
G1 X232.029 Y25.328 E.01603
G1 X231.517 Y25.328 E.01605
G1 X231.023 Y25.195 E.01604
G1 X230.58 Y24.938 E.01606
G1 X230.218 Y24.576 E.01605
G1 X229.963 Y24.133 E.01603
G1 X229.831 Y23.638 E.01606
G1 X229.832 Y23.126 E.01605
G1 X229.965 Y22.632 E.01604
G1 X230.215 Y22.195 E.01579
G1 X230.583 Y21.828 E.0163
G1 X231.027 Y21.572 E.01607
G1 X231.521 Y21.44 E.01603
G1 X231.993 Y21.44 E.0148
G1 X232.527 Y21.574 E.01726
G1 X232.964 Y21.825 E.0158
G1 X233.332 Y22.192 E.0163
G1 X233.587 Y22.636 E.01605
G1 X233.709 Y23.091 E.01477
