; generated by PrusaSlicer 2.8.1+win64 on 2024-11-06 at 22:37:51 UTC


;
;
; 

; external perimeters extrusion width = 0.45mm
; perimeters extrusion width = 0.45mm
; infill extrusion width = 0.45mm
; solid infill extrusion width = 0.45mm
; top infill extrusion width = 0.45mm
; first layer extrusion width = 0.42mm

M73 P0 R7
M201 X9000 Y9000 Z500 E10000 ; sets maximum accelerations, mm/sec^2
M203 X500 Y500 Z12 E120 ; sets maximum feedrates, mm / sec
M204 S2000 T1500 ; sets acceleration (S) and retract acceleration (R), mm/sec^2
M205 X10.00 Y10.00 Z0.20 E4.50 ; sets the jerk limits, mm/sec
M205 S0 T0 ; sets the minimum extruding and travel feed rate, mm/sec

; printing object Servo Motor Micro  9g horn - pen holder.stl id:0 copy 0
; stop printing object Servo Motor Micro  9g horn - pen holder.stl id:0 copy 0

;TYPE:Custom
M862.3 P "MK2.5S" ; printer model check
M862.1 P0.4 ; nozzle diameter check
M115 U3.14.0 ; tell printer latest fw version
G90 ; use absolute coordinates
M83 ; extruder relative mode
M104 S215 ; set extruder temp
M140 S60 ; set bed temp
M190 S60 ; wait for bed temp
M109 S215 ; wait for extruder temp
G28 W ; home all without mesh bed level
G80 X111.523 Y95.1834 W26.9484 H13.2554 ; mesh bed levelling

G1 Z0.2 F720
G1 Y-3 F1000 ; go outside print area
G92 E0
G1 X60 E9 F1000 ; intro line
G1 X100 E12.5 F1000 ; intro line

G92 E0
G21 ; set units to millimeters
G90 ; use absolute coordinates
M83 ; use relative distances for extrusion

M900 K0.05 ; Filament gcode LA 1.5
M900 K30 ; Filament gcode LA 1.0




M107
;LAYER_CHANGE
;Z:0.2
;HEIGHT:0.2
G1 E-.8 F2100
M73 P1 R7
G1 Z.6 F720
G1 X113.267 Y97.611 F10800
G1 Z.2 F720
G1 E.8 F2100
M204 S800
;TYPE:Skirt/Brim
;WIDTH:0.42
G1 F1200
G1 X114.182 Y96.738 E.03965
G1 X115.249 Y96.061 E.03962
G1 X116.151 Y95.688 E.0306
G1 X117.045 Y95.466 E.02888
G1 X118.306 Y95.372 E.03965
G1 X134.702 Y97.706 E.51927
G1 X135.668 Y97.959 E.03131
G1 X136.271 Y98.256 E.02108
G1 X136.818 Y98.646 E.02106
G1 X137.584 Y99.5 E.03597
G1 X137.913 Y100.086 E.02107
G1 X138.19 Y100.907 E.02717
G1 X138.283 Y101.572 E.02105
G1 X138.267 Y102.244 E.02108
G1 X137.99 Y103.357 E.03596
G1 X137.584 Y104.123 E.02718
G1 X136.818 Y104.976 E.03595
G1 X136.101 Y105.462 E.02716
G1 X135.024 Y105.858 E.03598
G1 X118.922 Y108.206 E.51021
G1 X117.385 Y108.206 E.04819
M73 P2 R7
G1 X115.827 Y107.818 E.05034
G1 X114.699 Y107.249 E.03961
G1 X113.958 Y106.701 E.0289
G1 X113.267 Y106.011 E.03062
G1 X112.541 Y104.977 E.03961
G1 X112.031 Y103.821 E.03962
G1 X111.802 Y102.896 E.02988
G1 X111.711 Y101.667 E.03864
G1 X111.863 Y100.412 E.03964
G1 X112.257 Y99.211 E.03963
G1 X112.718 Y98.35 E.03062
G1 X113.232 Y97.659 E.027
M204 S1000
G1 X113.232 Y97.659 F10800
G1 X113.535 Y97.887
M204 S800
G1 F1200
G1 X113.579 Y97.828 E.00231
G1 X114.406 Y97.041 E.03579
G1 X115.187 Y96.52 E.02944
G1 X116.278 Y96.044 E.03732
G1 X117.1 Y95.839 E.02656
G1 X118.287 Y95.749 E.03732
G1 X134.648 Y98.079 E.51816
G1 X135.538 Y98.313 E.02885
G1 X136.582 Y98.94 E.03818
G1 X137.267 Y99.703 E.03215
G1 X137.567 Y100.235 E.01915
G1 X137.824 Y100.998 E.02524
G1 X137.907 Y101.603 E.01915
G1 X137.891 Y102.214 E.01916
G1 X137.644 Y103.208 E.03211
G1 X137.267 Y103.919 E.02523
G1 X136.582 Y104.682 E.03215
G1 X135.916 Y105.134 E.02524
G1 X134.953 Y105.487 E.03216
G1 X118.868 Y107.833 E.50967
G1 X117.44 Y107.833 E.04477
G1 X115.954 Y107.463 E.04802
G1 X115.187 Y107.102 E.02658
G1 X114.211 Y106.421 E.03731
G1 X113.547 Y105.758 E.02942
G1 X112.864 Y104.783 E.03732
G1 X112.386 Y103.693 E.03732
G1 X112.175 Y102.84 E.02755
G1 X112.087 Y101.685 E.03632
G1 X112.229 Y100.504 E.0373
G1 X112.598 Y99.372 E.03733
G1 X113.041 Y98.544 E.02944
G1 X113.499 Y97.935 E.02389
M204 S1000
G1 X113.499 Y97.935 F10800
G1 X113.799 Y98.16
M204 S800
G1 F1200
G1 X113.858 Y98.082 E.00307
G1 X114.63 Y97.344 E.03349
G1 X115.57 Y96.743 E.03498
G1 X116.404 Y96.399 E.02829
G1 X117.155 Y96.212 E.02427
G1 X118.267 Y96.125 E.03497
G1 X134.594 Y98.452 E.51709
G1 X135.225 Y98.6 E.02032
M73 P3 R7
G1 X135.9 Y98.912 E.02332
G1 X136.346 Y99.234 E.01725
G1 X136.949 Y99.906 E.02831
G1 X137.22 Y100.384 E.01723
G1 X137.458 Y101.089 E.02333
G1 X137.531 Y101.633 E.01721
G1 X137.516 Y102.183 E.01725
G1 X137.297 Y103.059 E.02831
G1 X136.949 Y103.716 E.02331
G1 X136.332 Y104.4 E.02888
G1 X135.408 Y104.955 E.0338
G1 X134.691 Y105.154 E.02333
G1 X118.814 Y107.459 E.50303
G1 X117.495 Y107.46 E.04136
G1 X116.08 Y107.108 E.04572
G1 X115.381 Y106.778 E.02424
G1 X114.464 Y106.142 E.03499
G1 X113.826 Y105.505 E.02827
G1 X113.188 Y104.589 E.035
G1 X112.741 Y103.566 E.035
G1 X112.548 Y102.785 E.02522
G1 X112.464 Y101.704 E.034
G1 X112.595 Y100.595 E.03501
G1 X112.857 Y99.732 E.02828
G1 X113.365 Y98.738 E.035
G1 X113.763 Y98.208 E.02078
M204 S1000
;WIPE_START
G1 F8640
G1 X113.799 Y98.16 E-.01385
G1 X113.858 Y98.082 E-.02258
G1 X114.63 Y97.344 E-.2466
G1 X115.57 Y96.743 E-.25762
G1 X116.404 Y96.399 E-.20831
G1 X116.618 Y96.346 E-.05104
;WIPE_END
G1 Z.6 F720
; printing object Servo Motor Micro  9g horn - pen holder.stl id:0 copy 0
G1 X130.718 Y100.552 F10800
G1 Z.2 F720
G1 E.8 F2100
M204 S800
;TYPE:External perimeter
;WIDTH:0.661094
G1 F1200
G1 X131.057 Y100.601 E.01761
M204 S1000
;WIPE_START
G1 F8640
G1 X130.718 Y100.552 E-.07909
G1 X131.057 Y100.601 E-.07909
;WIPE_END
G1 E-.64182 F2100
G1 Z.6 F720
G1 X131.088 Y103.016 F10800
G1 Z.2 F720
G1 E.8 F2100
M204 S800
;WIDTH:0.670268
G1 F1200
G1 X130.471 Y103.08 E.03236
M204 S1000
;WIPE_START
G1 F8640
G1 X131.088 Y103.016 E-.14323
G1 X130.471 Y103.08 E-.14323
;WIPE_END
G1 E-.51354 F2100
G1 Z.6 F720
G1 X132.159 Y101.144 F10800
G1 Z.2 F720
G1 E.8 F2100
M204 S800
;TYPE:Perimeter
;WIDTH:0.419999
G1 F1200
G1 X132.183 Y101.134 E.00082
G1 X132.698 Y101.23 E.01643
G1 X134.255 Y101.42 E.04918
G1 X134.472 Y101.566 E.0082
G1 X134.544 Y101.746 E.00608
G1 X134.555 Y101.811 E.00207
G1 X134.472 Y102.056 E.00811
G1 X134.255 Y102.202 E.0082
G1 X132.698 Y102.392 E.04918
G1 X132.183 Y102.488 E.01643
G1 X132.271 Y102.257 E.00775
G1 X132.339 Y101.811 E.01415
G1 X132.271 Y101.365 E.01415
G1 X132.186 Y101.197 E.0059
M204 S1000
G1 X132.186 Y101.197 F10800
G1 X131.585 Y101.042
M204 S800
;TYPE:External perimeter
G1 F1200
G1 X131.566 Y101.018 E.00096
;WIDTH:0.468218
G1 X131.464 Y100.935 E.00465
;WIDTH:0.516437
G1 X131.362 Y100.851 E.0052
;WIDTH:0.564656
G1 X131.261 Y100.768 E.00567
;WIDTH:0.612875
G1 X131.159 Y100.685 E.00623
;WIDTH:0.661094
G1 X131.057 Y100.601 E.00679
G1 X131.114 Y100.591 E.00297
;WIDTH:0.627613
G1 X131.17 Y100.58 E.00277
;WIDTH:0.594132
G1 X131.315 Y100.588 E.00666
;WIDTH:0.550599
G1 X131.459 Y100.596 E.00609
;WIDTH:0.507066
G1 X131.603 Y100.604 E.00557
;WIDTH:0.463533
G1 X131.748 Y100.613 E.00508
;WIDTH:0.419999
G1 X132.237 Y100.761 E.01602
G1 X132.743 Y100.856 E.01614
G1 X134.238 Y101.038 E.04722
G1 X134.471 Y101.104 E.00759
G1 X134.684 Y101.247 E.00804
G1 X134.836 Y101.447 E.00788
G1 X134.916 Y101.685 E.00787
G1 X134.937 Y101.811 E.00401
G1 X134.896 Y102.062 E.00797
G1 X134.776 Y102.287 E.008
G1 X134.591 Y102.462 E.00798
G1 X134.36 Y102.569 E.00798
G1 X132.731 Y102.768 E.05146
G1 X132.237 Y102.861 E.01576
G1 X131.748 Y103.01 E.01603
;WIDTH:0.469131
G1 X131.584 Y103.022 E.00583
;WIDTH:0.518263
G1 X131.421 Y103.034 E.00646
;WIDTH:0.567395
G1 X131.258 Y103.046 E.00713
;WIDTH:0.616179
G1 X131.173 Y103.031 E.00411
;WIDTH:0.664962
G1 X131.088 Y103.016 E.00446
G1 X131.147 Y102.964 E.00407
;WIDTH:0.616095
G1 X131.252 Y102.874 E.00659
;WIDTH:0.567071
G1 X131.356 Y102.784 E.00599
;WIDTH:0.518047
G1 X131.461 Y102.694 E.00546
;WIDTH:0.469023
G1 X131.566 Y102.604 E.0049
;WIDTH:0.419999
G1 X131.861 Y102.248 E.0145
G1 X131.956 Y101.962 E.00945
G1 X131.962 Y101.706 E.00803
G1 X131.871 Y101.388 E.01037
G1 X131.623 Y101.088 E.0122
M204 S1000
;WIPE_START
G1 F8640
G1 X131.585 Y101.042 E-.01378
G1 X131.566 Y101.018 E-.00707
G1 X131.464 Y100.935 E-.03036
G1 X131.362 Y100.851 E-.03051
G1 X131.261 Y100.768 E-.03019
G1 X131.159 Y100.685 E-.03036
G1 X131.057 Y100.601 E-.03051
G1 X131.114 Y100.591 E-.01336
G1 X131.17 Y100.58 E-.01318
G1 X131.315 Y100.588 E-.03353
G1 X131.459 Y100.596 E-.0333
G1 X131.603 Y100.604 E-.0333
G1 X131.748 Y100.613 E-.03355
G1 X132.237 Y100.761 E-.11797
G1 X132.743 Y100.856 E-.11888
G1 X133.732 Y100.976 E-.23015
;WIPE_END
G1 Z.6 F720
G1 X120.086 Y103.748 F10800
G1 Z.2 F720
M73 P4 R7
G1 E.8 F2100
M204 S800
;TYPE:Perimeter
;WIDTH:0.579959
G1 F1200
G1 X119.931 Y103.763 E.00695
G1 X119.372 Y104.144 E.03021
;WIDTH:0.575994
G1 X118.893 Y104.333 E.02282
G1 X118.386 Y104.432 E.0229
;WIDTH:0.570836
G1 X117.857 Y104.426 E.02322
;WIDTH:0.575868
G1 X117.365 Y104.32 E.0223
G1 X116.889 Y104.123 E.02283
;WIDTH:0.576335
G1 X116.464 Y103.828 E.02295
G1 X116.091 Y103.449 E.02359
;WIDTH:0.572204
G1 X115.818 Y103.03 E.02201
;WIDTH:0.575406
G1 X115.627 Y102.55 E.02287
G1 X115.527 Y102.044 E.02284
;WIDTH:0.575962
G1 X115.536 Y101.527 E.02292
G1 X115.642 Y101.017 E.02309
;WIDTH:0.573405
G1 X115.843 Y100.547 E.02255
;WIDTH:0.574845
G1 X116.135 Y100.121 E.02284
G1 X116.501 Y99.758 E.0228
;WIDTH:0.576676
G1 X116.937 Y99.479 E.02297
G1 X117.469 Y99.272 E.02534
;WIDTH:0.56875
G1 X118.159 Y99.176 E.03046
;WIDTH:0.576972
G1 X118.668 Y99.232 E.02274
G1 X119.163 Y99.38 E.02294
;WIDTH:0.571352
G1 X119.61 Y99.62 E.02229
;WIDTH:0.573876
G1 X119.873 Y99.813 E.0144
G1 X119.963 Y99.832 E.00406
;WIDTH:0.535407
G1 X120.053 Y99.85 E.00376
;WIDTH:0.496938
G1 X120.143 Y99.869 E.00347
;WIDTH:0.458469
G1 X120.233 Y99.887 E.00317
;WIDTH:0.419999
G1 X128.776 Y100.804 E.2694
G1 X129.341 Y100.82 E.01772
G1 X129.114 Y101.113 E.01162
G1 X128.969 Y101.509 E.01322
G1 X128.934 Y101.918 E.01287
G1 X129.114 Y102.509 E.01937
G1 X129.328 Y102.791 E.0111
G1 X128.735 Y102.821 E.01862
G1 X120.576 Y103.698 E.25729
;WIDTH:0.459989
G1 X120.415 Y103.714 E.00561
;WIDTH:0.499979
G1 X120.253 Y103.731 E.00619
;WIDTH:0.539969
G1 X120.145 Y103.742 E.00449
M204 S1000
G1 X120.145 Y103.742 F10800
G1 X120.232 Y104.135
M204 S800
;TYPE:External perimeter
;WIDTH:0.419999
G1 F1200
G1 X120.187 Y104.141 E.00142
G1 X119.612 Y104.532 E.0218
G1 X119.053 Y104.765 E.01899
G1 X118.457 Y104.885 E.01906
G1 X117.852 Y104.886 E.01897
G1 X117.258 Y104.768 E.01899
G1 X116.697 Y104.537 E.01902
G1 X116.193 Y104.201 E.01899
G1 X115.764 Y103.772 E.01902
G1 X115.427 Y103.269 E.01898
G1 X115.194 Y102.709 E.01902
G1 X115.076 Y102.114 E.01902
G1 X115.076 Y101.508 E.019
G1 X115.194 Y100.913 E.01902
G1 X115.427 Y100.354 E.01899
G1 X115.764 Y99.85 E.01901
G1 X116.193 Y99.421 E.01902
G1 X116.697 Y99.085 E.01899
G1 X117.258 Y98.854 E.01902
G1 X117.805 Y98.746 E.01748
G1 X118.152 Y98.722 E.01091
G1 X118.759 Y98.783 E.01913
G1 X119.338 Y98.96 E.01898
G1 X119.83 Y99.224 E.01751
G1 X120.273 Y99.512 E.01657
G1 X128.922 Y100.432 E.27271
G1 X129.632 Y100.429 E.02226
G1 X130.288 Y100.382 E.02062
;WIDTH:0.437444
G1 X130.374 Y100.416 E.00303
;WIDTH:0.487138
G1 X130.46 Y100.45 E.00342
;WIDTH:0.536831
G1 X130.546 Y100.484 E.0038
;WIDTH:0.586525
G1 X130.632 Y100.518 E.00418
;WIDTH:0.636218
G1 X130.718 Y100.552 E.00456
G1 X130.657 Y100.58 E.00331
;WIDTH:0.594256
G1 X130.595 Y100.609 E.00314
;WIDTH:0.552294
G1 X130.534 Y100.637 E.00284
;WIDTH:0.510332
G1 X130.473 Y100.665 E.00261
;WIDTH:0.46837
G1 X130.411 Y100.693 E.00241
;WIDTH:0.426408
G1 X130.35 Y100.722 E.00215
;WIDTH:0.419999
G1 X129.884 Y100.857 E.01521
G1 X129.519 Y101.167 E.01501
G1 X129.323 Y101.639 E.01602
G1 X129.323 Y101.983 E.01079
G1 X129.519 Y102.455 E.01602
G1 X129.888 Y102.767 E.01515
;WIDTH:0.461711
G1 X129.985 Y102.819 E.00383
;WIDTH:0.503422
G1 X130.083 Y102.871 E.00425
;WIDTH:0.545134
G1 X130.18 Y102.923 E.0046
;WIDTH:0.586845
G1 X130.277 Y102.975 E.00498
;WIDTH:0.628557
G1 X130.374 Y103.028 E.00538
;WIDTH:0.670268
G1 X130.471 Y103.08 E.00574
G1 X130.416 Y103.104 E.00313
;WIDTH:0.633582
G1 X130.361 Y103.129 E.00297
;WIDTH:0.596896
G1 X130.305 Y103.153 E.00281
;WIDTH:0.560209
G1 X130.139 Y103.169 E.00717
;WIDTH:0.513473
G1 X129.972 Y103.185 E.00656
;WIDTH:0.466736
G1 X129.806 Y103.201 E.00588
;WIDTH:0.419999
G1 X129.291 Y103.178 E.01616
G1 X128.775 Y103.196 E.01619
G1 X121.051 Y104.026 E.24357
G1 X120.292 Y104.127 E.02401
M204 S1000
;WIPE_START
G1 F8640
G1 X120.232 Y104.135 E-.01398
G1 X120.187 Y104.141 E-.01048
G1 X119.612 Y104.532 E-.16056
G1 X119.053 Y104.765 E-.13984
G1 X118.457 Y104.885 E-.14038
G1 X117.852 Y104.886 E-.1397
G1 X117.258 Y104.768 E-.13984
G1 X117.037 Y104.677 E-.05522
;WIPE_END
G1 Z.6 F720
G1 X116.408 Y102.96 F10800
G1 Z.2 F720
G1 E.8 F2100
M204 S800
;TYPE:Perimeter
;WIDTH:0.569738
G1 F1200
G1 X116.214 Y102.646 E.01617
;WIDTH:0.566324
G1 X116.064 Y102.089 E.0251
;WIDTH:0.575962
G1 X116.063 Y101.6 E.02167
G1 X116.129 Y101.222 E.01701
;WIDTH:0.571375
G1 X116.328 Y100.755 E.02231
;WIDTH:0.568936
G1 X116.448 Y100.573 E.00953
;WIDTH:0.56653
G1 X116.794 Y100.197 E.02225
G1 X117.368 Y99.858 E.02902
;WIDTH:0.567885
G1 X117.564 Y99.788 E.00908
;WIDTH:0.568082
G1 X118.096 Y99.702 E.02353
G1 X118.726 Y99.788 E.02777
;WIDTH:0.570655
G1 X118.936 Y99.856 E.00969
G1 X119.436 Y100.137 E.02517
;WIDTH:0.567049
G1 X119.557 Y100.299 E.00881
;WIDTH:0.518033
G1 X119.678 Y100.461 E.00799
;WIDTH:0.469016
G1 X119.799 Y100.623 E.00716
;WIDTH:0.419999
G1 X120.095 Y101.222 E.02095
G1 X120.181 Y101.886 E.02099
G1 X120.047 Y102.541 E.02096
G1 X119.783 Y103.001 E.01663
;WIDTH:0.459989
G1 X119.741 Y103.083 E.0032
;WIDTH:0.499979
G1 X119.699 Y103.165 E.0035
;WIDTH:0.539969
G1 X119.657 Y103.247 E.00381
;WIDTH:0.579959
G1 X119.615 Y103.329 E.00411
G1 X119.209 Y103.633 E.02265
;WIDTH:0.565242
G1 X118.6 Y103.867 E.02833
;WIDTH:0.570836
G1 X118.385 Y103.904 E.00958
G1 X117.784 Y103.887 E.02639
;WIDTH:0.565814
G1 X117.242 Y103.71 E.02479
M73 P5 R7
;WIDTH:0.576335
G1 X116.816 Y103.429 E.02264
G1 X116.531 Y103.158 E.01744
;WIDTH:0.569738
G1 X116.44 Y103.011 E.00757
M204 S1000
G1 X116.44 Y103.011 F10800
G1 X116.784 Y102.713
M204 S800
;TYPE:External perimeter
;WIDTH:0.419999
G1 F1200
G1 X116.664 Y102.536 E.0067
G1 X116.5 Y101.979 E.01821
G1 X116.531 Y101.458 E.01636
G1 X116.779 Y100.878 E.01978
G1 X117.12 Y100.508 E.01578
G1 X117.582 Y100.253 E.01655
G1 X118.095 Y100.155 E.01638
G1 X118.657 Y100.232 E.01779
G1 X119.144 Y100.483 E.01718
G1 X119.521 Y100.878 E.01712
G1 X119.75 Y101.374 E.01713
G1 X119.805 Y101.917 E.01711
G1 X119.681 Y102.449 E.01713
G1 X119.391 Y102.911 E.0171
G1 X118.966 Y103.255 E.01714
G1 X118.454 Y103.442 E.01709
G1 X117.922 Y103.452 E.01668
G1 X117.388 Y103.284 E.01755
G1 X116.951 Y102.957 E.01711
G1 X116.818 Y102.762 E.0074
M204 S1000
;WIPE_START
G1 F8640
G1 X116.784 Y102.713 E-.01377
G1 X116.664 Y102.536 E-.04938
G1 X116.5 Y101.979 E-.13407
G1 X116.531 Y101.458 E-.12051
G1 X116.779 Y100.878 E-.14565
G1 X117.12 Y100.508 E-.11618
G1 X117.582 Y100.253 E-.12185
G1 X118.001 Y100.173 E-.09859
;WIPE_END
G1 Z.6 F720
G1 X128.161 Y100.911 F10800
G1 Z.2 F720
G1 E.8 F2100
M204 S800
;TYPE:Solid infill
;WIDTH:0.42485
G1 F1200
G1 X128.648 Y101.398 E.02187
G1 X128.595 Y101.69 E.00942
G1 X128.595 Y101.885 E.00619
G1 X127.747 Y101.037 E.03809
G1 X127.142 Y100.973 E.01932
G1 X128.657 Y102.488 E.06804
G1 X128.17 Y102.54 E.01555
G1 X126.538 Y100.908 E.0733
G1 X125.933 Y100.844 E.01932
G1 X127.682 Y102.593 E.07855
G1 X127.194 Y102.645 E.01559
G1 X125.328 Y100.779 E.08381
G1 X124.724 Y100.714 E.01929
G1 X126.707 Y102.697 E.08906
G1 X126.219 Y102.75 E.01559
G1 X124.119 Y100.65 E.09432
G1 X123.514 Y100.585 E.01932
G1 X125.731 Y102.802 E.09957
G1 X125.244 Y102.855 E.01556
G1 X122.91 Y100.521 E.10482
G1 X122.305 Y100.456 E.01932
G1 X124.756 Y102.907 E.11008
G1 X124.268 Y102.96 E.01559
G1 X121.7 Y100.392 E.11533
G1 X121.096 Y100.327 E.01929
G1 X123.781 Y103.012 E.12059
G1 X123.293 Y103.065 E.01559
G1 X120.491 Y100.263 E.12584
G1 X119.973 Y100.207 E.01655
G1 X120.036 Y100.348 E.0049
G1 X122.805 Y103.117 E.12436
G1 X122.318 Y103.169 E.01555
G1 X120.467 Y101.319 E.08311
G1 X120.52 Y101.912 E.01891
G1 X121.83 Y103.222 E.05883
G1 X121.342 Y103.274 E.01559
G1 X120.44 Y102.372 E.04051
G1 X120.372 Y102.637 E.00869
G1 X120.309 Y102.781 E.00499
G1 X120.854 Y103.327 E.0245
G1 X120.367 Y103.379 E.01555
G1 X119.987 Y102.999 E.01707
M204 S1000
;WIPE_START
