; generated by PrusaSlicer 2.8.1+win64 on 2024-11-06 at 22:37:06 UTC


;
;
; 

; external perimeters extrusion width = 0.45mm
; perimeters extrusion width = 0.45mm
; infill extrusion width = 0.45mm
; solid infill extrusion width = 0.45mm
; top infill extrusion width = 0.45mm
; first layer extrusion width = 0.42mm

M73 P0 R3
M201 X9000 Y9000 Z500 E10000 ; sets maximum accelerations, mm/sec^2
M203 X500 Y500 Z12 E120 ; sets maximum feedrates, mm / sec
M204 S2000 T1500 ; sets acceleration (S) and retract acceleration (R), mm/sec^2
M205 X10.00 Y10.00 Z0.20 E4.50 ; sets the jerk limits, mm/sec
M205 S0 T0 ; sets the minimum extruding and travel feed rate, mm/sec

; printing object Servo Motor Micro  9g horn.stl id:0 copy 0
; stop printing object Servo Motor Micro  9g horn.stl id:0 copy 0

;TYPE:Custom
M862.3 P "MK2.5S" ; printer model check
M862.1 P0.4 ; nozzle diameter check
M115 U3.14.0 ; tell printer latest fw version
G90 ; use absolute coordinates
M83 ; extruder relative mode
M104 S215 ; set extruder temp
M140 S60 ; set bed temp
M190 S60 ; wait for bed temp
M109 S215 ; wait for extruder temp
G28 W ; home all without mesh bed level
G80 X111.621 Y98.4084 W26.7492 H13.26 ; mesh bed levelling

G1 Z0.2 F720
G1 Y-3 F1000 ; go outside print area
G92 E0
G1 X60 E9 F1000 ; intro line
G1 X100 E12.5 F1000 ; intro line
M73 P1 R3

G92 E0
G21 ; set units to millimeters
G90 ; use absolute coordinates
M83 ; use relative distances for extrusion

M900 K0.05 ; Filament gcode LA 1.5
M900 K30 ; Filament gcode LA 1.0




M107
;LAYER_CHANGE
;Z:0.2
;HEIGHT:0.2
G1 E-.8 F2100
M73 P3 R3
G1 Z.6 F720
G1 X113.458 Y100.734 F10800
G1 Z.2 F720
G1 E.8 F2100
M204 S800
;TYPE:Skirt/Brim
;WIDTH:0.42
G1 F1200
G1 X114.078 Y100.131 E.02712
G1 X114.962 Y99.499 E.03407
G1 X115.99 Y99.006 E.03575
G1 X117.009 Y98.717 E.03321
G1 X118.243 Y98.597 E.03887
G1 X119.25 Y98.674 E.03167
G1 X134.831 Y101.14 E.49461
G1 X135.726 Y101.386 E.0291
M73 P4 R3
G1 X136.682 Y101.938 E.03461
G1 X137.147 Y102.368 E.01986
G1 X137.537 Y102.867 E.01986
G1 X137.843 Y103.422 E.01987
G1 X138.094 Y104.175 E.02489
G1 X138.183 Y104.802 E.01986
G1 X138.17 Y105.436 E.01988
G1 X137.906 Y106.507 E.03459
G1 X137.537 Y107.21 E.02489
G1 X136.806 Y108.037 E.03461
G1 X136.153 Y108.489 E.0249
G1 X135.576 Y108.749 E.01984
G1 X134.964 Y108.914 E.01987
G1 X118.832 Y111.454 E.51204
G1 X117.409 Y111.425 E.04463
G1 X116.569 Y111.257 E.02686
G1 X115.837 Y111.012 E.0242
G1 X114.832 Y110.5 E.03536
G1 X113.923 Y109.812 E.03574
G1 X113.149 Y108.975 E.03574
G1 X112.536 Y108.015 E.03571
G1 X112.101 Y106.961 E.03575
G1 X111.858 Y105.848 E.03572
G1 X111.814 Y104.741 E.03474
M73 P5 R3
G1 X111.937 Y103.759 E.03103
G1 X112.261 Y102.666 E.03574
G1 X112.774 Y101.647 E.03577
G1 X113.422 Y100.782 E.03389
M204 S1000
G1 X113.422 Y100.782 F10800
G1 X113.722 Y101.009
M204 S800
G1 F1200
G1 X113.744 Y100.98 E.00114
G1 X114.317 Y100.423 E.02506
G1 X115.089 Y99.862 E.02992
G1 X116.116 Y99.362 E.03581
G1 X117.081 Y99.087 E.03146
G1 X118.238 Y98.974 E.03645
G1 X119.191 Y99.047 E.02997
G1 X134.772 Y101.512 E.49461
G1 X135.592 Y101.738 E.02667
G1 X136.443 Y102.23 E.03082
G1 X136.865 Y102.618 E.01797
G1 X137.496 Y103.57 E.03581
G1 X137.728 Y104.265 E.02297
G1 X137.807 Y104.832 E.01795
G1 X137.794 Y105.405 E.01797
G1 X137.559 Y106.36 E.03084
G1 X137.219 Y107.009 E.02297
G1 X136.567 Y107.745 E.03083
G1 X135.964 Y108.162 E.02299
G1 X134.888 Y108.544 E.0358
G1 X118.79 Y111.079 E.51096
G1 X117.481 Y111.054 E.04105
M73 P6 R3
G1 X116.018 Y110.679 E.04735
G1 X115.059 Y110.197 E.03365
G1 X114.2 Y109.554 E.03364
G1 X113.467 Y108.77 E.03365
G1 X112.885 Y107.869 E.03363
G1 X112.47 Y106.879 E.03366
G1 X112.236 Y105.832 E.03364
G1 X112.19 Y104.76 E.03364
G1 X112.308 Y103.825 E.02955
G1 X112.615 Y102.797 E.03364
G1 X113.099 Y101.838 E.03368
G1 X113.686 Y101.056 E.03066
M204 S1000
G1 X113.686 Y101.056 F10800
G1 X113.968 Y101.322
M204 S800
G1 F1200
G1 X114.476 Y100.783 E.02322
G1 X115.272 Y100.192 E.03109
G1 X116.187 Y99.738 E.03203
G1 X117.153 Y99.457 E.03154
G1 X118.233 Y99.351 E.03403
G1 X119.132 Y99.419 E.02827
G1 X134.714 Y101.885 E.49464
G1 X135.308 Y102.033 E.01919
M73 P7 R3
G1 X135.815 Y102.264 E.01747
G1 X136.328 Y102.624 E.01965
G1 X136.689 Y102.988 E.01607
G1 X137.149 Y103.717 E.02703
G1 X137.362 Y104.355 E.02109
G1 X137.431 Y104.863 E.01607
G1 X137.418 Y105.375 E.01606
G1 X137.212 Y106.212 E.02703
G1 X136.9 Y106.808 E.02109
G1 X136.329 Y107.453 E.02701
G1 X135.458 Y107.987 E.03203
G1 X134.812 Y108.175 E.0211
G1 X119.021 Y110.673 E.50127
G1 X117.621 Y110.692 E.0439
G1 X116.27 Y110.37 E.04355
G1 X115.36 Y109.937 E.0316
G1 X114.542 Y109.351 E.03155
M73 P8 R3
G1 X113.839 Y108.63 E.03157
G1 X113.275 Y107.796 E.03157
G1 X112.867 Y106.875 E.03158
G1 X112.627 Y105.897 E.03157
G1 X112.564 Y104.892 E.03157
G1 X112.631 Y104.163 E.02295
G1 X112.839 Y103.283 E.02835
G1 X113.233 Y102.356 E.03158
G1 X113.775 Y101.526 E.03108
G1 X113.927 Y101.365 E.00694
M204 S1000
;WIPE_START
G1 F8640
G1 X113.968 Y101.322 E-.01372
G1 X114.476 Y100.783 E-.17102
G1 X115.272 Y100.192 E-.22892
G1 X116.187 Y99.738 E-.23585
G1 X116.813 Y99.556 E-.15049
;WIPE_END
G1 Z.6 F720
; printing object Servo Motor Micro  9g horn.stl id:0 copy 0
G1 X130.728 Y103.82 F10800
G1 Z.2 F720
G1 E.8 F2100
M204 S800
;TYPE:External perimeter
;WIDTH:0.449044
G1 F1200
G1 X131.113 Y103.872 E.01312
M204 S1000
;WIPE_START
G1 F8640
G1 X130.728 Y103.82 E-.0897
G1 X131.113 Y103.872 E-.0897
;WIPE_END
G1 E-.6206 F2100
G1 Z.6 F720
G1 X130.985 Y106.23 F10800
G1 Z.2 F720
G1 E.8 F2100
M204 S800
;WIDTH:0.47017
G1 F1200
G1 X130.583 Y106.26 E.01432
M204 S1000
;WIPE_START
G1 F8640
G1 X130.985 Y106.23 E-.09308
G1 X130.583 Y106.26 E-.09308
;WIPE_END
G1 E-.61384 F2100
G1 Z.6 F720
G1 X132.306 Y104.496 F10800
G1 Z.2 F720
G1 E.8 F2100
M204 S800
;TYPE:Perimeter
;WIDTH:0.419999
G1 F1200
G1 X132.775 Y104.616 E.01518
G1 X134.26 Y104.833 E.04706
G1 X134.396 Y104.9 E.00475
G1 X134.438 Y105.057 E.0051
G1 X134.433 Y105.124 E.00211
G1 X134.3 Y105.238 E.00549
G1 X132.817 Y105.456 E.047
G1 X132.316 Y105.578 E.01617
G1 X132.423 Y105.283 E.00984
G1 X132.443 Y104.917 E.01149
G1 X132.325 Y104.554 E.01197
M204 S1000
;WIPE_START
G1 F8640
M73 P9 R3
G1 X132.306 Y104.496 E-.01409
G1 X132.775 Y104.616 E-.11178
G1 X134.26 Y104.833 E-.34653
G1 X134.396 Y104.9 E-.03501
G1 X134.438 Y105.057 E-.03753
G1 X134.433 Y105.124 E-.01551
G1 X134.3 Y105.238 E-.04045
G1 X133.447 Y105.363 E-.1991
;WIPE_END
G1 Z.6 F720
G1 X131.113 Y103.872 F10800
G1 Z.2 F720
G1 E.8 F2100
M204 S800
;TYPE:External perimeter
;WIDTH:0.449044
G1 F1200
G1 X131.183 Y103.878 E.00237
;WIDTH:0.443959
G1 X131.843 Y103.947 E.02213
;WIDTH:0.419999
G1 X132.32 Y104.11 E.01581
G1 X132.83 Y104.243 E.01653
G1 X134.315 Y104.46 E.04706
G1 X134.488 Y104.511 E.00566
G1 X134.713 Y104.681 E.00884
G1 X134.826 Y104.945 E.009
G1 X134.814 Y105.087 E.00447
G1 X134.803 Y105.231 E.00453
G1 X134.661 Y105.446 E.00808
G1 X134.411 Y105.603 E.00926
G1 X132.81 Y105.839 E.05074
G1 X131.727 Y106.145 E.03529
;WIDTH:0.431857
G1 X130.992 Y106.228 E.02392
G1 X131.298 Y106.116 E.01054
;WIDTH:0.42198
G1 X131.617 Y105.879 E.01253
;WIDTH:0.419999
G1 X131.948 Y105.467 E.01657
G1 X132.06 Y105.183 E.00957
G1 X132.066 Y104.935 E.00778
G1 X131.872 Y104.468 E.01586
G1 X131.512 Y104.101 E.01612
;WIDTH:0.449044
G1 X131.165 Y103.902 E.01351
M204 S1000
;WIPE_START
G1 F8640
G1 X131.113 Y103.872 E-.01386
G1 X131.183 Y103.878 E-.01622
G1 X131.843 Y103.947 E-.15323
G1 X132.32 Y104.11 E-.11639
G1 X132.83 Y104.243 E-.1217
G1 X134.315 Y104.46 E-.34653
G1 X134.448 Y104.499 E-.03207
;WIPE_END
G1 Z.6 F720
G1 X120.887 Y106.926 F10800
G1 Z.2 F720
G1 E.8 F2100
M204 S800
;TYPE:Perimeter
;WIDTH:0.419999
G1 F1200
G1 X121.028 Y106.761 E.00681
G1 X121.154 Y106.539 E.008
G1 X121.39 Y105.998 E.01851
G1 X121.522 Y105.323 E.02156
G1 X121.509 Y104.636 E.02154
G1 X121.35 Y103.958 E.02183
G1 X121.136 Y103.502 E.01579
G1 X120.887 Y103.151 E.01349
G1 X121.373 Y103.237 E.01547
G1 X128.149 Y104.071 E.21406
G1 X128.593 Y104.115 E.01399
M73 P10 R3
G1 X129.335 Y104.136 E.02327
G1 X129.138 Y104.444 E.01146
G1 X129.053 Y104.681 E.00789
G1 X129.004 Y105.192 E.0161
G1 X129.171 Y105.697 E.01668
G1 X129.329 Y105.942 E.00914
G1 X128.844 Y105.941 E.01521
G1 X128.321 Y105.985 E.01646
G1 X121.833 Y106.784 E.20496
G1 X120.946 Y106.918 E.02813
M73 P10 R2
M204 S1000
G1 X120.946 Y106.918 F10800
G1 X120.351 Y107.457
M204 S800
;TYPE:External perimeter
G1 F1200
G1 X120.32 Y107.465 E.001
;WIDTH:0.426614
G1 X119.792 Y107.822 E.02033
G1 X119.28 Y108.05 E.01788
;WIDTH:0.426271
G1 X118.731 Y108.185 E.01802
;WIDTH:0.424375
G1 X118.171 Y108.223 E.0178
;WIDTH:0.421141
G1 X117.607 Y108.159 E.01785
;WIDTH:0.423837
G1 X117.072 Y107.996 E.01771
;WIDTH:0.425958
G1 X116.569 Y107.741 E.01796
;WIDTH:0.426893
G1 X116.117 Y107.401 E.01806
G1 X115.733 Y106.987 E.01803
;WIDTH:0.425473
G1 X115.429 Y106.516 E.01783
;WIDTH:0.42298
G1 X115.204 Y105.968 E.01872
;WIDTH:0.41945
G1 X115.087 Y105.399 E.01819
;WIDTH:0.424985
G1 X115.071 Y104.882 E.01643
;WIDTH:0.426677
G1 X115.149 Y104.323 E.01801
G1 X115.324 Y103.787 E.01799
;WIDTH:0.426323
G1 X115.589 Y103.291 E.01793
;WIDTH:0.424391
G1 X115.938 Y102.848 E.01789
;WIDTH:0.421256
G1 X116.424 Y102.433 E.0201
;WIDTH:0.417736
G1 X117 Y102.117 E.02048
;WIDTH:0.415133
G1 X117.629 Y101.923 E.02037
;WIDTH:0.420291
G1 X118.212 Y101.854 E.01842
;WIDTH:0.424547
G1 X118.765 Y101.898 E.0176
;WIDTH:0.426258
G1 X119.311 Y102.039 E.01797
;WIDTH:0.426708
G1 X119.827 Y102.275 E.01811
G1 X120.382 Y102.641 E.02122
;WIDTH:0.421229
G1 X120.915 Y102.773 E.01727
;WIDTH:0.419999
G1 X121.419 Y102.862 E.01605
G1 X128.375 Y103.719 E.21975
G1 X128.892 Y103.761 E.01626
G1 X129.415 Y103.757 E.0164
G1 X129.926 Y103.711 E.01609
;WIDTH:0.439688
G1 X130.728 Y103.82 E.0267
G1 X130.322 Y103.91 E.01372
;WIDTH:0.419999
G1 X129.725 Y104.263 E.02175
G1 X129.456 Y104.647 E.0147
G1 X129.38 Y105.115 E.01487
M73 P11 R2
G1 X129.524 Y105.567 E.01487
G1 X129.719 Y105.81 E.00977
G1 X130.161 Y106.096 E.01651
;WIDTH:0.445085
G1 X130.372 Y106.178 E.00757
;WIDTH:0.47017
G1 X130.583 Y106.26 E.00804
G1 X130.51 Y106.274 E.00264
;WIDTH:0.460825
G1 X129.903 Y106.369 E.02135
;WIDTH:0.419999
G1 X129.398 Y106.319 E.01591
G1 X128.875 Y106.317 E.0164
G1 X128.367 Y106.359 E.01598
G1 X121.409 Y107.217 E.21982
G1 X120.902 Y107.307 E.01615
G1 X120.409 Y107.441 E.01602
M204 S1000
;WIPE_START
G1 F8640
G1 X120.351 Y107.457 E-.01389
G1 X120.32 Y107.465 E-.00739
G1 X119.792 Y107.822 E-.14717
G1 X119.28 Y108.05 E-.12941
G1 X118.731 Y108.185 E-.13054
G1 X118.171 Y108.223 E-.1296
G1 X117.607 Y108.159 E-.13106
G1 X117.147 Y108.019 E-.11094
;WIPE_END
G1 Z.6 F720
G1 X116.003 Y103.381 F10800
G1 Z.2 F720
G1 E.8 F2100
M204 S800
;WIDTH:0.416672
G1 F1200
G1 X116.15 Y103.175 E.00786
;WIDTH:0.420194
G1 X116.582 Y102.777 E.01843
G1 X117.09 Y102.482 E.01843
;WIDTH:0.416844
G1 X117.647 Y102.297 E.01825
;WIDTH:0.421478
G1 X118.205 Y102.231 E.01769
G1 X118.814 Y102.289 E.01926
;WIDTH:0.416298
G1 X119.373 Y102.467 E.01821
;WIDTH:0.414617
G1 X119.883 Y102.757 E.01813
;WIDTH:0.420545
G1 X120.345 Y103.101 E.01809
G1 X120.74 Y103.561 E.01904
;WIDTH:0.419999
G1 X121.008 Y104.118 E.01938
G1 X121.141 Y104.715 E.01918
G1 X121.145 Y105.323 E.01906
G1 X121.022 Y105.919 E.01908
G1 X120.812 Y106.379 E.01585
G1 X120.55 Y106.74 E.01399
G1 X120.344 Y106.976 E.00982
;WIDTH:0.419755
G1 X119.902 Y107.307 E.0173
;WIDTH:0.414576
G1 X119.409 Y107.595 E.01764
;WIDTH:0.414734
G1 X118.852 Y107.78 E.01815
;WIDTH:0.416786
G1 X118.269 Y107.846 E.01824
;WIDTH:0.420307
G1 X117.685 Y107.791 E.01841
G1 X117.125 Y107.611 E.01846
;WIDTH:0.416768
G1 X116.616 Y107.321 E.01821
;WIDTH:0.41491
G1 X116.177 Y106.931 E.01816
;WIDTH:0.425473
G1 X116.048 Y106.77 E.00656
G1 X115.778 Y106.364 E.01551
;WIDTH:0.42298
G1 X115.575 Y105.9 E.01601
;WIDTH:0.422105
G1 X115.466 Y105.394 E.01632
G1 X115.456 Y104.765 E.01983
;WIDTH:0.415668
G1 X115.574 Y104.19 E.01819
;WIDTH:0.414826
G1 X115.81 Y103.652 E.01817
;WIDTH:0.416672
G1 X115.968 Y103.43 E.00847
M204 S1000
;WIPE_START
G1 F8640
G1 X116.003 Y103.381 E-.0139
G1 X116.15 Y103.175 E-.05843
G1 X116.582 Y102.777 E-.13563
G1 X117.09 Y102.482 E-.13564
G1 X117.647 Y102.297 E-.13552
G1 X118.205 Y102.231 E-.12974
G1 X118.814 Y102.289 E-.14126
M73 P12 R2
G1 X119.02 Y102.354 E-.04988
;WIPE_END
G1 Z.6 F720
G1 X128.151 Y104.242 F10800
G1 Z.2 F720
G1 E.8 F2100
M204 S800
;TYPE:Solid infill
;WIDTH:0.421273
G1 F1200
G1 X128.701 Y104.793 E.02449
G1 X128.662 Y105.188 E.01249
G1 X128.688 Y105.315 E.00408
G1 X127.735 Y104.362 E.0424
G1 X127.125 Y104.287 E.01934
G1 X128.473 Y105.635 E.05997
G1 X127.987 Y105.684 E.01537
G1 X126.515 Y104.212 E.06549
G1 X125.905 Y104.137 E.01934
G1 X127.511 Y105.743 E.07145
G1 X127.034 Y105.801 E.01512
G1 X125.294 Y104.062 E.07739
G1 X124.684 Y103.986 E.01934
G1 X126.558 Y105.86 E.08338
G1 X126.081 Y105.918 E.01512
G1 X124.074 Y103.911 E.08929
G1 X123.464 Y103.836 E.01934
G1 X125.605 Y105.977 E.09526
G1 X125.128 Y106.036 E.01512
G1 X122.853 Y103.761 E.10122
G1 X122.243 Y103.686 E.01934
G1 X124.652 Y106.094 E.10716
G1 X124.175 Y106.153 E.01512
M73 P13 R2
G1 X121.633 Y103.611 E.1131
G1 X121.559 Y103.601 E.00235
G1 X121.72 Y104 E.01354
G1 X121.784 Y104.297 E.00956
G1 X123.699 Y106.211 E.08518
G1 X123.222 Y106.27 E.01512
G1 X121.861 Y104.909 E.06055
G1 X121.851 Y105.433 E.01649
G1 X122.746 Y106.328 E.03982
G1 X122.269 Y106.387 E.01512
G1 X121.763 Y105.88 E.02253
G1 X121.72 Y106.078 E.00637
G1 X121.642 Y106.295 E.00725
G1 X121.945 Y106.598 E.01348
M204 S1000
;WIPE_START
G1 F8640
G1 X121.642 Y106.295 E-.09894
G1 X121.72 Y106.078 E-.05324
G1 X121.763 Y105.88 E-.04678
G1 X122.269 Y106.387 E-.1654
G1 X122.746 Y106.328 E-.11098
G1 X121.851 Y105.433 E-.29226
G1 X121.854 Y105.293 E-.0324
;WIPE_END
G1 Z.6 F720
G1 X133.256 Y105.226 F10800
G1 Z.2 F720
G1 E.8 F2100
M204 S800
;WIDTH:0.424824
G1 F1200
G1 X132.819 Y104.789 E.01963
M204 S1000
M106 S84.15
;LAYER_CHANGE
;Z:0.35
;HEIGHT:0.15
;BEFORE_LAYER_CHANGE
G92 E0.0
;0.35


;WIPE_START
G1 F8640
G1 X133.256 Y105.226 E-.1427
;WIPE_END
G1 E-.6573 F2100
G1 Z.35 F720
;AFTER_LAYER_CHANGE
;0.35
M104 S210 ; set temperature
; stop printing object Servo Motor Micro  9g horn.stl id:0 copy 0
G1 Z.75
G1 X133.432 Y100.918 F10800
G1 Z.35 F720
G1 E.8 F2100
;TYPE:Skirt/Brim
;WIDTH:0.42
G1 F2292
G1 X134.831 Y101.14 E.03426
G1 X135.726 Y101.386 E.02245
G1 X136.682 Y101.938 E.0267
G1 X137.147 Y102.368 E.01532
G1 X137.537 Y102.867 E.01532
G1 X137.843 Y103.422 E.01533
G1 X138.094 Y104.175 E.0192
G1 X138.183 Y104.802 E.01532
G1 X138.17 Y105.436 E.01534
G1 X137.906 Y106.507 E.02668
G1 X137.537 Y107.21 E.0192
G1 X136.806 Y108.037 E.02669
G1 X136.153 Y108.489 E.01921
G1 X135.576 Y108.749 E.01531
G1 X134.964 Y108.914 E.01533
M73 P14 R2
G1 X118.832 Y111.454 E.39496
G1 X117.409 Y111.425 E.03442
G1 X116.569 Y111.257 E.02072
G1 X115.837 Y111.012 E.01867
G1 X114.832 Y110.5 E.02728
G1 X113.923 Y109.812 E.02757
G1 X113.149 Y108.975 E.02757
G1 X112.536 Y108.015 E.02755
G1 X112.101 Y106.961 E.02758
G1 X111.858 Y105.848 E.02755
G1 X111.814 Y104.741 E.02679
G1 X111.937 Y103.759 E.02394
G1 X112.261 Y102.666 E.02757
G1 X112.774 Y101.647 E.02759
G1 X113.458 Y100.734 E.02759
G1 X114.078 Y100.131 E.02092
G1 X114.962 Y99.499 E.02628
G1 X115.99 Y99.006 E.02757
G1 X117.009 Y98.717 E.02562
G1 X118.243 Y98.597 E.02998
G1 X119.25 Y98.674 E.02443
G1 X133.373 Y100.909 E.34581
G1 X133.373 Y100.909 F10800
G1 X133.314 Y101.281
G1 F2292
G1 X134.772 Y101.512 E.0357
G1 X135.592 Y101.738 E.02057
G1 X136.443 Y102.23 E.02377
G1 X136.865 Y102.618 E.01386
G1 X137.496 Y103.57 E.02762
G1 X137.728 Y104.265 E.01772
G1 X137.807 Y104.832 E.01385
G1 X137.794 Y105.405 E.01386
G1 X137.559 Y106.36 E.02379
G1 X137.219 Y107.009 E.01772
G1 X136.567 Y107.745 E.02378
G1 X135.964 Y108.162 E.01773
G1 X134.888 Y108.544 E.02761
G1 X118.79 Y111.079 E.39413
G1 X117.481 Y111.054 E.03166
M73 P15 R2
G1 X116.018 Y110.679 E.03653
G1 X115.059 Y110.197 E.02596
G1 X114.2 Y109.554 E.02595
G1 X113.467 Y108.77 E.02596
G1 X112.885 Y107.869 E.02594
G1 X112.47 Y106.879 E.02596
G1 X112.236 Y105.832 E.02595
G1 X112.19 Y104.76 E.02595
G1 X112.308 Y103.825 E.02279
