; generated by PrusaSlicer 2.8.1+win64 on 2024-10-28 at 23:34:50 UTC


;
;
; 

; external perimeters extrusion width = 0.45mm
; perimeters extrusion width = 0.45mm
; infill extrusion width = 0.45mm
; solid infill extrusion width = 0.45mm
; top infill extrusion width = 0.45mm
; support material extrusion width = 0.35mm
; first layer extrusion width = 0.42mm

M73 P0 R14
M201 X9000 Y9000 Z500 E10000 ; sets maximum accelerations, mm/sec^2
M203 X500 Y500 Z12 E120 ; sets maximum feedrates, mm / sec
M204 S2000 T1500 ; sets acceleration (S) and retract acceleration (R), mm/sec^2
M205 X10.00 Y10.00 Z0.20 E4.50 ; sets the jerk limits, mm/sec
M205 S0 T0 ; sets the minimum extruding and travel feed rate, mm/sec

; printing object servo_arm_20mm.stl id:0 copy 0
; stop printing object servo_arm_20mm.stl id:0 copy 0

;TYPE:Custom
M862.3 P "MK2.5S" ; printer model check
M862.1 P0.4 ; nozzle diameter check
M115 U3.14.0 ; tell printer latest fw version
G90 ; use absolute coordinates
M83 ; extruder relative mode
M104 S215 ; set extruder temp
M140 S60 ; set bed temp
M190 S60 ; wait for bed temp
M109 S215 ; wait for extruder temp
G28 W ; home all without mesh bed level
G80 X112.284 Y83.053 W25.4311 H44.436 ; mesh bed levelling

G1 Z0.2 F720
G1 Y-3 F1000 ; go outside print area
G92 E0
G1 X60 E9 F1000 ; intro line
G1 X100 E12.5 F1000 ; intro line

G92 E0
G21 ; set units to millimeters
G90 ; use absolute coordinates
M83 ; use relative distances for extrusion

M900 K0.05 ; Filament gcode LA 1.5
M900 K30 ; Filament gcode LA 1.0




M107
;LAYER_CHANGE
;Z:0.2
;HEIGHT:0.2
G1 E-.8 F2100
G1 Z.6 F720
G1 X114.975 Y88.274 F10800
G1 Z.2 F720
G1 E.8 F2100
M204 S800
;TYPE:Skirt/Brim
;WIDTH:0.42
G1 F1200
G1 X115.433 Y87.678 E.02357
G1 X116.243 Y86.807 E.03729
G1 X117.133 Y86.017 E.03731
G1 X118.297 Y85.184 E.04488
G1 X119.351 Y84.586 E.038
G1 X120.442 Y84.099 E.03746
G1 X121.569 Y83.719 E.03729
G1 X122.728 Y83.448 E.03732
G1 X123.919 Y83.288 E.03768
G1 X125.135 Y83.242 E.03815
G1 X126.31 Y83.309 E.0369
G1 X127.486 Y83.49 E.03731
G1 X128.639 Y83.781 E.03729
G1 X129.76 Y84.18 E.03731
G1 X130.839 Y84.684 E.03734
G1 X131.882 Y85.299 E.03796
G1 X132.848 Y86.002 E.03746
G1 X133.825 Y86.876 E.0411
G1 X134.551 Y87.659 E.03348
G1 X135.278 Y88.602 E.03733
G1 X135.911 Y89.608 E.03727
G1 X136.505 Y90.805 E.0419
G1 X136.888 Y91.804 E.03355
G1 X137.236 Y93.069 E.04114
G1 X137.437 Y94.241 E.03728
G1 X137.526 Y96.072 E.05748
G1 X136.5 Y116.611 E.64479
G1 X136.213 Y118.466 E.05885
M73 P1 R14
G1 X135.682 Y120.119 E.05444
G1 X134.838 Y121.789 E.05867
G1 X133.91 Y123.095 E.05023
G1 X132.907 Y124.164 E.04596
G1 X131.409 Y125.361 E.06012
G1 X130.017 Y126.156 E.05026
G1 X128.144 Y126.869 E.06284
G1 X126.575 Y127.196 E.05025
G1 X124.685 Y127.3 E.05935
G1 X123.333 Y127.185 E.04254
G1 X121.767 Y126.842 E.05026
G1 X120.02 Y126.174 E.05864
G1 X118.515 Y125.308 E.05444
G1 X117.042 Y124.118 E.05937
G1 X115.948 Y122.92 E.05087
G1 X114.849 Y121.244 E.06284
G1 X114.187 Y119.784 E.05026
G1 X113.657 Y117.851 E.06284
G1 X113.493 Y116.516 E.04217
G1 X112.473 Y95.453 E.66119
G1 X112.574 Y94.145 E.04113
G1 X112.784 Y92.974 E.0373
G1 X113.105 Y91.828 E.03731
G1 X113.533 Y90.717 E.03733
G1 X114.072 Y89.638 E.03782
G1 X114.708 Y88.622 E.03758
G1 X114.939 Y88.321 E.0119
M204 S1000
G1 X114.939 Y88.321 F10800
G1 X115.237 Y88.551
M204 S800
G1 F1200
G1 X115.718 Y87.924 E.02478
G1 X116.504 Y87.08 E.03616
G1 X117.367 Y86.313 E.0362
G1 X118.502 Y85.501 E.04376
G1 X119.524 Y84.921 E.03684
G1 X120.582 Y84.449 E.03632
G1 X121.676 Y84.081 E.03619
G1 X122.8 Y83.819 E.03619
G1 X123.955 Y83.663 E.03654
G1 X125.134 Y83.619 E.03699
G1 X126.274 Y83.685 E.0358
G1 X127.415 Y83.86 E.03619
G1 X128.533 Y84.143 E.03616
G1 X129.62 Y84.53 E.03618
G1 X130.666 Y85.019 E.0362
G1 X131.678 Y85.616 E.03684
G1 X132.614 Y86.298 E.03631
G1 X133.552 Y87.136 E.03944
G1 X134.266 Y87.906 E.03292
G1 X134.97 Y88.82 E.03617
G1 X135.585 Y89.797 E.0362
G1 X136.154 Y90.944 E.04015
G1 X136.531 Y91.927 E.03301
G1 X136.866 Y93.14 E.03946
G1 X137.062 Y94.277 E.03618
G1 X137.149 Y96.071 E.05632
G1 X136.135 Y116.45 E.63976
G1 X135.844 Y118.388 E.06145
G1 X135.38 Y119.861 E.04842
G1 X134.511 Y121.601 E.06098
G1 X133.616 Y122.859 E.04841
G1 X132.654 Y123.884 E.04408
G1 X131.203 Y125.045 E.05827
G1 X129.863 Y125.812 E.04841
G1 X128.045 Y126.505 E.061
G1 X126.534 Y126.822 E.04841
G1 X124.684 Y126.923 E.05809
G1 X123.392 Y126.812 E.04066
G1 X121.883 Y126.484 E.04842
G1 X120.173 Y125.829 E.05741
G1 X118.736 Y125.003 E.05197
G1 X117.294 Y123.838 E.05812
G1 X116.242 Y122.683 E.04898
G1 X115.175 Y121.055 E.06103
G1 X114.539 Y119.649 E.04838
G1 X114.026 Y117.772 E.06101
G1 X113.869 Y116.487 E.04059
G1 X112.85 Y95.452 E.66031
G1 X112.947 Y94.197 E.03947
M73 P2 R14
G1 X113.151 Y93.061 E.03619
G1 X113.461 Y91.95 E.03617
G1 X113.876 Y90.873 E.03619
G1 X114.399 Y89.825 E.03672
G1 X115.016 Y88.84 E.03644
G1 X115.201 Y88.598 E.00955
M204 S1000
;WIPE_START
G1 F8640
G1 X115.237 Y88.551 E-.01367
G1 X115.718 Y87.924 E-.18247
G1 X116.504 Y87.08 E-.2663
G1 X117.367 Y86.313 E-.2666
G1 X117.617 Y86.134 E-.07096
;WIPE_END
G1 Z.6 F720
G1 X117.087 Y90.198 F10800
G1 Z.2 F720
G1 E.8 F2100
M204 S800
G1 F1200
G1 X118.313 Y88.775 E.05889
G1 X119.794 Y87.612 E.05904
G1 X121.476 Y86.758 E.05915
G1 X123.284 Y86.247 E.05891
G1 X124.221 Y86.125 E.02963
G1 X125.93 Y86.138 E.05359
G1 X127.57 Y86.441 E.05229
G1 X129.288 Y87.095 E.05764
G1 X130.866 Y88.074 E.05823
G1 X132.211 Y89.316 E.0574
G1 X133.312 Y90.812 E.05824
G1 X134.1 Y92.474 E.05767
G1 X134.562 Y94.267 E.05805
G1 X134.674 Y96.04 E.0557
G1 X133.666 Y116.266 E.63496
G1 X133.383 Y118.021 E.05574
G1 X133.063 Y118.988 E.03194
G1 X132.656 Y119.863 E.03026
G1 X131.754 Y121.225 E.05122
G1 X131.221 Y121.826 E.02519
G1 X130.382 Y122.582 E.03541
G1 X129.689 Y123.078 E.02672
G1 X128.21 Y123.837 E.05212
G1 X127.357 Y124.127 E.02825
G1 X126.207 Y124.369 E.03685
G1 X124.692 Y124.448 E.04757
G1 X123.469 Y124.317 E.03857
G1 X121.989 Y123.914 E.04809
G1 X120.404 Y123.136 E.05536
G1 X119.565 Y122.54 E.03227
G1 X118.352 Y121.355 E.05317
G1 X117.7 Y120.468 E.03452
G1 X116.943 Y119.002 E.05173
G1 X116.62 Y118.034 E.032
G1 X116.334 Y116.267 E.05612
G1 X115.325 Y95.473 E.65275
G1 X115.565 Y93.609 E.05893
G1 X116.162 Y91.824 E.05901
G1 X117.058 Y90.25 E.05679
M204 S1000
G1 X117.058 Y90.25 F10800
G1 X117.384 Y90.436
M204 S800
G1 F1200
G1 X117.4 Y90.408 E.00101
G1 X118.579 Y89.042 E.05658
G1 X120.004 Y87.926 E.05675
G1 X121.605 Y87.112 E.05631
G1 X123.342 Y86.619 E.05661
G1 X125.147 Y86.472 E.05678
G1 X126.63 Y86.614 E.04671
G1 X127.477 Y86.806 E.02723
G1 X129.128 Y87.437 E.05542
G1 X130.645 Y88.379 E.05599
G1 X131.936 Y89.574 E.05516
G1 X132.992 Y91.012 E.05594
G1 X133.749 Y92.611 E.05547
G1 X134.191 Y94.334 E.05577
G1 X134.297 Y96.039 E.05356
G1 X133.29 Y116.242 E.63424
G1 X133.017 Y117.932 E.05368
G1 X132.708 Y118.858 E.03061
G1 X132.327 Y119.678 E.02835
G1 X131.466 Y120.981 E.04897
G1 X130.96 Y121.553 E.02394
G1 X130.138 Y122.295 E.03472
G1 X129.478 Y122.765 E.0254
G1 X128.063 Y123.49 E.04985
G1 X127.268 Y123.76 E.02633
G1 X126.161 Y123.995 E.03548
G1 X124.699 Y124.071 E.0459
G1 X123.541 Y123.947 E.03652
G1 X122.113 Y123.558 E.04641
M73 P3 R14
G1 X120.596 Y122.812 E.053
G1 X119.807 Y122.251 E.03035
G1 X118.636 Y121.106 E.05135
G1 X118.022 Y120.271 E.0325
G1 X117.29 Y118.855 E.04998
G1 X116.981 Y117.925 E.03073
G1 X116.71 Y116.243 E.05342
G1 X115.702 Y95.478 E.65184
G1 X115.935 Y93.685 E.05669
G1 X116.51 Y91.97 E.05671
G1 X117.355 Y90.488 E.05349
M204 S1000
G1 X117.355 Y90.488 F10800
G1 X117.68 Y90.673
M204 S800
G1 F1200
G1 X117.704 Y90.632 E.00149
G1 X118.833 Y89.32 E.05427
G1 X120.2 Y88.248 E.05447
G1 X121.735 Y87.466 E.05401
G1 X123.401 Y86.992 E.05431
G1 X124.264 Y86.878 E.02729
G1 X125.858 Y86.889 E.04998
G1 X127.385 Y87.172 E.04869
G1 X128.968 Y87.778 E.05315
G1 X130.423 Y88.684 E.05374
G1 X131.66 Y89.831 E.05289
G1 X132.673 Y91.212 E.0537
G1 X133.397 Y92.747 E.05321
G1 X133.82 Y94.401 E.05353
G1 X133.92 Y96.038 E.05142
G1 X132.914 Y116.217 E.63348
G1 X132.651 Y117.842 E.05161
G1 X132.354 Y118.728 E.0293
G1 X131.605 Y120.154 E.0505
G1 X130.7 Y121.28 E.04529
G1 X129.893 Y122.008 E.03408
G1 X128.616 Y122.826 E.04755
G1 X127.178 Y123.394 E.04848
G1 X126.114 Y123.621 E.03411
G1 X124.707 Y123.694 E.04417
G1 X123.613 Y123.577 E.0345
G1 X122.237 Y123.202 E.04472
G1 X120.789 Y122.488 E.05062
G1 X120.035 Y121.95 E.02904
G1 X118.92 Y120.858 E.04893
G1 X118.332 Y120.056 E.03118
G1 X117.637 Y118.708 E.04755
G1 X117.342 Y117.817 E.02943
G1 X117.086 Y116.219 E.05074
G1 X116.079 Y95.484 E.6509
G1 X116.3 Y93.778 E.05394
G1 X116.851 Y92.132 E.05442
G1 X117.651 Y90.725 E.05075
M204 S1000
G1 X117.651 Y90.725 F10800
G1 X117.977 Y90.912
M204 S800
G1 F1200
G1 X118.017 Y90.842 E.00253
G1 X119.1 Y89.587 E.05198
G1 X120.41 Y88.561 E.05217
G1 X121.881 Y87.814 E.05173
G1 X123.477 Y87.361 E.05202
G1 X125.123 Y87.226 E.05178
G1 X126.511 Y87.359 E.04372
G1 X127.292 Y87.538 E.02512
G1 X128.807 Y88.12 E.05089
G1 X130.2 Y88.988 E.05146
G1 X131.385 Y90.089 E.05072
G1 X132.353 Y91.412 E.0514
G1 X133.045 Y92.883 E.05097
G1 X133.448 Y94.467 E.05125
G1 X133.543 Y96.036 E.04928
G1 X132.537 Y116.193 E.6328
G1 X132.284 Y117.751 E.04949
G1 X132 Y118.598 E.02801
G1 X131.285 Y119.954 E.04806
G1 X130.439 Y121.008 E.04238
G1 X129.649 Y121.72 E.03335
M73 P4 R14
G1 X128.436 Y122.494 E.04512
G1 X127.088 Y123.028 E.04546
G1 X126.067 Y123.247 E.03274
G1 X124.715 Y123.317 E.04245
G1 X123.685 Y123.206 E.03248
G1 X122.361 Y122.845 E.04303
G1 X120.982 Y122.164 E.04822
G1 X120.262 Y121.65 E.02774
G1 X119.205 Y120.611 E.04647
G1 X118.642 Y119.842 E.02988
G1 X117.985 Y118.561 E.04514
G1 X117.704 Y117.709 E.02813
G1 X117.463 Y116.195 E.04807
G1 X116.456 Y95.49 E.64996
G1 X116.67 Y93.854 E.05173
G1 X117.199 Y92.278 E.05212
G1 X117.948 Y90.964 E.04742
M204 S1000
G1 X117.948 Y90.964 F10800
G1 X118.274 Y91.15
M204 S800
G1 F1200
G1 X118.33 Y91.053 E.00351
G1 X119.354 Y89.866 E.04915
G1 X120.605 Y88.884 E.04987
G1 X122.01 Y88.168 E.04944
G1 X123.536 Y87.734 E.04974
G1 X124.309 Y87.631 E.02445
G1 X125.786 Y87.64 E.04631
G1 X127.198 Y87.903 E.04503
G1 X128.647 Y88.461 E.04868
G1 X129.978 Y89.293 E.04922
G1 X131.108 Y90.345 E.04841
G1 X132.033 Y91.612 E.04919
G1 X132.693 Y93.018 E.0487
G1 X133.077 Y94.534 E.04903
G1 X133.166 Y96.034 E.04711
G1 X132.161 Y116.169 E.6321
G1 X131.923 Y117.642 E.04678
G1 X131.654 Y118.449 E.02667
G1 X130.976 Y119.738 E.04567
G1 X130.163 Y120.75 E.0407
G1 X129.422 Y121.419 E.0313
G1 X128.257 Y122.162 E.04332
G1 X126.977 Y122.667 E.04314
G1 X126.02 Y122.872 E.03069
G1 X124.723 Y122.94 E.04072
G1 X123.757 Y122.836 E.03046
G1 X122.486 Y122.49 E.0413
G1 X121.175 Y121.84 E.04588
G1 X120.49 Y121.349 E.02643
G1 X119.49 Y120.363 E.04403
G1 X118.953 Y119.628 E.02854
G1 X118.333 Y118.415 E.04271
G1 X118.066 Y117.601 E.02686
G1 X117.839 Y116.17 E.04543
G1 X116.833 Y95.497 E.64895
G1 X117.039 Y93.931 E.04952
G1 X117.546 Y92.424 E.04985
G1 X118.244 Y91.202 E.04412
M204 S1000
G1 X118.244 Y91.202 F10800
G1 X118.571 Y91.389
M204 S800
G1 F1200
G1 X118.643 Y91.263 E.00455
G1 X119.621 Y90.133 E.04686
G1 X120.815 Y89.197 E.04757
G1 X122.156 Y88.516 E.04716
G1 X123.612 Y88.103 E.04745
G1 X125.099 Y87.98 E.04678
G1 X126.391 Y88.104 E.0407
G1 X127.105 Y88.268 E.02297
G1 X128.485 Y88.802 E.0464
G1 X129.755 Y89.597 E.04698
G1 X130.832 Y90.602 E.04619
G1 X131.712 Y91.811 E.04689
G1 X132.341 Y93.153 E.04647
G1 X132.705 Y94.599 E.04675
G1 X132.789 Y96.032 E.04501
G1 X131.785 Y116.144 E.63138
G1 X131.562 Y117.533 E.04411
G1 X131.307 Y118.301 E.02537
G1 X130.666 Y119.524 E.04329
G1 X129.887 Y120.493 E.03898
G1 X129.195 Y121.118 E.02924
M73 P5 R14
G1 X128.093 Y121.823 E.04102
G1 X126.866 Y122.306 E.04135
G1 X125.972 Y122.498 E.02867
G1 X124.731 Y122.563 E.03896
G1 X123.828 Y122.466 E.02848
G1 X122.61 Y122.134 E.03958
G1 X121.369 Y121.516 E.04347
G1 X120.719 Y121.049 E.02509
G1 X119.775 Y120.117 E.04159
G1 X119.265 Y119.415 E.02721
G1 X118.681 Y118.27 E.0403
G1 X118.427 Y117.494 E.0256
G1 X118.215 Y116.146 E.04279
G1 X117.21 Y95.503 E.64801
G1 X117.408 Y94.007 E.04732
G1 X117.894 Y92.571 E.04753
G1 X118.541 Y91.441 E.04083
M204 S1000
G1 X118.541 Y91.441 F10800
G1 X118.866 Y91.627
M204 S800
G1 F1200
G1 X118.945 Y91.489 E.00499
G1 X119.887 Y90.4 E.04515
G1 X121.011 Y89.52 E.04476
G1 X122.286 Y88.87 E.04487
G1 X123.671 Y88.476 E.04515
G1 X124.372 Y88.383 E.02217
G1 X125.714 Y88.39 E.04208
G1 X127.011 Y88.634 E.04138
G1 X128.324 Y89.143 E.04415
G1 X129.531 Y89.901 E.04469
G1 X130.555 Y90.858 E.04395
G1 X131.392 Y92.01 E.04465
G1 X131.989 Y93.288 E.04423
G1 X132.334 Y94.665 E.04451
G1 X132.412 Y96.03 E.04287
G1 X131.408 Y116.12 E.63069
G1 X131.201 Y117.424 E.0414
G1 X130.96 Y118.153 E.02407
G1 X130.356 Y119.309 E.04089
G1 X129.612 Y120.235 E.03724
G1 X128.967 Y120.817 E.02724
G1 X127.914 Y121.491 E.0392
G1 X126.756 Y121.946 E.03901
G1 X125.925 Y122.124 E.02665
M73 P5 R13
G1 X124.74 Y122.186 E.03721
G1 X123.9 Y122.095 E.02649
G1 X122.736 Y121.778 E.03783
G1 X121.564 Y121.193 E.04107
G1 X120.948 Y120.749 E.02381
G1 X120.06 Y119.87 E.03918
G1 X119.576 Y119.203 E.02584
G1 X119.029 Y118.125 E.0379
G1 X118.789 Y117.388 E.0243
G1 X118.592 Y116.122 E.04017
G1 X117.587 Y95.51 E.64704
G1 X117.778 Y94.084 E.04511
G1 X118.234 Y92.733 E.04471
G1 X118.836 Y91.679 E.03806
M204 S1000
G1 X118.836 Y91.679 F10800
G1 X119.163 Y91.866
M204 S800
G1 F1200
G1 X119.258 Y91.699 E.00602
G1 X120.141 Y90.678 E.04232
G1 X121.207 Y89.842 E.04248
G1 X122.416 Y89.224 E.04257
G1 X123.73 Y88.848 E.04285
G1 X125.076 Y88.734 E.04235
G1 X126.27 Y88.848 E.03761
G1 X126.916 Y88.999 E.0208
G1 X128.162 Y89.483 E.04191
G1 X129.308 Y90.205 E.04247
G1 X130.278 Y91.114 E.04168
G1 X131.071 Y92.209 E.04239
G1 X131.636 Y93.422 E.04196
G1 X131.962 Y94.729 E.04224
G1 X132.034 Y96.027 E.04076
G1 X131.032 Y116.096 E.63003
G1 X130.84 Y117.316 E.03872
G1 X130.613 Y118.005 E.02275
G1 X130.045 Y119.095 E.03854
G1 X129.336 Y119.977 E.03548
G1 X128.739 Y120.516 E.02522
G1 X127.751 Y121.151 E.03682
G1 X126.646 Y121.585 E.03722
G1 X125.877 Y121.75 E.02466
G1 X124.749 Y121.808 E.03541
G1 X123.971 Y121.725 E.02453
G1 X122.861 Y121.422 E.03608
G1 X121.759 Y120.87 E.03864
G1 X121.177 Y120.45 E.0225
G1 X120.346 Y119.624 E.03674
G1 X119.898 Y119.007 E.02391
M73 P6 R13
G1 X119.377 Y117.98 E.03611
G1 X119.151 Y117.282 E.023
G1 X118.968 Y116.098 E.03756
G1 X117.964 Y95.516 E.6461
G1 X118.147 Y94.162 E.04284
G1 X118.582 Y92.88 E.04245
G1 X119.133 Y91.918 E.03476
M204 S1000
G1 X119.133 Y91.918 F10800
G1 X119.459 Y92.106
M204 S800
G1 F1200
G1 X119.571 Y91.911 E.00705
G1 X120.408 Y90.945 E.04008
G1 X121.417 Y90.155 E.04018
G1 X122.562 Y89.572 E.04029
G1 X123.79 Y89.221 E.04005
G1 X124.419 Y89.135 E.01991
G1 X125.643 Y89.141 E.03838
G1 X126.821 Y89.364 E.03759
G1 X127.999 Y89.824 E.03965
G1 X129.083 Y90.508 E.04019
G1 X130.001 Y91.37 E.03948
G1 X130.75 Y92.407 E.04011
G1 X131.283 Y93.556 E.03971
G1 X131.591 Y94.794 E.04
G1 X131.657 Y96.024 E.03862
G1 X130.656 Y116.072 E.62937
G1 X130.478 Y117.209 E.03608
G1 X130.265 Y117.859 E.02145
G1 X129.735 Y118.88 E.03607
G1 X129.061 Y119.719 E.03374
G1 X128.511 Y120.216 E.02324
G1 X127.571 Y120.819 E.03502
G1 X126.536 Y121.224 E.03485
G1 X125.829 Y121.375 E.02267
G1 X124.758 Y121.431 E.03363
G1 X124.042 Y121.354 E.02258
G1 X123.003 Y121.073 E.03375
G1 X121.954 Y120.547 E.03679
G1 X121.422 Y120.163 E.02057
G1 X120.632 Y119.377 E.03494
G1 X120.221 Y118.811 E.02193
G1 X119.725 Y117.835 E.03433
G1 X119.518 Y117.196 E.02106
G1 X119.344 Y116.074 E.0356
G1 X118.341 Y95.523 E.64513
G1 X118.516 Y94.24 E.0406
G1 X118.929 Y93.027 E.04018
G1 X119.429 Y92.158 E.03144
M204 S1000
G1 X119.429 Y92.158 F10800
G1 X119.754 Y92.344
M204 S800
G1 F1200
G1 X119.873 Y92.136 E.00751
G1 X120.662 Y91.224 E.03781
G1 X121.613 Y90.478 E.0379
G1 X122.693 Y89.926 E.03803
G1 X123.851 Y89.593 E.03778
G1 X125.055 Y89.488 E.03789
G1 X126.147 Y89.593 E.0344
G1 X126.726 Y89.729 E.01865
G1 X127.837 Y90.164 E.03741
G1 X128.859 Y90.811 E.03793
G1 X129.723 Y91.625 E.03722
G1 X130.429 Y92.604 E.03785
G1 X130.93 Y93.689 E.03747
G1 X131.219 Y94.857 E.03773
