; generated by PrusaSlicer 2.8.1+win64 on 2024-10-28 at 00:49:04 UTC


;
;
; 

; external perimeters extrusion width = 0.45mm
; perimeters extrusion width = 0.45mm
; infill extrusion width = 0.45mm
; solid infill extrusion width = 0.45mm
; top infill extrusion width = 0.45mm
; first layer extrusion width = 0.42mm

M73 P0 R117
M201 X9000 Y9000 Z500 E10000 ; sets maximum accelerations, mm/sec^2
M203 X500 Y500 Z12 E120 ; sets maximum feedrates, mm / sec
M204 S2000 T1500 ; sets acceleration (S) and retract acceleration (R), mm/sec^2
M205 X10.00 Y10.00 Z0.20 E4.50 ; sets the jerk limits, mm/sec
M205 S0 T0 ; sets the minimum extruding and travel feed rate, mm/sec

; printing object X-axis rail bracket.stl id:0 copy 0
; stop printing object X-axis rail bracket.stl id:0 copy 0

;TYPE:Custom
M862.3 P "MK2.5S" ; printer model check
M862.1 P0.4 ; nozzle diameter check
M115 U3.14.0 ; tell printer latest fw version
G90 ; use absolute coordinates
M83 ; extruder relative mode
M104 S215 ; set extruder temp
M140 S60 ; set bed temp
M190 S60 ; wait for bed temp
M109 S215 ; wait for extruder temp
G28 W ; home all without mesh bed level
G80 X102.156 Y87.6229 W50.7542 H34.7542 ; mesh bed levelling

G1 Z0.2 F720
G1 Y-3 F1000 ; go outside print area
G92 E0
G1 X60 E9 F1000 ; intro line
G1 X100 E12.5 F1000 ; intro line

G92 E0
G21 ; set units to millimeters
G90 ; use absolute coordinates
M83 ; use relative distances for extrusion

M900 K0.05 ; Filament gcode LA 1.5
M900 K30 ; Filament gcode LA 1.0




M107
;LAYER_CHANGE
;Z:0.2
;HEIGHT:0.2
G1 E-.8 F2100
G1 Z.6 F720
G1 X102.736 Y88.752 F10800
G1 Z.2 F720
G1 E.8 F2100
M204 S800
;TYPE:Skirt/Brim
;WIDTH:0.42
G1 F1200
G1 X103.769 Y87.949 E.04102
G1 X104.533 Y87.811 E.02434
G1 X150.533 Y87.811 E1.4423
G1 X151.782 Y88.202 E.04104
G1 X152.584 Y89.235 E.041
G1 X152.722 Y90 E.02437
G1 X152.722 Y120 E.94063
G1 X152.331 Y121.248 E.04101
G1 X151.298 Y122.051 E.04102
G1 X150.533 Y122.189 E.02437
G1 X104.533 Y122.189 E1.4423
G1 X103.285 Y121.798 E.04101
G1 X102.483 Y120.765 E.041
G1 X102.345 Y120 E.02437
G1 X102.345 Y90 E.94063
G1 X102.718 Y88.809 E.03913
M204 S1000
;WIPE_START
G1 F8640
G1 X102.736 Y88.752 E-.0138
G1 X103.769 Y87.949 E-.30211
G1 X104.533 Y87.811 E-.17926
G1 X105.853 Y87.811 E-.30483
;WIPE_END
G1 Z.6 F720
; printing object X-axis rail bracket.stl id:0 copy 0
G1 X148.019 Y98.789 F10800
G1 Z.2 F720
G1 E.8 F2100
M204 S800
;TYPE:Perimeter
;WIDTH:0.419999
G1 F1200
G1 X147.61 Y99.07 E.01556
G1 X147.024 Y99.281 E.01953
G1 X146.436 Y99.332 E.01851
G1 X145.896 Y99.245 E.01715
G1 X145.329 Y98.999 E.01938
G1 X145.211 Y98.924 E.00438
G1 X144.822 Y98.591 E.01606
G1 X144.511 Y98.171 E.01639
G1 X144.288 Y97.633 E.01826
G1 X144.2 Y97.049 E.01852
G1 X144.252 Y96.505 E.01713
G1 X144.463 Y95.924 E.01938
G1 X144.799 Y95.439 E.0185
G1 X145.242 Y95.056 E.01836
G1 X145.766 Y94.796 E.01834
G1 X146.3 Y94.678 E.01715
G1 X146.917 Y94.699 E.01936
G1 X147.482 Y94.868 E.01849
G1 X147.983 Y95.171 E.01836
G1 X148.392 Y95.589 E.01834
G1 X148.67 Y96.06 E.01715
G1 X148.841 Y96.654 E.01938
G1 X148.858 Y97.206 E.01732
G1 X148.736 Y97.772 E.01815
G1 X148.452 Y98.327 E.01955
G1 X148.088 Y98.742 E.01731
G1 X148.068 Y98.755 E.00075
M204 S1000
G1 X148.068 Y98.755 F10800
G1 X147.785 Y98.505
M204 S800
;TYPE:External perimeter
G1 F1200
G1 X147.778 Y98.513 E.00033
G1 X147.361 Y98.775 E.01544
G1 X146.859 Y98.931 E.01648
G1 X146.37 Y98.952 E.01535
G1 X145.921 Y98.86 E.01437
G1 X145.451 Y98.632 E.01638
G1 X145.078 Y98.311 E.01543
G1 X144.814 Y97.937 E.01435
G1 X144.629 Y97.464 E.01592
G1 X144.575 Y96.96 E.01589
G1 X144.638 Y96.506 E.01437
G1 X144.838 Y96.02 E.01648
G1 X145.135 Y95.629 E.0154
G1 X145.52 Y95.324 E.0154
G1 X145.966 Y95.125 E.01531
G1 X146.418 Y95.045 E.01439
G1 X146.942 Y95.084 E.01648
G1 X147.405 Y95.246 E.01538
G1 X147.814 Y95.518 E.0154
G1 X148.141 Y95.881 E.01532
G1 X148.357 Y96.286 E.01439
G1 X148.481 Y96.794 E.0164
G1 X148.476 Y97.251 E.01433
G1 X148.352 Y97.727 E.01542
G1 X148.094 Y98.184 E.01645
G1 X147.826 Y98.462 E.01211
M204 S1000
;WIPE_START
G1 F8640
G1 X147.785 Y98.505 E-.01372
G1 X147.778 Y98.513 E-.00245
G1 X147.361 Y98.775 E-.11371
G1 X146.859 Y98.931 E-.12138
G1 X146.37 Y98.952 E-.11302
G1 X145.921 Y98.86 E-.10583
G1 X145.451 Y98.632 E-.12062
G1 X145.078 Y98.311 E-.11363
G1 X144.839 Y97.973 E-.09564
;WIPE_END
G1 Z.6 F720
G1 X148.019 Y117.789 F10800
G1 Z.2 F720
G1 E.8 F2100
M204 S800
;TYPE:Perimeter
G1 F1200
G1 X147.61 Y118.07 E.01556
G1 X147.024 Y118.281 E.01953
G1 X146.436 Y118.332 E.01851
G1 X145.896 Y118.245 E.01715
G1 X145.329 Y117.999 E.01938
G1 X144.866 Y117.633 E.0185
G1 X144.531 Y117.2 E.01717
G1 X144.288 Y116.633 E.01934
G1 X144.2 Y116.049 E.01852
G1 X144.252 Y115.505 E.01713
G1 X144.445 Y114.958 E.01819
G1 X144.77 Y114.471 E.01836
G1 X145.238 Y114.06 E.01953
G1 X145.766 Y113.796 E.01851
G1 X146.3 Y113.678 E.01715
G1 X146.917 Y113.699 E.01936
G1 X147.482 Y113.868 E.01849
G1 X147.983 Y114.171 E.01836
G1 X148.392 Y114.589 E.01834
G1 X148.67 Y115.06 E.01715
G1 X148.841 Y115.654 E.01938
G1 X148.858 Y116.206 E.01732
G1 X148.736 Y116.772 E.01815
G1 X148.452 Y117.327 E.01955
G1 X148.088 Y117.742 E.01731
G1 X148.068 Y117.755 E.00075
M204 S1000
G1 X148.068 Y117.755 F10800
G1 X147.785 Y117.505
M204 S800
;TYPE:External perimeter
G1 F1200
G1 X147.778 Y117.513 E.00033
G1 X147.361 Y117.775 E.01544
G1 X146.882 Y117.929 E.01578
G1 X146.37 Y117.952 E.01607
G1 X145.921 Y117.86 E.01437
G1 X145.449 Y117.631 E.01645
G1 X145.078 Y117.311 E.01536
G1 X144.814 Y116.937 E.01435
G1 X144.626 Y116.446 E.01648
G1 X144.575 Y115.96 E.01532
G1 X144.626 Y115.552 E.01289
G1 X144.804 Y115.077 E.0159
G1 X145.094 Y114.669 E.01569
G1 X145.484 Y114.345 E.0159
G1 X145.942 Y114.131 E.01585
G1 X146.418 Y114.045 E.01517
G1 X146.942 Y114.084 E.01648
G1 X147.405 Y114.246 E.01538
G1 X147.814 Y114.518 E.0154
G1 X148.141 Y114.881 E.01532
G1 X148.357 Y115.286 E.01439
G1 X148.481 Y115.794 E.0164
G1 X148.476 Y116.251 E.01433
G1 X148.352 Y116.727 E.01542
G1 X148.094 Y117.184 E.01645
G1 X147.826 Y117.462 E.01211
M204 S1000
;WIPE_START
G1 F8640
G1 X147.785 Y117.505 E-.01372
G1 X147.778 Y117.513 E-.00245
G1 X147.361 Y117.775 E-.11371
G1 X146.882 Y117.929 E-.11618
G1 X146.37 Y117.952 E-.11834
G1 X145.921 Y117.86 E-.10583
G1 X145.449 Y117.631 E-.12114
G1 X145.078 Y117.311 E-.11313
G1 X144.839 Y116.973 E-.0955
;WIPE_END
G1 Z.6 F720
G1 X106.833 Y117.59 F10800
G1 Z.2 F720
G1 E.8 F2100
M204 S800
;TYPE:Perimeter
G1 F1200
G1 X106.531 Y117.2 E.01547
G1 X106.288 Y116.633 E.01934
G1 X106.2 Y116.049 E.01852
G1 X106.252 Y115.505 E.01713
G1 X106.445 Y114.958 E.01819
G1 X106.77 Y114.471 E.01836
G1 X107.238 Y114.06 E.01953
G1 X107.766 Y113.796 E.01851
G1 X108.3 Y113.678 E.01715
G1 X108.917 Y113.699 E.01936
G1 X109.061 Y113.727 E.0046
G1 X109.54 Y113.891 E.01587
G1 X109.983 Y114.171 E.01643
G1 X110.392 Y114.589 E.01834
G1 X110.67 Y115.06 E.01715
G1 X110.841 Y115.654 E.01938
G1 X110.858 Y116.206 E.01732
G1 X110.736 Y116.772 E.01815
G1 X110.452 Y117.327 E.01955
G1 X110.088 Y117.742 E.01731
G1 X109.61 Y118.07 E.01818
G1 X109.024 Y118.281 E.01953
G1 X108.436 Y118.332 E.01851
G1 X107.896 Y118.245 E.01715
G1 X107.329 Y117.999 E.01938
G1 X106.87 Y117.636 E.01835
M204 S1000
G1 X106.87 Y117.636 F10800
G1 X107.106 Y117.335
M204 S800
;TYPE:External perimeter
G1 F1200
G1 X107.078 Y117.311 E.00116
G1 X106.814 Y116.937 E.01435
G1 X106.628 Y116.457 E.01614
G1 X106.575 Y115.96 E.01567
G1 X106.638 Y115.508 E.01431
G1 X106.819 Y115.052 E.01538
G1 X107.111 Y114.654 E.01548
G1 X107.52 Y114.324 E.01648
G1 X107.966 Y114.125 E.01531
G1 X108.418 Y114.045 E.01439
G1 X108.942 Y114.084 E.01648
G1 X109.405 Y114.246 E.01538
G1 X109.814 Y114.518 E.0154
G1 X110.141 Y114.881 E.01532
G1 X110.357 Y115.286 E.01439
G1 X110.481 Y115.794 E.0164
G1 X110.476 Y116.251 E.01433
G1 X110.352 Y116.727 E.01542
G1 X110.094 Y117.184 E.01645
G1 X109.778 Y117.513 E.0143
G1 X109.361 Y117.775 E.01544
G1 X108.882 Y117.929 E.01578
G1 X108.37 Y117.952 E.01607
G1 X107.921 Y117.86 E.01437
G1 X107.449 Y117.631 E.01645
G1 X107.151 Y117.374 E.01234
M204 S1000
;WIPE_START
G1 F8640
G1 X107.106 Y117.335 E-.01375
G1 X107.078 Y117.311 E-.00852
G1 X106.814 Y116.937 E-.10571
G1 X106.628 Y116.457 E-.11886
G1 X106.575 Y115.96 E-.11541
G1 X106.638 Y115.508 E-.10538
G1 X106.819 Y115.052 E-.11328
G1 X107.111 Y114.654 E-.11398
G1 X107.465 Y114.368 E-.10511
;WIPE_END
G1 Z.6 F720
G1 X106.281 Y96.426 F10800
G1 Z.2 F720
G1 E.8 F2100
M204 S800
;TYPE:Perimeter
G1 F1200
G1 X106.463 Y95.924 E.01674
G1 X106.799 Y95.439 E.0185
G1 X107.242 Y95.056 E.01836
G1 X107.766 Y94.796 E.01834
G1 X108.3 Y94.678 E.01715
G1 X108.917 Y94.699 E.01936
G1 X109.482 Y94.868 E.01849
G1 X109.983 Y95.171 E.01836
G1 X110.392 Y95.589 E.01834
G1 X110.67 Y96.06 E.01715
G1 X110.841 Y96.654 E.01938
G1 X110.858 Y97.206 E.01732
G1 X110.736 Y97.772 E.01815
G1 X110.452 Y98.327 E.01955
G1 X110.088 Y98.742 E.01731
G1 X109.61 Y99.07 E.01818
G1 X109.024 Y99.281 E.01953
G1 X108.436 Y99.332 E.01851
G1 X107.896 Y99.245 E.01715
G1 X107.329 Y98.999 E.01938
G1 X106.866 Y98.633 E.0185
G1 X106.531 Y98.2 E.01717
G1 X106.288 Y97.633 E.01934
G1 X106.2 Y97.049 E.01852
G1 X106.252 Y96.505 E.01713
G1 X106.26 Y96.483 E.00073
M204 S1000
G1 X106.26 Y96.483 F10800
G1 X106.637 Y96.518
M204 S800
;TYPE:External perimeter
G1 F1200
G1 X106.638 Y96.506 E.00038
G1 X106.838 Y96.02 E.01648
G1 X107.135 Y95.629 E.0154
G1 X107.52 Y95.324 E.0154
G1 X107.966 Y95.125 E.01531
G1 X108.418 Y95.045 E.01439
G1 X108.942 Y95.084 E.01648
G1 X109.405 Y95.246 E.01538
G1 X109.814 Y95.518 E.0154
G1 X110.141 Y95.881 E.01532
G1 X110.357 Y96.286 E.01439
G1 X110.48 Y96.772 E.01572
G1 X110.476 Y97.251 E.01502
G1 X110.352 Y97.727 E.01542
G1 X110.102 Y98.175 E.01609
G1 X109.778 Y98.513 E.01468
G1 X109.361 Y98.775 E.01544
G1 X108.859 Y98.931 E.01648
G1 X108.37 Y98.952 E.01535
G1 X107.921 Y98.86 E.01437
G1 X107.449 Y98.631 E.01645
G1 X107.078 Y98.311 E.01536
G1 X106.814 Y97.937 E.01435
G1 X106.628 Y97.457 E.01614
G1 X106.575 Y97.005 E.01427
G1 X106.629 Y96.577 E.01353
M204 S1000
;WIPE_START
G1 F8640
G1 X106.637 Y96.518 E-.01375
G1 X106.638 Y96.506 E-.00278
G1 X106.838 Y96.02 E-.12135
G1 X107.135 Y95.629 E-.11338
G1 X107.52 Y95.324 E-.11341
G1 X107.966 Y95.125 E-.11277
G1 X108.418 Y95.045 E-.10599
G1 X108.942 Y95.084 E-.12133
G1 X109.331 Y95.22 E-.09524
;WIPE_END
G1 Z.6 F720
G1 X149.746 Y119.213 F10800
G1 Z.2 F720
G1 E.8 F2100
M204 S800
;TYPE:Perimeter
G1 F1200
G1 X105.32 Y119.213 E1.39294
G1 X105.32 Y90.787 E.89128
G1 X149.746 Y90.787 E1.39294
G1 X149.746 Y92.812 E.06349
G1 X149.746 Y119.153 E.8259
M204 S1000
G1 X149.746 Y119.153 F10800
G1 X150.123 Y119.59
M204 S800
;TYPE:External perimeter
G1 F1200
G1 X104.943 Y119.59 E1.41658
G1 X104.943 Y90.41 E.91492
G1 X150.123 Y90.41 E1.41658
G1 X150.123 Y92.812 E.07531
G1 X150.123 Y119.53 E.83772
M204 S1000
;WIPE_START
G1 F8640
G1 X150.123 Y119.59 E-.01385
G1 X146.718 Y119.59 E-.78615
;WIPE_END
G1 Z.6 F720
G1 X149.577 Y91.722 F10800
G1 Z.2 F720
G1 E.8 F2100
M204 S800
;TYPE:Solid infill
;WIDTH:0.421344
G1 F1200
G1 X148.981 Y91.126 E.02652
G1 X148.446 Y91.126 E.01683
G1 X149.407 Y92.087 E.04276
G1 X149.407 Y92.623 E.01687
G1 X147.911 Y91.126 E.06659
G1 X147.376 Y91.126 E.01683
G1 X149.407 Y93.158 E.0904
G1 X149.407 Y93.693 E.01683
G1 X146.84 Y91.126 E.11423
G1 X146.305 Y91.126 E.01683
G1 X149.407 Y94.228 E.13804
G1 X149.407 Y94.763 E.01683
G1 X145.77 Y91.126 E.16185
G1 X145.235 Y91.126 E.01683
G1 X149.407 Y95.298 E.18565
G1 X149.407 Y95.834 E.01687
G1 X144.7 Y91.126 E.20948
G1 X144.165 Y91.126 E.01683
G1 X147.581 Y94.543 E.15203
G1 X147.787 Y94.64 E.00716
G1 X148.175 Y94.891 E.01454
G1 X148.334 Y95.025 E.00654
G1 X148.648 Y95.366 E.01459
G1 X148.765 Y95.528 E.00629
G1 X148.991 Y95.953 E.01515
G1 X149.577 Y96.538 E.02605
M204 S1000
G1 X149.577 Y96.538 F10800
G1 X148.967 Y96.464
M204 S800
G1 F1200
G1 X149.407 Y96.904 E.01958
G1 X149.407 Y97.439 E.01683
G1 X149.189 Y97.221 E.0097
G1 X149.186 Y97.355 E.00422
G1 X149.108 Y97.676 E.01039
G1 X149.407 Y97.974 E.01328
G1 X149.407 Y98.509 E.01683
G1 X148.976 Y98.079 E.01916
G1 X148.786 Y98.424 E.01239
G1 X149.407 Y99.045 E.02763
G1 X149.407 Y99.58 E.01683
G1 X148.561 Y98.733 E.03767
G1 X148.298 Y99.006 E.01193
G1 X149.407 Y100.115 E.04935
G1 X149.407 Y100.65 E.01683
G1 X147.987 Y99.23 E.06319
G1 X147.648 Y99.426 E.01232
G1 X149.407 Y101.185 E.07828
G1 X149.407 Y101.72 E.01683
G1 X147.251 Y99.564 E.09594
G1 X147.119 Y99.607 E.00437
G1 X146.803 Y99.652 E.01004
G1 X149.407 Y102.256 E.11588
G1 X149.407 Y102.791 E.01683
G1 X146.067 Y99.451 E.14863
M204 S1000
;WIPE_START
G1 F8640
G1 X148.517 Y101.901 E-.8
;WIPE_END
G1 Z.6 F720
G1 X147.058 Y94.555 F10800
G1 Z.2 F720
G1 E.8 F2100
M204 S800
G1 F1200
G1 X143.629 Y91.126 E.15259
G1 X143.094 Y91.126 E.01683
G1 X146.304 Y94.336 E.14284
G1 X145.85 Y94.418 E.01452
G1 X142.559 Y91.126 E.14647
G1 X142.024 Y91.126 E.01683
G1 X145.46 Y94.563 E.15292
G1 X145.105 Y94.743 E.01252
G1 X141.489 Y91.126 E.16093
G1 X140.954 Y91.126 E.01683
G1 X144.803 Y94.976 E.1713
G1 X144.527 Y95.235 E.01191
G1 X140.418 Y91.126 E.18285
G1 X139.883 Y91.126 E.01683
G1 X144.299 Y95.543 E.19653
G1 X144.151 Y95.79 E.00906
G1 X144.112 Y95.89 E.00338
G1 X139.348 Y91.126 E.212
G1 X138.813 Y91.126 E.01683
G1 X143.962 Y96.276 E.22915
G1 X143.917 Y96.453 E.00575
G1 X143.885 Y96.733 E.00887
G1 X138.278 Y91.126 E.24951
G1 X137.743 Y91.126 E.01683
G1 X144.078 Y97.462 E.28193
M204 S1000
;WIPE_START
G1 F8640
G1 X141.628 Y95.012 E-.8
;WIPE_END
G1 Z.6 F720
G1 X149.577 Y103.496 F10800
G1 Z.2 F720
G1 E.8 F2100
M204 S800
G1 F1200
G1 X145.564 Y99.483 E.17858
G1 X145.061 Y99.236 E.01763
G1 X144.575 Y98.826 E.02001
G1 X144.22 Y98.347 E.01876
G1 X144.069 Y97.988 E.01225
G1 X137.207 Y91.126 E.30536
G1 X136.672 Y91.126 E.01683
G1 X149.407 Y103.861 E.5667
G1 X149.407 Y104.396 E.01683
G1 X136.137 Y91.126 E.59051
G1 X135.602 Y91.126 E.01683
G1 X149.407 Y104.932 E.61434
G1 X149.407 Y105.467 E.01683
G1 X135.067 Y91.126 E.63815
G1 X134.531 Y91.126 E.01687
G1 X149.407 Y106.002 E.66198
G1 X149.407 Y106.537 E.01683
G1 X133.996 Y91.126 E.68579
G1 X133.461 Y91.126 E.01683
M73 P0 R116
G1 X149.407 Y107.072 E.70959
G1 X149.407 Y107.607 E.01683
G1 X132.926 Y91.126 E.7334
G1 X132.391 Y91.126 E.01683
G1 X149.407 Y108.143 E.75723
G1 X149.407 Y108.678 E.01683
G1 X131.856 Y91.126 E.78104
G1 X131.32 Y91.126 E.01687
G1 X149.407 Y109.213 E.80487
G1 X149.407 Y109.748 E.01683
G1 X130.785 Y91.126 E.82867
G1 X130.25 Y91.126 E.01683
G1 X149.407 Y110.283 E.85248
G1 X149.407 Y110.818 E.01683
G1 X129.715 Y91.126 E.87629
G1 X129.18 Y91.126 E.01683
G1 X149.407 Y111.354 E.90012
G1 X149.407 Y111.889 E.01683
G1 X128.645 Y91.126 E.92393
G1 X128.109 Y91.126 E.01687
G1 X149.407 Y112.424 E.94776
G1 X149.407 Y112.959 E.01683
G1 X127.574 Y91.126 E.97156
G1 X127.039 Y91.126 E.01683
M73 P1 R116
G1 X149.407 Y113.494 E.99537
G1 X149.407 Y114.029 E.01683
G1 X126.504 Y91.126 E1.01918
G1 X125.969 Y91.126 E.01683
G1 X149.407 Y114.565 E1.04301
G1 X149.407 Y115.1 E.01683
G1 X125.434 Y91.126 E1.06682
G1 X124.898 Y91.126 E.01687
G1 X147.181 Y113.409 E.99159
G1 X146.948 Y113.361 E.00749
G1 X146.574 Y113.337 E.01179
G1 X124.363 Y91.126 E.98838
G1 X123.828 Y91.126 E.01683
G1 X146.078 Y113.376 E.99012
G1 X145.718 Y113.45 E.01156
G1 X145.648 Y113.482 E.00242
G1 X123.293 Y91.126 E.99481
G1 X122.758 Y91.126 E.01683
G1 X145.28 Y113.649 E1.00225
G1 X145.154 Y113.706 E.00435
G1 X144.958 Y113.862 E.00788
G1 X122.223 Y91.126 E1.01172
G1 X121.687 Y91.126 E.01687
G1 X144.659 Y114.098 E1.02225
G1 X144.498 Y114.268 E.00737
G1 X144.415 Y114.389 E.00462
G1 X121.152 Y91.126 E1.0352
G1 X120.617 Y91.126 E.01683
G1 X144.197 Y114.706 E1.0493
G1 X144.038 Y115.083 E.01287
G1 X120.082 Y91.126 E1.06606
G1 X119.547 Y91.126 E.01683
G1 X143.916 Y115.496 E1.08444
G1 X143.862 Y115.977 E.01523
G1 X119.011 Y91.126 E1.10586
G1 X118.476 Y91.126 E.01683
G1 X144.185 Y116.835 E1.14404
M204 S1000
;WIPE_START
G1 F8640
G1 X141.735 Y114.385 E-.8
;WIPE_END
G1 Z.6 F720
G1 X148.863 Y115.091 F10800
G1 Z.2 F720
G1 E.8 F2100
M204 S800
G1 F1200
G1 X149.407 Y115.635 E.02421
G1 X149.407 Y116.17 E.01683
G1 X149.198 Y115.961 E.0093
G1 X149.198 Y116.215 E.00799
