; generated by PrusaSlicer 2.8.1+win64 on 2024-11-05 at 21:34:44 UTC


;
;
; 

; external perimeters extrusion width = 0.45mm
; perimeters extrusion width = 0.45mm
; infill extrusion width = 0.45mm
; solid infill extrusion width = 0.45mm
; top infill extrusion width = 0.45mm
; first layer extrusion width = 0.42mm

M73 P0 R43
M201 X9000 Y9000 Z500 E10000 ; sets maximum accelerations, mm/sec^2
M203 X500 Y500 Z12 E120 ; sets maximum feedrates, mm / sec
M204 S2000 T1500 ; sets acceleration (S) and retract acceleration (R), mm/sec^2
M205 X10.00 Y10.00 Z0.20 E4.50 ; sets the jerk limits, mm/sec
M205 S0 T0 ; sets the minimum extruding and travel feed rate, mm/sec

; printing object Y-axis idler pulley support.stl id:0 copy 0
; stop printing object Y-axis idler pulley support.stl id:0 copy 0

;TYPE:Custom
M862.3 P "MK2.5S" ; printer model check
M862.1 P0.4 ; nozzle diameter check
M115 U3.14.0 ; tell printer latest fw version
G90 ; use absolute coordinates
M83 ; extruder relative mode
M104 S215 ; set extruder temp
M140 S60 ; set bed temp
M190 S60 ; wait for bed temp
M109 S215 ; wait for extruder temp
G28 W ; home all without mesh bed level
G80 X100.123 Y75.1229 W49.7542 H59.7542 ; mesh bed levelling

G1 Z0.2 F720
G1 Y-3 F1000 ; go outside print area
G92 E0
G1 X60 E9 F1000 ; intro line
G1 X100 E12.5 F1000 ; intro line

G92 E0
G21 ; set units to millimeters
G90 ; use absolute coordinates
M83 ; use relative distances for extrusion

M900 K0.05 ; Filament gcode LA 1.5
M900 K30 ; Filament gcode LA 1.0




M107
;LAYER_CHANGE
;Z:0.2
;HEIGHT:0.2
G1 E-.8 F2100
G1 Z.6 F720
G1 X100.702 Y76.252 F10800
G1 Z.2 F720
G1 E.8 F2100
M204 S800
;TYPE:Skirt/Brim
;WIDTH:0.42
G1 F1200
G1 X101.735 Y75.449 E.04102
G1 X102.5 Y75.311 E.02437
G1 X147.5 Y75.311 E1.41094
G1 X148.748 Y75.702 E.04101
G1 X149.551 Y76.735 E.04102
G1 X149.689 Y77.5 E.02437
G1 X149.689 Y132.5 E1.72449
G1 X149.298 Y133.748 E.04101
G1 X148.265 Y134.551 E.04102
G1 X147.5 Y134.689 E.02437
G1 X132.5 Y134.689 E.47031
G1 X130.838 Y133.924 E.05737
G1 X100.838 Y98.924 E1.44536
G1 X100.311 Y97.5 E.04761
G1 X100.311 Y77.5 E.62709
G1 X100.684 Y76.309 E.03913
M73 P0 R42
M204 S1000
;WIPE_START
G1 F8640
G1 X100.702 Y76.252 E-.0138
G1 X101.735 Y75.449 E-.30211
G1 X102.5 Y75.311 E-.17949
G1 X103.819 Y75.311 E-.3046
;WIPE_END
G1 Z.6 F720
; printing object Y-axis idler pulley support.stl id:0 copy 0
G1 X141.875 Y86.206 F10800
G1 Z.2 F720
G1 E.8 F2100
M204 S800
;TYPE:Perimeter
;WIDTH:0.419999
G1 F1200
G1 X142.112 Y86.626 E.01512
G1 X142.26 Y87.157 E.01728
G1 X142.276 Y87.708 E.01728
G1 X142.16 Y88.246 E.01726
G1 X141.919 Y88.742 E.01729
G1 X141.566 Y89.165 E.01727
G1 X141.122 Y89.491 E.01727
G1 X140.613 Y89.702 E.01728
G1 X140.068 Y89.785 E.01729
G1 X139.519 Y89.735 E.01728
G1 X139.028 Y89.566 E.01628
G1 X138.544 Y89.261 E.01794
G1 X138.159 Y88.854 E.01757
G1 X137.857 Y88.304 E.01967
G1 X137.731 Y87.795 E.01644
G1 X137.724 Y87.292 E.01577
G1 X137.84 Y86.754 E.01726
G1 X138.081 Y86.258 E.01729
G1 X138.434 Y85.835 E.01727
G1 X138.878 Y85.509 E.01727
G1 X139.387 Y85.298 E.01728
G1 X139.9 Y85.219 E.01627
G1 X140.471 Y85.264 E.01796
G1 X141.001 Y85.445 E.01756
G1 X141.464 Y85.745 E.0173
G1 X141.841 Y86.146 E.01726
G1 X141.846 Y86.154 E.0003
M204 S1000
G1 X141.846 Y86.154 F10800
G1 X141.57 Y86.416
M204 S800
;TYPE:External perimeter
G1 F1200
G1 X141.585 Y86.434 E.00073
G1 X141.794 Y86.844 E.01443
G1 X141.899 Y87.292 E.01443
G1 X141.894 Y87.753 E.01446
G1 X141.778 Y88.199 E.01445
G1 X141.559 Y88.604 E.01444
G1 X141.25 Y88.945 E.01443
G1 X140.868 Y89.202 E.01444
G1 X140.435 Y89.36 E.01445
G1 X139.977 Y89.41 E.01445
G1 X139.521 Y89.349 E.01442
G1 X139.124 Y89.194 E.01336
G1 X138.716 Y88.915 E.0155
G1 X138.415 Y88.566 E.01445
G1 X138.212 Y88.175 E.01381
G1 X138.101 Y87.708 E.01505
G1 X138.106 Y87.247 E.01446
G1 X138.222 Y86.801 E.01445
G1 X138.441 Y86.396 E.01444
G1 X138.75 Y86.055 E.01443
G1 X139.132 Y85.798 E.01444
G1 X139.565 Y85.64 E.01445
G1 X139.988 Y85.593 E.01334
G1 X140.479 Y85.651 E.0155
G1 X140.908 Y85.819 E.01445
G1 X141.284 Y86.085 E.01444
G1 X141.531 Y86.371 E.01185
M204 S1000
;WIPE_START
G1 F8640
G1 X141.57 Y86.416 E-.01375
G1 X141.585 Y86.434 E-.00541
G1 X141.794 Y86.844 E-.10626
G1 X141.899 Y87.292 E-.10625
G1 X141.894 Y87.753 E-.10645
G1 X141.778 Y88.199 E-.10641
G1 X141.559 Y88.604 E-.10631
G1 X141.25 Y88.945 E-.10626
G1 X140.868 Y89.202 E-.10631
G1 X140.719 Y89.256 E-.03659
;WIPE_END
G1 Z.6 F720
G1 X108.746 Y90.332 F10800
G1 Z.2 F720
G1 E.8 F2100
M204 S800
;TYPE:Perimeter
G1 F1200
G1 X108.291 Y90 E.01766
G1 X107.87 Y89.552 E.01928
G1 X107.537 Y89.034 E.01931
G1 X107.306 Y88.463 E.01931
G1 X107.183 Y87.86 E.0193
G1 X107.174 Y87.244 E.01932
G1 X107.277 Y86.637 E.0193
G1 X107.491 Y86.06 E.0193
G1 X107.807 Y85.531 E.01932
G1 X108.214 Y85.07 E.01928
G1 X108.7 Y84.691 E.01932
G1 X109.246 Y84.408 E.01928
G1 X109.836 Y84.231 E.01931
G1 X110.448 Y84.164 E.0193
G1 X111.062 Y84.212 E.01931
G1 X111.656 Y84.371 E.01928
G1 X112.212 Y84.637 E.01933
G1 X112.709 Y85 E.0193
G1 X113.13 Y85.448 E.01928
G1 X113.463 Y85.966 E.01931
G1 X113.694 Y86.537 E.01931
G1 X113.817 Y87.14 E.0193
G1 X113.826 Y87.756 E.01932
G1 X113.723 Y88.363 E.0193
G1 X113.509 Y88.94 E.0193
G1 X113.193 Y89.469 E.01932
G1 X112.786 Y89.93 E.01928
G1 X112.3 Y90.309 E.01932
G1 X111.754 Y90.592 E.01928
G1 X111.164 Y90.769 E.01931
G1 X110.552 Y90.836 E.0193
G1 X109.938 Y90.788 E.01931
G1 X109.344 Y90.629 E.01928
G1 X108.795 Y90.367 E.01907
M204 S1000
G1 X108.795 Y90.367 F10800
G1 X108.942 Y90.015
M204 S800
;TYPE:External perimeter
G1 F1200
G1 X108.519 Y89.699 E.01656
G1 X108.148 Y89.298 E.01713
G1 X107.858 Y88.835 E.01713
G1 X107.658 Y88.327 E.01712
G1 X107.554 Y87.79 E.01715
G1 X107.551 Y87.244 E.01712
G1 X107.648 Y86.707 E.01711
G1 X107.842 Y86.196 E.01714
G1 X108.127 Y85.73 E.01713
G1 X108.493 Y85.324 E.01714
G1 X108.927 Y84.992 E.01713
G1 X109.414 Y84.746 E.01711
G1 X109.939 Y84.593 E.01715
G1 X110.483 Y84.54 E.01714
G1 X111.027 Y84.587 E.01712
G1 X111.553 Y84.733 E.01712
G1 X112.044 Y84.974 E.01715
G1 X112.481 Y85.301 E.01711
G1 X112.852 Y85.702 E.01713
G1 X113.142 Y86.165 E.01713
G1 X113.342 Y86.673 E.01712
G1 X113.446 Y87.21 E.01715
G1 X113.449 Y87.756 E.01712
G1 X113.352 Y88.293 E.01711
G1 X113.158 Y88.804 E.01714
G1 X112.873 Y89.27 E.01713
G1 X112.507 Y89.676 E.01714
G1 X112.073 Y90.008 E.01713
G1 X111.586 Y90.254 E.01711
G1 X111.061 Y90.407 E.01715
G1 X110.517 Y90.46 E.01714
G1 X109.973 Y90.413 E.01712
G1 X109.447 Y90.267 E.01712
G1 X108.995 Y90.045 E.01579
M204 S1000
;WIPE_START
G1 F8640
G1 X108.942 Y90.015 E-.01406
G1 X108.519 Y89.699 E-.12192
G1 X108.148 Y89.298 E-.12614
G1 X107.858 Y88.835 E-.12615
G1 X107.658 Y88.327 E-.12606
G1 X107.554 Y87.79 E-.1263
G1 X107.551 Y87.244 E-.12607
G1 X107.577 Y87.102 E-.0333
;WIPE_END
G1 Z.6 F720
G1 X138.489 Y125.795 F10800
G1 Z.2 F720
G1 E.8 F2100
M204 S800
;TYPE:Perimeter
G1 F1200
G1 X138.536 Y125.745 E.00215
G1 X138.999 Y125.445 E.0173
G1 X139.519 Y125.265 E.01725
G1 X140.027 Y125.218 E.016
G1 X140.539 Y125.276 E.01616
G1 X141.122 Y125.509 E.01969
G1 X141.566 Y125.835 E.01727
G1 X141.919 Y126.258 E.01727
G1 X142.143 Y126.716 E.01599
G1 X142.276 Y127.292 E.01854
G1 X142.268 Y127.805 E.01609
G1 X142.128 Y128.341 E.01737
G1 X141.841 Y128.854 E.01843
G1 X141.464 Y129.255 E.01726
G1 X141.001 Y129.555 E.0173
G1 X140.51 Y129.73 E.01634
G1 X140 Y129.789 E.0161
G1 X139.387 Y129.702 E.01941
G1 X138.878 Y129.491 E.01728
G1 X138.434 Y129.165 E.01727
G1 X138.081 Y128.742 E.01727
G1 X137.857 Y128.284 E.01599
G1 X137.724 Y127.708 E.01854
G1 X137.74 Y127.157 E.01728
G1 X137.888 Y126.626 E.01728
G1 X138.159 Y126.146 E.01728
G1 X138.448 Y125.839 E.01322
M204 S1000
G1 X138.448 Y125.839 F10800
G1 X138.735 Y126.072
M204 S800
;TYPE:External perimeter
G1 F1200
G1 X138.75 Y126.055 E.00071
G1 X139.132 Y125.798 E.01444
G1 X139.565 Y125.64 E.01445
G1 X139.988 Y125.593 E.01334
G1 X140.479 Y125.651 E.0155
G1 X140.908 Y125.819 E.01445
G1 X141.284 Y126.085 E.01444
G1 X141.585 Y126.434 E.01445
G1 X141.779 Y126.813 E.01335
G1 X141.899 Y127.292 E.01548
G1 X141.894 Y127.753 E.01446
G1 X141.778 Y128.199 E.01445
G1 X141.559 Y128.604 E.01444
G1 X141.25 Y128.945 E.01443
G1 X140.868 Y129.202 E.01444
G1 X140.435 Y129.36 E.01445
G1 X139.977 Y129.41 E.01445
G1 X139.521 Y129.349 E.01442
G1 X139.092 Y129.181 E.01445
G1 X138.716 Y128.915 E.01444
G1 X138.415 Y128.566 E.01445
G1 X138.221 Y128.187 E.01335
G1 X138.101 Y127.708 E.01548
G1 X138.106 Y127.247 E.01446
G1 X138.222 Y126.801 E.01445
G1 X138.441 Y126.396 E.01444
G1 X138.694 Y126.117 E.01181
M204 S1000
;WIPE_START
G1 F8640
G1 X138.735 Y126.072 E-.01406
G1 X138.75 Y126.055 E-.00523
G1 X139.132 Y125.798 E-.10631
G1 X139.565 Y125.64 E-.10643
G1 X139.988 Y125.593 E-.09827
G1 X140.479 Y125.651 E-.11416
G1 X140.908 Y125.819 E-.10638
G1 X141.284 Y126.085 E-.10635
G1 X141.585 Y126.434 E-.10642
G1 X141.657 Y126.574 E-.03639
;WIPE_END
G1 Z.6 F720
G1 X133.105 Y96.877 F10800
G1 Z.2 F720
G1 E.8 F2100
M204 S800
;TYPE:Perimeter
G1 F1200
G1 X132.945 Y96.759 E.00623
G1 X132.721 Y96.713 E.00717
G1 X103.287 Y96.713 E.92288
G1 X103.287 Y78.287 E.57773
G1 X146.713 Y78.287 E1.36159
M73 P1 R42
G1 X146.713 Y82.112 E.11993
G1 X146.713 Y131.713 E1.5552
G1 X133.287 Y131.713 E.42096
G1 X133.287 Y97.279 E1.07965
G1 X133.273 Y97.154 E.00394
G1 X133.153 Y96.914 E.00841
M204 S1000
G1 X133.153 Y96.914 F10800
G1 X132.824 Y97.137
M204 S800
;TYPE:External perimeter
G1 F1200
G1 X132.721 Y97.09 E.00355
G1 X102.91 Y97.09 E.9347
G1 X102.91 Y77.91 E.60137
G1 X147.09 Y77.91 E1.38523
G1 X147.09 Y82.112 E.13175
G1 X147.09 Y132.09 E1.56702
G1 X132.91 Y132.09 E.4446
G1 X132.91 Y97.279 E1.09147
G1 X132.87 Y97.17 E.00364
M204 S1000
;WIPE_START
G1 F8640
G1 X132.824 Y97.137 E-.01307
G1 X132.721 Y97.09 E-.02614
G1 X129.426 Y97.09 E-.76079
;WIPE_END
G1 Z.6 F720
G1 X145.779 Y78.457 F10800
G1 Z.2 F720
G1 E.8 F2100
M204 S800
;TYPE:Solid infill
;WIDTH:0.420699
G1 F1200
G1 X146.374 Y79.051 E.02641
G1 X146.374 Y79.585 E.01677
G1 X145.415 Y78.626 E.0426
G1 X144.881 Y78.626 E.01677
G1 X146.374 Y80.119 E.06632
G1 X146.374 Y80.654 E.01681
G1 X144.346 Y78.626 E.09009
G1 X143.812 Y78.626 E.01677
G1 X146.374 Y81.188 E.11381
G1 X146.374 Y81.722 E.01677
G1 X143.278 Y78.626 E.13754
G1 X142.744 Y78.626 E.01677
G1 X146.374 Y82.256 E.16126
G1 X146.374 Y82.791 E.01681
G1 X142.209 Y78.626 E.18503
G1 X141.675 Y78.626 E.01677
G1 X146.374 Y83.325 E.20875
G1 X146.374 Y83.859 E.01677
G1 X141.141 Y78.626 E.23247
G1 X140.607 Y78.626 E.01677
G1 X146.374 Y84.393 E.25619
G1 X146.374 Y84.928 E.01681
G1 X140.072 Y78.626 E.27996
G1 X139.538 Y78.626 E.01677
G1 X146.374 Y85.462 E.30368
G1 X146.374 Y85.996 E.01677
G1 X139.004 Y78.626 E.3274
G1 X138.47 Y78.626 E.01677
G1 X146.374 Y86.53 E.35113
G1 X146.374 Y87.065 E.01681
G1 X137.935 Y78.626 E.37489
G1 X137.401 Y78.626 E.01677
G1 X146.374 Y87.599 E.39862
G1 X146.374 Y88.133 E.01677
G1 X136.867 Y78.626 E.42234
G1 X136.332 Y78.626 E.01681
G1 X146.374 Y88.668 E.4461
G1 X146.374 Y89.202 E.01677
G1 X135.798 Y78.626 E.46983
G1 X135.264 Y78.626 E.01677
M73 P2 R42
G1 X146.374 Y89.736 E.49355
G1 X146.374 Y90.27 E.01677
G1 X134.73 Y78.626 E.51727
G1 X134.195 Y78.626 E.01681
G1 X140.495 Y84.926 E.27987
G1 X139.916 Y84.881 E.01824
G1 X133.661 Y78.626 E.27787
G1 X133.127 Y78.626 E.01677
G1 X139.435 Y84.935 E.28025
G1 X139.035 Y85.069 E.01325
G1 X132.593 Y78.626 E.2862
G1 X132.058 Y78.626 E.01681
G1 X138.671 Y85.239 E.29378
G1 X138.355 Y85.457 E.01206
G1 X131.524 Y78.626 E.30346
G1 X130.99 Y78.626 E.01677
G1 X138.083 Y85.72 E.31512
G1 X137.841 Y86.012 E.01191
G1 X130.456 Y78.626 E.32809
G1 X129.921 Y78.626 E.01681
G1 X137.648 Y86.353 E.34326
G1 X137.583 Y86.476 E.00437
G1 X137.495 Y86.735 E.00859
G1 X129.387 Y78.626 E.36021
G1 X128.853 Y78.626 E.01677
G1 X137.394 Y87.167 E.37942
G1 X137.385 Y87.693 E.01653
G1 X128.149 Y78.457 E.4103
M204 S1000
;WIPE_START
G1 F8640
G1 X130.599 Y80.907 E-.8
;WIPE_END
G1 Z.6 F720
G1 X146.543 Y90.974 F10800
G1 Z.2 F720
G1 E.8 F2100
M204 S800
G1 F1200
G1 X142.571 Y87.002 E.17645
G1 X142.616 Y87.285 E.009
G1 X142.61 Y87.575 E.00911
G1 X146.374 Y91.339 E.16721
G1 X146.374 Y91.873 E.01677
G1 X142.556 Y88.055 E.16961
G1 X142.437 Y88.471 E.01359
G1 X146.374 Y92.407 E.17487
G1 X146.374 Y92.942 E.01681
G1 X142.258 Y88.826 E.18285
G1 X142.04 Y89.142 E.01206
G1 X146.374 Y93.476 E.19253
G1 X146.374 Y94.01 E.01677
G1 X141.785 Y89.422 E.20384
G1 X141.483 Y89.654 E.01196
G1 X146.374 Y94.544 E.21726
G1 X146.374 Y95.079 E.01681
G1 X141.152 Y89.857 E.23198
G1 X140.764 Y90.003 E.01302
G1 X146.374 Y95.613 E.24922
G1 X146.374 Y96.147 E.01677
G1 X140.317 Y90.091 E.26905
G1 X139.999 Y90.129 E.01006
G1 X139.799 Y90.107 E.00632
G1 X146.374 Y96.681 E.29207
G1 X146.374 Y97.216 E.01681
G1 X139.12 Y89.962 E.32225
G1 X138.816 Y89.843 E.01025
G1 X138.261 Y89.472 E.02097
G1 X137.834 Y88.99 E.02023
G1 X137.576 Y88.51 E.01712
G1 X137.523 Y88.365 E.00485
G1 X127.784 Y78.626 E.43264
G1 X127.25 Y78.626 E.01677
G1 X146.374 Y97.75 E.84956
G1 X146.374 Y98.284 E.01677
G1 X126.716 Y78.626 E.87329
G1 X126.182 Y78.626 E.01677
G1 X146.374 Y98.818 E.89701
G1 X146.374 Y99.353 E.01681
G1 X125.647 Y78.626 E.92077
G1 X125.113 Y78.626 E.01677
G1 X146.374 Y99.887 E.9445
G1 X146.374 Y100.421 E.01677
G1 X124.579 Y78.626 E.96822
G1 X124.045 Y78.626 E.01677
G1 X146.374 Y100.956 E.99196
G1 X146.374 Y101.49 E.01677
M73 P2 R41
G1 X123.51 Y78.626 E1.01571
G1 X122.976 Y78.626 E.01677
M73 P3 R41
G1 X146.374 Y102.024 E1.03943
G1 X146.374 Y102.558 E.01677
G1 X122.442 Y78.626 E1.06315
G1 X121.907 Y78.626 E.01681
G1 X146.374 Y103.093 E1.08692
G1 X146.374 Y103.627 E.01677
G1 X121.373 Y78.626 E1.11064
G1 X120.839 Y78.626 E.01677
G1 X146.374 Y104.161 E1.13436
G1 X146.374 Y104.695 E.01677
G1 X120.305 Y78.626 E1.15809
G1 X119.77 Y78.626 E.01681
G1 X146.374 Y105.23 E1.18185
G1 X146.374 Y105.764 E.01677
G1 X119.236 Y78.626 E1.20558
G1 X118.702 Y78.626 E.01677
G1 X146.374 Y106.298 E1.2293
G1 X146.374 Y106.832 E.01677
G1 X118.168 Y78.626 E1.25302
G1 X117.633 Y78.626 E.01681
G1 X146.374 Y107.367 E1.27679
G1 X146.374 Y107.901 E.01677
G1 X117.099 Y78.626 E1.30051
G1 X116.565 Y78.626 E.01677
G1 X146.374 Y108.435 E1.32423
G1 X146.374 Y108.969 E.01677
M73 P4 R41
G1 X116.031 Y78.626 E1.34795
G1 X115.496 Y78.626 E.01681
G1 X146.374 Y109.504 E1.37172
G1 X146.374 Y110.038 E.01677
G1 X133.626 Y97.291 E.56629
G1 X133.605 Y97.081 E.00663
G1 X133.554 Y96.922 E.00525
G1 X133.413 Y96.693 E.00845
G1 X133.276 Y96.562 E.00595
G1 X133.015 Y96.42 E.00933
G1 X132.709 Y96.374 E.00972
G1 X114.962 Y78.626 E.78841
G1 X114.428 Y78.626 E.01677
G1 X132.175 Y96.374 E.78841
G1 X131.641 Y96.374 E.01677
G1 X113.894 Y78.626 E.78841
G1 X113.359 Y78.626 E.01681
G1 X131.106 Y96.374 E.78841
G1 X130.572 Y96.374 E.01677
G1 X112.825 Y78.626 E.78841
G1 X112.291 Y78.626 E.01677
G1 X130.038 Y96.374 E.78841
G1 X129.504 Y96.374 E.01677
G1 X111.757 Y78.626 E.78841
G1 X111.222 Y78.626 E.01681
G1 X128.969 Y96.374 E.78841
G1 X128.435 Y96.374 E.01677
G1 X110.688 Y78.626 E.78841
G1 X110.154 Y78.626 E.01677
G1 X127.901 Y96.374 E.78841
G1 X127.367 Y96.374 E.01677
G1 X109.619 Y78.626 E.78844
G1 X109.085 Y78.626 E.01677
G1 X126.832 Y96.374 E.78841
G1 X126.298 Y96.374 E.01677
G1 X108.551 Y78.626 E.78841
G1 X108.017 Y78.626 E.01677
G1 X125.764 Y96.374 E.78841
G1 X125.23 Y96.374 E.01677
G1 X107.482 Y78.626 E.78844
G1 X106.948 Y78.626 E.01677
G1 X124.695 Y96.374 E.78841
G1 X124.161 Y96.374 E.01677
M73 P5 R41
G1 X113.888 Y86.1 E.45639
G1 X113.821 Y85.926 E.00586
G1 X113.479 Y85.348 E.0211
G1 X113.385 Y85.224 E.00489
G1 X112.922 Y84.735 E.02115
G1 X112.373 Y84.337 E.0213
G1 X111.902 Y84.114 E.01637
G1 X106.414 Y78.626 E.2438
G1 X105.88 Y78.626 E.01677
G1 X111.136 Y83.883 E.23351
G1 X110.553 Y83.834 E.01838
G1 X105.345 Y78.626 E.23136
G1 X104.811 Y78.626 E.01677
G1 X110.047 Y83.862 E.2326
G1 X109.831 Y83.883 E.00682
G1 X109.602 Y83.952 E.00751
G1 X104.277 Y78.626 E.23658
G1 X103.743 Y78.626 E.01677
G1 X109.19 Y84.074 E.242
G1 X109.106 Y84.099 E.00275
G1 X108.825 Y84.243 E.00992
G1 X103.626 Y79.045 E.23094
G1 X103.626 Y79.579 E.01677
G1 X108.481 Y84.434 E.21568
G1 X108.182 Y84.668 E.01193
G1 X103.626 Y80.113 E.20237
