; generated by PrusaSlicer 2.8.1+win64 on 2024-12-19 at 20:07:45 UTC


;
;
; 

; external perimeters extrusion width = 0.60mm
; perimeters extrusion width = 0.43mm
; infill extrusion width = 0.45mm
; solid infill extrusion width = 0.70mm
; top infill extrusion width = 0.45mm
; first layer extrusion width = 0.42mm

M73 P0 R25
M201 X9000 Y9000 Z500 E10000 ; sets maximum accelerations, mm/sec^2
M203 X500 Y500 Z12 E120 ; sets maximum feedrates, mm / sec
M204 S2000 T1500 ; sets acceleration (S) and retract acceleration (R), mm/sec^2
M205 X10.00 Y10.00 Z0.20 E4.50 ; sets the jerk limits, mm/sec
M205 S0 T0 ; sets the minimum extruding and travel feed rate, mm/sec

; printing object Moveable.stl id:0 copy 0
; stop printing object Moveable.stl id:0 copy 0

;TYPE:Custom
M862.3 P "MK2.5S" ; printer model check
M862.1 P0.4 ; nozzle diameter check
M115 U3.14.0 ; tell printer latest fw version
G90 ; use absolute coordinates
M83 ; extruder relative mode
M104 S215 ; set extruder temp
M140 S60 ; set bed temp
M190 S60 ; wait for bed temp
M109 S215 ; wait for extruder temp
G28 W ; home all without mesh bed level
G80 X101.799 Y70.0752 W46.4014 H69.8519 ; mesh bed levelling

G1 Z0.2 F720
G1 Y-3 F1000 ; go outside print area
G92 E0
G1 X60 E9 F1000 ; intro line
G1 X100 E12.5 F1000 ; intro line

G92 E0
G21 ; set units to millimeters
G90 ; use absolute coordinates
M83 ; use relative distances for extrusion

M900 K0.05 ; Filament gcode LA 1.5
M900 K30 ; Filament gcode LA 1.0




M107
;LAYER_CHANGE
;Z:0.2
;HEIGHT:0.2
G1 E-.8 F2100
G1 Z.6 F720
G1 X112.969 Y76.526 F10800
G1 Z.2 F720
G1 E.8 F2100
M204 S800
;TYPE:Skirt/Brim
;WIDTH:0.42
G1 F1200
G1 X113.744 Y75.516 E.03992
G1 X114.603 Y74.577 E.0399
G1 X115.524 Y73.73 E.03923
G1 X116.704 Y72.831 E.04651
G1 X118.746 Y71.661 E.07379
G1 X119.92 Y71.17 E.0399
G1 X121.132 Y70.782 E.0399
M73 P0 R24
G1 X122.373 Y70.5 E.0399
G1 X123.613 Y70.33 E.03924
G1 X125.095 Y70.264 E.04651
G1 X127.44 Y70.467 E.0738
G1 X128.868 Y70.782 E.04585
G1 X131.082 Y71.582 E.07381
G1 X132.216 Y72.158 E.03988
G1 X133.296 Y72.831 E.0399
G1 X134.46 Y73.716 E.04585
G1 X135.397 Y74.577 E.0399
G1 X136.256 Y75.516 E.0399
G1 X137.619 Y77.435 E.0738
G1 X138.222 Y78.556 E.03991
G1 X138.726 Y79.725 E.03991
G1 X139.127 Y80.933 E.03991
G1 X139.441 Y82.264 E.04288
G1 X148.015 Y128.354 E1.46991
G1 X147.859 Y129.653 E.04102
G1 X147.055 Y130.59 E.03871
G1 X133.499 Y139.386 E.50667
G1 X132.308 Y139.739 E.03895
G1 X117.692 Y139.739 E.45827
G1 X116.501 Y139.386 E.03895
G1 X102.945 Y130.59 E.50667
G1 X102.111 Y129.583 E.041
G1 X101.985 Y128.354 E.03874
G1 X110.559 Y82.264 E1.46991
G1 X110.873 Y80.933 E.04288
M73 P1 R24
G1 X111.274 Y79.725 E.03991
G1 X112.285 Y77.599 E.07381
G1 X112.937 Y76.577 E.03801
M204 S1000
;WIPE_START
G1 F8640
G1 X112.969 Y76.526 E-.0139
G1 X113.744 Y75.516 E-.29396
G1 X114.603 Y74.577 E-.29386
G1 X115.235 Y73.996 E-.19828
;WIPE_END
G1 Z.6 F720
; printing object Moveable.stl id:0 copy 0
G1 X123.294 Y114.039 F10800
G1 Z.2 F720
G1 E.8 F2100
M204 S800
;TYPE:Perimeter
;WIDTH:0.419999
G1 F1200
G1 X123.335 Y113.984 E.00215
G1 X123.726 Y113.657 E.01598
G1 X124.187 Y113.411 E.01638
G1 X124.705 Y113.281 E.01675
G1 X125.208 Y113.274 E.01577
G1 X125.746 Y113.39 E.01726
G1 X126.242 Y113.631 E.01729
G1 X126.665 Y113.984 E.01727
G1 X126.991 Y114.428 E.01727
G1 X127.202 Y114.937 E.01728
G1 X127.283 Y115.468 E.01684
G1 X127.287 Y120.563 E.15975
G1 X127.202 Y121.163 E.019
G1 X126.991 Y121.672 E.01728
G1 X126.665 Y122.116 E.01727
G1 X126.258 Y122.46 E.01671
G1 X125.794 Y122.696 E.01632
G1 X125.287 Y122.821 E.01637
G1 X124.768 Y122.826 E.01627
G1 X124.254 Y122.71 E.01652
G1 X123.758 Y122.469 E.01729
G1 X123.335 Y122.116 E.01727
G1 X123.009 Y121.672 E.01727
G1 X122.798 Y121.163 E.01728
G1 X122.717 Y120.632 E.01684
G1 X122.713 Y115.537 E.15975
G1 X122.798 Y114.937 E.019
G1 X123.009 Y114.428 E.01728
G1 X123.259 Y114.088 E.01323
M204 S1000
G1 X123.259 Y114.088 F10800
G1 X123.572 Y114.285
M204 S800
;TYPE:External perimeter
G1 F1200
G1 X123.585 Y114.266 E.00072
G1 X123.907 Y113.988 E.01334
G1 X124.321 Y113.763 E.01477
G1 X124.792 Y113.651 E.01518
G1 X125.253 Y113.656 E.01446
G1 X125.699 Y113.772 E.01445
G1 X126.104 Y113.991 E.01444
G1 X126.445 Y114.3 E.01443
G1 X126.702 Y114.682 E.01444
G1 X126.86 Y115.115 E.01445
G1 X126.91 Y115.537 E.01332
G1 X126.91 Y120.563 E.15759
G1 X126.849 Y121.029 E.01474
G1 X126.681 Y121.458 E.01445
G1 X126.415 Y121.834 E.01444
G1 X126.066 Y122.135 E.01445
G1 X125.656 Y122.344 E.01443
G1 X125.208 Y122.449 E.01443
G1 X124.747 Y122.444 E.01446
G1 X124.301 Y122.328 E.01445
G1 X123.896 Y122.109 E.01444
G1 X123.555 Y121.8 E.01443
G1 X123.298 Y121.418 E.01444
G1 X123.14 Y120.985 E.01445
G1 X123.09 Y120.563 E.01332
G1 X123.09 Y115.537 E.15759
G1 X123.151 Y115.071 E.01474
G1 X123.319 Y114.642 E.01445
G1 X123.537 Y114.334 E.01183
M204 S1000
;WIPE_START
G1 F8640
G1 X123.572 Y114.285 E-.0139
G1 X123.585 Y114.266 E-.00532
G1 X123.907 Y113.988 E-.09823
G1 X124.321 Y113.763 E-.1088
G1 X124.792 Y113.651 E-.11179
G1 X125.253 Y113.656 E-.10645
G1 X125.699 Y113.772 E-.10641
G1 X126.104 Y113.991 E-.10631
G1 X126.445 Y114.3 E-.10626
G1 X126.533 Y114.431 E-.03653
;WIPE_END
G1 Z.6 F720
G1 X110.641 Y125.874 F10800
G1 Z.2 F720
G1 E.8 F2100
M204 S800
G1 F1200
G1 X110.59 Y125.771 E.0036
G1 X110.59 Y100.327 E.79778
G1 X110.779 Y100.14 E.00834
G1 X115.221 Y100.14 E.13928
G1 X115.364 Y100.206 E.00494
G1 X115.401 Y100.272 E.00237
G1 X115.41 Y125.771 E.7995
G1 X115.352 Y125.907 E.00464
G1 X115.221 Y125.96 E.00443
G1 X110.779 Y125.96 E.13928
G1 X110.671 Y125.924 E.00357
M204 S1000
;WIPE_START
G1 F8640
G1 X110.641 Y125.874 E-.01346
G1 X110.59 Y125.771 E-.02654
G1 X110.59 Y122.48 E-.76
;WIPE_END
G1 Z.6 F720
G1 X134.639 Y100.226 F10800
G1 Z.2 F720
G1 E.8 F2100
M204 S800
G1 F1200
G1 X134.659 Y100.183 E.00149
G1 X134.779 Y100.14 E.004
G1 X139.221 Y100.14 E.13928
G1 X139.407 Y100.294 E.00757
G1 X139.41 Y125.771 E.79881
G1 X139.335 Y125.922 E.00529
G1 X139.254 Y125.957 E.00277
G1 X134.779 Y125.96 E.14031
G1 X134.63 Y125.887 E.0052
G1 X134.59 Y125.771 E.00385
G1 X134.59 Y100.329 E.79771
G1 X134.613 Y100.28 E.0017
M204 S1000
;WIPE_START
G1 F8640
G1 X134.639 Y100.226 E-.01384
G1 X134.659 Y100.183 E-.01095
G1 X134.779 Y100.14 E-.02943
G1 X138.009 Y100.14 E-.74578
;WIPE_END
G1 Z.6 F720
G1 X139.781 Y100.329 F10800
G1 Z.2 F720
G1 E.8 F2100
M204 S800
;TYPE:Perimeter
;WIDTH:0.407886
G1 F1200
G1 X139.745 Y100.133 E.00605
M204 S1000
;WIPE_START
G1 F8640
G1 X139.781 Y100.329 E-.04601
G1 X139.745 Y100.133 E-.04601
;WIPE_END
G1 E-.70798 F2100
G1 Z.6 F720
G1 X131.521 Y136.763 F10800
G1 Z.2 F720
G1 E.8 F2100
M204 S800
;WIDTH:0.419999
G1 F1200
G1 X118.479 Y136.763 E.40892
G1 X118.478 Y133.316 E.10808
G1 X118.418 Y132.557 E.02387
G1 X118.248 Y131.805 E.02417
G1 X117.903 Y130.956 E.02873
G1 X117.563 Y130.364 E.02141
G1 X117.134 Y129.8 E.02222
G1 X116.585 Y129.26 E.02414
G1 X115.966 Y128.803 E.02412
G1 X115.287 Y128.439 E.02416
G1 X114.564 Y128.176 E.02412
G1 X113.81 Y128.018 E.02415
G1 X113.09 Y127.967 E.02263
G1 X105.083 Y127.967 E.25105
G1 X110.219 Y100.329 E.8814
G1 X110.213 Y125.639 E.79358
M73 P2 R24
G1 X110.256 Y125.989 E.01106
G1 X110.439 Y126.224 E.00934
G1 X110.779 Y126.337 E.01123
G1 X114.761 Y126.337 E.12485
G1 X115.375 Y126.316 E.01926
G1 X115.614 Y126.179 E.00864
G1 X115.738 Y126.002 E.00678
G1 X115.787 Y125.771 E.0074
G1 X115.785 Y100.284 E.79913
G1 X115.701 Y100.028 E.00845
G1 X115.501 Y99.837 E.00867
G1 X115.221 Y99.763 E.00908
G1 X110.779 Y99.763 E.13928
G1 X110.233 Y100.227 E.02247
G1 X113.482 Y82.825 E.55505
G1 X113.714 Y81.819 E.03237
G1 X114.027 Y80.854 E.03181
G1 X114.423 Y79.919 E.03184
G1 X114.898 Y79.023 E.0318
G1 X115.45 Y78.17 E.03186
G1 X116.065 Y77.379 E.03142
G1 X116.762 Y76.624 E.03222
G1 X117.514 Y75.943 E.03181
G1 X118.322 Y75.328 E.03184
G1 X119.18 Y74.786 E.03182
G1 X120.081 Y74.321 E.03179
G1 X121.02 Y73.935 E.03183
G1 X121.989 Y73.632 E.03183
G1 X122.98 Y73.413 E.03182
G1 X123.986 Y73.282 E.03181
G1 X125 Y73.238 E.03182
G1 X126.014 Y73.282 E.03182
G1 X127.02 Y73.413 E.03181
G1 X128.011 Y73.632 E.03182
G1 X128.98 Y73.935 E.03183
G1 X129.919 Y74.321 E.03183
G1 X130.809 Y74.781 E.03141
G1 X131.679 Y75.329 E.03224
G1 X132.486 Y75.943 E.03179
G1 X133.238 Y76.625 E.03183
G1 X133.928 Y77.369 E.03182
G1 X134.55 Y78.17 E.0318
G1 X135.102 Y79.023 E.03186
G1 X135.577 Y79.919 E.0318
G1 X135.973 Y80.854 E.03184
G1 X136.286 Y81.819 E.03181
G1 X136.518 Y82.825 E.03237
G1 X139.745 Y100.133 E.55203
G1 X139.221 Y99.763 E.02011
G1 X134.779 Y99.763 E.13928
G1 X134.69 Y99.77 E.0028
G1 X134.456 Y99.864 E.00791
G1 X134.282 Y100.057 E.00815
G1 X134.213 Y100.329 E.0088
G1 X134.217 Y125.837 E.79978
G1 X134.332 Y126.119 E.00955
G1 X134.549 Y126.289 E.00864
G1 X134.779 Y126.337 E.00737
G1 X139.319 Y126.329 E.14235
G1 X139.561 Y126.224 E.00827
G1 X139.744 Y125.989 E.00934
G1 X139.787 Y125.639 E.01106
G1 X139.781 Y100.329 E.79358
G1 X144.917 Y127.967 E.8814
G1 X136.91 Y127.967 E.25105
G1 X136.11 Y128.029 E.02516
G1 X135.436 Y128.176 E.02163
G1 X135.13 Y128.284 E.01017
G1 X134.64 Y128.473 E.01647
G1 X133.967 Y128.847 E.02414
G1 X133.351 Y129.315 E.02426
G1 X132.686 Y130.031 E.03064
G1 X132.357 Y130.481 E.01748
G1 X131.993 Y131.16 E.02416
G1 X131.729 Y131.883 E.02413
G1 X131.571 Y132.636 E.02412
G1 X131.521 Y133.357 E.02266
G1 X131.521 Y136.703 E.10491
M204 S1000
;WIPE_START
G1 F8640
G1 X131.521 Y136.763 E-.01385
G1 X128.116 Y136.763 E-.78615
;WIPE_END
G1 Z.6 F720
G1 X110.22 Y100.323 F10800
G1 Z.2 F720
G1 E.8 F2100
M204 S800
;WIDTH:0.406856
G1 F1200
G1 X110.233 Y100.227 E.00293
M204 S1000
;WIPE_START
G1 F8640
G1 X110.22 Y100.323 E-.02237
G1 X110.233 Y100.227 E-.02237
;WIPE_END
G1 E-.75526 F2100
G1 Z.6 F720
G1 X131.898 Y137.14 F10800
G1 Z.2 F720
G1 E.8 F2100
M204 S800
;TYPE:External perimeter
;WIDTH:0.419999
G1 F1200
G1 X118.102 Y137.14 E.43256
G1 X118.102 Y133.343 E.11905
G1 X118.049 Y132.637 E.0222
G1 X117.895 Y131.937 E.02247
G1 X117.572 Y131.136 E.02708
G1 X117.261 Y130.59 E.0197
G1 X116.867 Y130.067 E.02053
G1 X116.359 Y129.562 E.02246
G1 X115.785 Y129.134 E.02245
G1 X115.155 Y128.793 E.02246
G1 X114.484 Y128.544 E.02244
M73 P3 R24
G1 X113.783 Y128.394 E.02248
G1 X113.09 Y128.345 E.02178
G1 X104.63 Y128.345 E.26526
G1 X113.112 Y82.748 E1.45418
G1 X113.35 Y81.718 E.03315
G1 X113.674 Y80.722 E.03284
G1 X114.082 Y79.757 E.03285
G1 X114.573 Y78.832 E.03284
G1 X115.142 Y77.952 E.03286
G1 X115.777 Y77.135 E.03244
G1 X116.497 Y76.356 E.03326
G1 X117.273 Y75.652 E.03285
G1 X118.106 Y75.018 E.03282
G1 X118.992 Y74.459 E.03285
G1 X119.923 Y73.978 E.03286
G1 X120.892 Y73.58 E.03285
G1 X121.892 Y73.267 E.03285
G1 X122.915 Y73.042 E.03284
G1 X123.953 Y72.906 E.03282
G1 X125 Y72.86 E.03286
G1 X126.047 Y72.906 E.03286
G1 X127.085 Y73.042 E.03282
G1 X128.108 Y73.267 E.03284
G1 X129.108 Y73.58 E.03285
G1 X130.077 Y73.978 E.03285
G1 X130.996 Y74.453 E.03244
G1 X131.894 Y75.018 E.03327
G1 X132.727 Y75.652 E.03282
G1 X133.503 Y76.356 E.03285
G1 X134.215 Y77.125 E.03286
G1 X134.858 Y77.952 E.03285
G1 X135.427 Y78.832 E.03286
G1 X135.918 Y79.757 E.03284
G1 X136.326 Y80.722 E.03285
G1 X136.65 Y81.718 E.03284
G1 X136.888 Y82.748 E.03315
G1 X145.37 Y128.345 E1.45418
G1 X136.896 Y128.345 E.2657
G1 X136.19 Y128.397 E.0222
G1 X135.491 Y128.552 E.02245
G1 X134.82 Y128.804 E.02247
G1 X134.193 Y129.149 E.02244
G1 X133.619 Y129.58 E.02251
G1 X132.988 Y130.257 E.02902
G1 X132.687 Y130.662 E.01582
G1 X132.346 Y131.291 E.02243
G1 X132.097 Y131.963 E.02247
G1 X131.947 Y132.663 E.02245
G1 X131.898 Y133.357 E.02181
G1 X131.898 Y137.08 E.11673
M204 S1000
;WIPE_START
G1 F8640
G1 X131.898 Y137.14 E-.01385
G1 X128.493 Y137.14 E-.78615
;WIPE_END
G1 Z.6 F720
G1 X135.233 Y79.634 F10800
G1 Z.2 F720
G1 E.8 F2100
M204 S800
;TYPE:Solid infill
;WIDTH:0.420131
G1 F1200
G1 X130.734 Y75.134 E.19958
G1 X129.639 Y74.572 E.0386
G1 X135.372 Y80.306 E.25432
G1 X135.654 Y80.973 E.02271
G1 X135.726 Y81.193 E.00726
G1 X128.751 Y74.219 E.30937
G1 X127.975 Y73.976 E.0255
G1 X135.974 Y81.974 E.35479
G1 X136.134 Y82.668 E.02234
G1 X127.285 Y73.819 E.39252
G1 X126.962 Y73.748 E.01037
G1 X126.638 Y73.706 E.01025
G1 X136.268 Y83.336 E.42716
G1 X136.39 Y83.992 E.02093
G1 X126.024 Y73.625 E.45983
G1 X125.463 Y73.598 E.01762
G1 X136.512 Y84.647 E.4901
G1 X136.634 Y85.302 E.0209
G1 X124.913 Y73.581 E.51991
G1 X124.402 Y73.603 E.01604
G1 X136.756 Y85.958 E.54801
G1 X136.878 Y86.613 E.0209
M73 P4 R24
G1 X123.9 Y73.635 E.57567
G1 X123.428 Y73.697 E.01493
G1 X137 Y87.269 E.60201
G1 X137.122 Y87.924 E.0209
G1 X122.963 Y73.765 E.62805
G1 X122.525 Y73.861 E.01406
G1 X137.244 Y88.579 E.65287
G1 X137.366 Y89.235 E.02093
G1 X122.088 Y73.957 E.67769
G1 X121.681 Y74.083 E.01336
G1 X137.488 Y89.89 E.70115
G1 X137.61 Y90.545 E.0209
G1 X121.275 Y74.211 E.72455
G1 X120.887 Y74.356 E.01299
M73 P4 R23
G1 X137.732 Y91.201 E.7472
G1 X137.854 Y91.856 E.0209
G1 X120.509 Y74.512 E.76935
G1 X120.138 Y74.674 E.0127
G1 X137.975 Y92.512 E.79122
G1 X138.097 Y93.167 E.0209
G1 X119.786 Y74.855 E.81225
G1 X119.434 Y75.037 E.01243
G1 X138.219 Y93.822 E.83325
G1 X138.341 Y94.478 E.02093
G1 X119.101 Y75.238 E.85343
G1 X118.774 Y75.444 E.01212
M73 P5 R23
G1 X138.463 Y95.133 E.87335
G1 X138.585 Y95.788 E.0209
G1 X118.452 Y75.656 E.89302
G1 X118.149 Y75.886 E.01193
G1 X138.707 Y96.444 E.91189
G1 X138.829 Y97.099 E.0209
G1 X117.846 Y76.116 E.93075
G1 X117.557 Y76.361 E.01188
G1 X138.951 Y97.755 E.94898
G1 X139.073 Y98.41 E.0209
G1 X117.278 Y76.615 E.96676
G1 X116.998 Y76.869 E.01186
G1 X139.195 Y99.065 E.98457
G1 X139.261 Y99.424 E.01145
G1 X139.019 Y99.424 E.00759
G1 X116.742 Y77.146 E.98817
G1 X116.486 Y77.423 E.01183
G1 X138.486 Y99.424 E.97588
G1 X137.952 Y99.424 E.01675
G1 X116.238 Y77.709 E.96319
G1 X116.005 Y78.009 E.01191
M73 P6 R23
G1 X137.419 Y99.424 E.94989
G1 X136.886 Y99.424 E.01672
G1 X115.771 Y78.309 E.9366
G1 X115.557 Y78.629 E.01207
G1 X136.352 Y99.424 E.92241
G1 X135.819 Y99.424 E.01672
G1 X115.348 Y78.953 E.90803
G1 X115.145 Y79.283 E.01215
G1 X135.285 Y99.424 E.89337
G1 X134.754 Y99.426 E.01666
G1 X114.96 Y79.632 E.878
G1 X114.775 Y79.98 E.01236
G1 X134.334 Y99.539 E.86758
G1 X134.201 Y99.631 E.00507
G1 X134.056 Y99.795 E.00687
G1 X114.61 Y80.349 E.86257
G1 X114.451 Y80.723 E.01275
G1 X133.892 Y100.164 E.86235
G1 X133.874 Y100.32 E.00493
G1 X133.874 Y100.679 E.01126
G1 X114.302 Y81.108 E.86814
G1 X114.171 Y81.51 E.01326
M73 P7 R23
G1 X133.874 Y101.213 E.87397
G1 X133.874 Y101.746 E.01672
G1 X114.041 Y81.913 E.87973
G1 X113.94 Y82.346 E.01395
G1 X133.874 Y102.28 E.88421
G1 X133.874 Y102.813 E.01672
G1 X113.84 Y82.78 E.88863
G1 X113.752 Y83.225 E.01423
G1 X133.874 Y103.346 E.89253
G1 X133.874 Y103.88 E.01675
G1 X113.669 Y83.675 E.89624
G1 X113.585 Y84.125 E.01436
G1 X133.874 Y104.413 E.89994
G1 X133.874 Y104.947 E.01675
G1 X113.501 Y84.574 E.90369
G1 X113.417 Y85.024 E.01436
G1 X133.874 Y105.48 E.90739
G1 X133.874 Y106.014 E.01675
G1 X113.334 Y85.474 E.9111
G1 X113.25 Y85.924 E.01436
G1 X133.874 Y106.547 E.9148
G1 X133.874 Y107.081 E.01675
M73 P8 R23
G1 X113.166 Y86.374 E.91853
G1 X113.083 Y86.823 E.01432
G1 X133.874 Y107.614 E.92223
G1 X133.874 Y108.148 E.01675
G1 X112.999 Y87.273 E.92595
G1 X112.915 Y87.723 E.01436
G1 X133.874 Y108.681 E.92966
G1 X133.874 Y109.215 E.01675
M73 P8 R22
G1 X112.832 Y88.173 E.93336
G1 X112.748 Y88.623 E.01436
G1 X133.874 Y109.748 E.93707
G1 X133.874 Y110.281 E.01672
G1 X112.664 Y89.072 E.94079
G1 X112.581 Y89.522 E.01435
G1 X133.874 Y110.815 E.9445
G1 X133.874 Y111.348 E.01672
G1 X112.497 Y89.972 E.9482
G1 X112.413 Y90.422 E.01436
G1 X133.874 Y111.882 E.95193
M73 P9 R22
G1 X133.874 Y112.415 E.01672
G1 X112.33 Y90.871 E.95563
G1 X112.246 Y91.321 E.01436
G1 X133.874 Y112.949 E.95936
G1 X133.874 Y113.482 E.01672
G1 X112.162 Y91.771 E.96306
G1 X112.079 Y92.221 E.01435
G1 X133.874 Y114.016 E.96676
G1 X133.874 Y114.549 E.01672
G1 X111.995 Y92.671 E.97047
G1 X111.911 Y93.12 E.01433
G1 X133.874 Y115.083 E.97422
G1 X133.874 Y115.616 E.01672
G1 X111.828 Y93.57 E.9779
G1 X111.744 Y94.02 E.01436
G1 X133.874 Y116.149 E.9816
G1 X133.874 Y116.683 E.01675
G1 X111.66 Y94.47 E.98533
G1 X111.577 Y94.919 E.01432
M73 P10 R22
