; generated by PrusaSlicer 2.8.1+win64 on 2024-12-20 at 00:14:10 UTC


;
;
; 

; external perimeters extrusion width = 0.60mm
; perimeters extrusion width = 0.43mm
; infill extrusion width = 0.45mm
; solid infill extrusion width = 0.70mm
; top infill extrusion width = 0.45mm
; first layer extrusion width = 0.42mm

M73 P0 R53
M201 X9000 Y9000 Z500 E10000 ; sets maximum accelerations, mm/sec^2
M203 X500 Y500 Z12 E120 ; sets maximum feedrates, mm / sec
M204 S2000 T1500 ; sets acceleration (S) and retract acceleration (R), mm/sec^2
M205 X10.00 Y10.00 Z0.20 E4.50 ; sets the jerk limits, mm/sec
M205 S0 T0 ; sets the minimum extruding and travel feed rate, mm/sec

; printing object Y-axis idler pulley support.stl id:0 copy 0
; stop printing object Y-axis idler pulley support.stl id:0 copy 0

;TYPE:Custom
M862.3 P "MK2.5S" ; printer model check
M862.1 P0.4 ; nozzle diameter check
M115 U3.14.0 ; tell printer latest fw version
G90 ; use absolute coordinates
M83 ; extruder relative mode
M104 S215 ; set extruder temp
M140 S60 ; set bed temp
M190 S60 ; wait for bed temp
M109 S215 ; wait for extruder temp
G28 W ; home all without mesh bed level
G80 X100.123 Y65.0801 W49.7542 H79.8399 ; mesh bed levelling

G1 Z0.2 F720
G1 Y-3 F1000 ; go outside print area
G92 E0
G1 X60 E9 F1000 ; intro line
G1 X100 E12.5 F1000 ; intro line

G92 E0
G21 ; set units to millimeters
G90 ; use absolute coordinates
M83 ; use relative distances for extrusion

M900 K0.05 ; Filament gcode LA 1.5
M900 K30 ; Filament gcode LA 1.0




M107
;LAYER_CHANGE
;Z:0.2
;HEIGHT:0.2
G1 E-.8 F2100
G1 Z.6 F720
G1 X112.552 Y72.149 F10800
G1 Z.2 F720
G1 E.8 F2100
M204 S800
;TYPE:Skirt/Brim
;WIDTH:0.42
G1 F1200
G1 X113.353 Y70.996 E.04402
G1 X114.422 Y69.756 E.05133
G1 X115.424 Y68.807 E.04327
G1 X116.532 Y67.944 E.04404
G1 X117.535 Y67.295 E.03746
G1 X118.777 Y66.64 E.04403
G1 X120.076 Y66.106 E.04404
G1 X121.42 Y65.699 E.04403
G1 X123.093 Y65.384 E.05338
G1 X124.402 Y65.269 E.0412
G1 X125.807 Y65.279 E.04405
G1 X127.203 Y65.423 E.044
G1 X128.377 Y65.65 E.03749
G1 X129.924 Y66.106 E.05057
G1 X131.223 Y66.64 E.04404
G1 X132.284 Y67.19 E.03747
G1 X133.638 Y68.066 E.05056
G1 X134.576 Y68.807 E.03748
G1 X135.595 Y69.773 E.04402
G1 X136.647 Y70.996 E.05058
G1 X137.336 Y71.973 E.03748
G1 X138.04 Y73.187 E.044
G1 X138.626 Y74.463 E.04403
G1 X139.087 Y75.79 E.04405
G1 X139.441 Y77.256 E.04729
G1 X149.652 Y132.143 E1.75047
G1 X149.689 Y142.543 E.32609
G1 X149.298 Y143.791 E.04101
G1 X148.265 Y144.593 E.041
G1 X147.5 Y144.731 E.02437
G1 X102.5 Y144.731 E1.41094
G1 X101.252 Y144.341 E.041
G1 X100.449 Y143.308 E.04102
G1 X100.311 Y142.543 E.02437
G1 X100.348 Y132.143 E.32609
G1 X110.559 Y77.256 E1.75047
G1 X110.913 Y75.79 E.04729
G1 X111.374 Y74.463 E.04405
G1 X111.865 Y73.374 E.03745
G1 X112.523 Y72.202 E.04214
M204 S1000
;WIPE_START
G1 F8640
G1 X112.552 Y72.149 E-.01395
G1 X113.353 Y70.996 E-.32417
G1 X114.422 Y69.756 E-.37803
G1 X114.686 Y69.506 E-.08385
;WIPE_END
G1 Z.6 F720
; printing object Y-axis idler pulley support.stl id:0 copy 0
G1 X126.972 Y111.682 F10800
G1 Z.2 F720
G1 E.8 F2100
M204 S800
;TYPE:Perimeter
;WIDTH:0.419999
G1 F1200
G1 X126.667 Y112.106 E.01638
G1 X126.206 Y112.484 E.01869
G1 X125.663 Y112.73 E.01869
G1 X125.544 Y112.765 E.00389
G1 X125.044 Y112.83 E.01581
G1 X124.48 Y112.768 E.01779
G1 X123.922 Y112.558 E.01869
G1 X123.437 Y112.21 E.01872
G1 X123.059 Y111.749 E.01869
G1 X122.826 Y111.237 E.01764
G1 X122.717 Y110.627 E.01943
G1 X122.775 Y110.023 E.01903
G1 X122.985 Y109.465 E.01869
G1 X123.333 Y108.98 E.01872
G1 X123.794 Y108.602 E.01869
G1 X124.338 Y108.356 E.01872
G1 X124.892 Y108.263 E.01761
G1 X125.509 Y108.316 E.01942
G1 X126.078 Y108.528 E.01904
G1 X126.563 Y108.876 E.01872
G1 X126.941 Y109.337 E.01869
G1 X127.187 Y109.88 E.01869
G1 X127.284 Y110.469 E.01872
G1 X127.225 Y111.063 E.01872
G1 X127.015 Y111.621 E.01869
G1 X127.007 Y111.633 E.00045
M204 S1000
G1 X127.007 Y111.633 F10800
G1 X126.652 Y111.496
M204 S800
;TYPE:External perimeter
G1 F1200
G1 X126.642 Y111.519 E.00079
G1 X126.333 Y111.911 E.01565
G1 X125.934 Y112.21 E.01563
G1 X125.479 Y112.393 E.01538
G1 X124.975 Y112.453 E.01591
G1 X124.482 Y112.382 E.01562
G1 X124.024 Y112.185 E.01563
G1 X123.632 Y111.876 E.01565
G1 X123.333 Y111.477 E.01563
G1 X123.162 Y111.049 E.01445
G1 X123.088 Y110.554 E.01569
G1 X123.151 Y110.056 E.01574
G1 X123.349 Y109.58 E.01616
G1 X123.667 Y109.175 E.01615
G1 X124.066 Y108.876 E.01563
G1 X124.529 Y108.691 E.01563
G1 X124.987 Y108.637 E.01446
G1 X125.492 Y108.695 E.01594
G1 X125.962 Y108.891 E.01597
G1 X126.368 Y109.209 E.01617
G1 X126.667 Y109.609 E.01566
G1 X126.852 Y110.072 E.01563
G1 X126.91 Y110.567 E.01563
G1 X126.839 Y111.061 E.01565
G1 X126.676 Y111.441 E.01296
M204 S1000
;WIPE_START
G1 F8640
G1 X126.652 Y111.496 E-.01386
G1 X126.642 Y111.519 E-.00579
G1 X126.333 Y111.911 E-.11525
G1 X125.934 Y112.21 E-.11513
G1 X125.479 Y112.393 E-.11324
G1 X124.975 Y112.453 E-.1172
G1 X124.482 Y112.382 E-.11501
G1 X124.024 Y112.185 E-.11512
G1 X123.72 Y111.945 E-.0894
;WIPE_END
G1 Z.6 F720
G1 X103.287 Y141.756 F10800
G1 Z.2 F720
G1 E.8 F2100
M204 S800
;TYPE:Perimeter
G1 F1200
G1 X103.287 Y132.615 E.28661
G1 X113.481 Y77.819 E1.74757
G1 X113.743 Y76.711 E.0357
G1 X114.103 Y75.651 E.0351
G1 X114.563 Y74.63 E.03511
G1 X115.118 Y73.657 E.03512
G1 X115.763 Y72.742 E.0351
G1 X116.493 Y71.893 E.03511
G1 X117.301 Y71.117 E.03513
G1 X118.179 Y70.422 E.03511
G1 X119.119 Y69.814 E.0351
G1 X120.113 Y69.299 E.0351
G1 X121.152 Y68.881 E.03511
G1 X122.226 Y68.564 E.03511
G1 X123.325 Y68.351 E.0351
G1 X124.44 Y68.244 E.03512
G1 X125.574 Y68.246 E.03556
G1 X126.675 Y68.351 E.03468
G1 X127.774 Y68.564 E.0351
G1 X128.848 Y68.881 E.03511
G1 X129.887 Y69.299 E.03511
G1 X130.881 Y69.814 E.0351
G1 X131.821 Y70.422 E.0351
G1 X132.699 Y71.117 E.03511
G1 X133.507 Y71.893 E.03513
G1 X134.237 Y72.742 E.03511
G1 X134.882 Y73.657 E.0351
G1 X135.437 Y74.63 E.03512
G1 X135.897 Y75.651 E.03511
G1 X136.257 Y76.711 E.0351
G1 X136.519 Y77.819 E.0357
G1 X146.713 Y132.615 E1.74757
G1 X146.713 Y133.387 E.02421
G1 X146.713 Y141.756 E.2624
G1 X103.347 Y141.756 E1.35971
M204 S1000
G1 X103.347 Y141.756 F10800
G1 X102.91 Y142.133
M204 S800
;TYPE:External perimeter
G1 F1200
G1 X102.91 Y132.581 E.2995
G1 X113.112 Y77.741 E1.74897
G1 X113.38 Y76.607 E.03654
M73 P1 R53
G1 X113.752 Y75.512 E.03626
G1 X114.226 Y74.458 E.03624
G1 X114.799 Y73.454 E.03625
G1 X115.465 Y72.51 E.03622
G1 X116.219 Y71.633 E.03626
G1 X117.053 Y70.833 E.03623
G1 X117.959 Y70.115 E.03625
G1 X118.93 Y69.488 E.03624
G1 X119.956 Y68.956 E.03624
G1 X121.028 Y68.524 E.03624
G1 X122.137 Y68.197 E.03625
G1 X123.271 Y67.978 E.03621
G1 X124.422 Y67.867 E.03626
G1 X125.592 Y67.869 E.03668
G1 X126.729 Y67.978 E.03581
G1 X127.863 Y68.197 E.03621
G1 X128.972 Y68.524 E.03625
G1 X130.044 Y68.956 E.03624
G1 X131.07 Y69.488 E.03624
G1 X132.041 Y70.115 E.03624
G1 X132.947 Y70.833 E.03625
G1 X133.781 Y71.633 E.03623
G1 X134.535 Y72.51 E.03626
G1 X135.201 Y73.454 E.03622
G1 X135.774 Y74.458 E.03625
G1 X136.248 Y75.512 E.03624
G1 X136.62 Y76.607 E.03626
G1 X136.888 Y77.741 E.03654
G1 X147.09 Y132.581 E1.74897
G1 X147.09 Y133.387 E.02527
G1 X147.09 Y142.133 E.27422
G1 X102.97 Y142.133 E1.38335
M204 S1000
;WIPE_START
G1 F8640
G1 X102.91 Y142.133 E-.01385
G1 X102.91 Y138.728 E-.78615
;WIPE_END
G1 Z.6 F720
G1 X131.64 Y70.507 F10800
G1 Z.2 F720
G1 E.8 F2100
M204 S800
;TYPE:Solid infill
;WIDTH:0.421441
G1 F1200
G1 X133.266 Y72.133 E.07238
G1 X133.969 Y72.951 E.03395
G1 X134.596 Y73.839 E.03421
G1 X134.807 Y74.209 E.01341
G1 X130.701 Y70.103 E.18276
G1 X129.62 Y69.557 E.03812
G1 X135.371 Y75.309 E.25601
G1 X135.581 Y75.775 E.01609
M73 P1 R52
G1 X135.724 Y76.197 E.01402
G1 X128.726 Y69.199 E.31149
G1 X127.966 Y68.975 E.02494
G1 X135.972 Y76.98 E.35633
G1 X136.138 Y77.681 E.02267
G1 X127.268 Y68.812 E.39479
G1 X126.607 Y68.686 E.02118
G1 X136.273 Y78.352 E.43024
G1 X136.395 Y79.009 E.02103
G1 X126.015 Y68.629 E.46203
G1 X125.435 Y68.585 E.01831
G1 X136.517 Y79.667 E.49327
G1 X136.64 Y80.325 E.02107
G1 X124.899 Y68.584 E.52261
G1 X124.372 Y68.592 E.01659
G1 X136.762 Y80.982 E.55149
G1 X136.884 Y81.64 E.02106
G1 X123.883 Y68.639 E.57869
G1 X123.395 Y68.685 E.01543
G1 X137.007 Y82.298 E.60591
G1 X137.129 Y82.955 E.02103
G1 X122.945 Y68.771 E.63135
G1 X122.496 Y68.857 E.01439
G1 X137.251 Y83.613 E.65678
G1 X137.374 Y84.27 E.02104
G1 X122.068 Y68.965 E.68127
G1 X121.655 Y69.087 E.01355
G1 X137.496 Y84.928 E.7051
G1 X137.618 Y85.586 E.02106
G1 X121.243 Y69.21 E.72889
G1 X120.861 Y69.364 E.01296
G1 X137.741 Y86.243 E.75133
G1 X137.863 Y86.901 E.02106
G1 X120.48 Y69.517 E.77376
G1 X120.11 Y69.683 E.01276
G1 X137.986 Y87.559 E.79568
G1 X138.108 Y88.216 E.02103
G1 X119.757 Y69.866 E.8168
G1 X119.405 Y70.049 E.01249
G1 X138.23 Y88.874 E.83792
G1 X138.353 Y89.532 E.02107
G1 X119.071 Y70.25 E.85826
G1 X118.745 Y70.46 E.01221
M73 P2 R52
G1 X138.475 Y90.189 E.87818
G1 X138.597 Y90.847 E.02106
G1 X118.42 Y70.67 E.8981
G1 X118.118 Y70.903 E.01201
G1 X138.72 Y91.505 E.91702
G1 X138.842 Y92.162 E.02103
G1 X117.819 Y71.14 E.93574
G1 X117.521 Y71.376 E.01196
G1 X138.964 Y92.82 E.95448
G1 X139.087 Y93.478 E.02107
G1 X117.248 Y71.639 E.97208
G1 X116.975 Y71.901 E.01191
G1 X139.209 Y94.135 E.98966
G1 X139.331 Y94.793 E.02106
G1 X116.705 Y72.167 E1.00711
G1 X116.458 Y72.455 E.01194
G1 X139.454 Y95.451 E1.02358
G1 X139.576 Y96.108 E.02103
G1 X116.21 Y72.743 E1.04003
G1 X115.97 Y73.038 E.01197
G1 X139.698 Y96.766 E1.05616
G1 X139.821 Y97.424 E.02107
G1 X115.749 Y73.351 E1.0715
G1 X115.527 Y73.665 E.0121
G1 X139.943 Y98.081 E1.08678
G1 X140.065 Y98.739 E.02106
G1 X115.318 Y73.991 E1.10154
G1 X115.123 Y74.332 E.01236
G1 X140.188 Y99.397 E1.11567
G1 X140.31 Y100.054 E.02103
G1 X114.929 Y74.673 E1.12974
G1 X114.753 Y75.033 E.01261
G1 X140.433 Y100.712 E1.14302
G1 X140.555 Y101.37 E.02106
G1 X114.587 Y75.402 E1.15587
G1 X114.421 Y75.771 E.01274
G1 X140.677 Y102.027 E1.16869
G1 X140.8 Y102.685 E.02107
G1 X114.285 Y76.17 E1.18021
G1 X114.149 Y76.57 E.0133
M73 P3 R52
G1 X140.922 Y103.343 E1.1917
G1 X141.044 Y104 E.02103
G1 X114.027 Y76.983 E1.20256
G1 X113.925 Y77.416 E.014
G1 X141.167 Y104.658 E1.21257
G1 X141.289 Y105.316 E.02106
M73 P3 R51
G1 X113.823 Y77.849 E1.22257
G1 X113.737 Y78.299 E.01442
G1 X141.411 Y105.973 E1.2318
G1 X141.534 Y106.631 E.02107
G1 X113.653 Y78.75 E1.24102
G1 X113.569 Y79.202 E.01447
G1 X141.656 Y107.289 E1.25019
G1 X141.778 Y107.946 E.02103
G1 X113.485 Y79.653 E1.25935
G1 X113.401 Y80.104 E.01444
G1 X141.901 Y108.604 E1.26857
G1 X142.023 Y109.262 E.02106
G1 X113.317 Y80.556 E1.27774
G1 X113.233 Y81.007 E.01444
G1 X142.145 Y109.919 E1.28691
G1 X142.268 Y110.577 E.02107
G1 X113.149 Y81.458 E1.29612
G1 X113.065 Y81.91 E.01447
G1 X142.39 Y111.234 E1.30527
G1 X142.512 Y111.892 E.02106
G1 X112.981 Y82.361 E1.31446
G1 X112.897 Y82.812 E.01444
G1 X142.635 Y112.55 E1.32367
G1 X142.757 Y113.207 E.02103
M73 P4 R51
G1 X112.813 Y83.264 E1.33282
G1 X112.73 Y83.715 E.01443
G1 X142.879 Y113.865 E1.34199
G1 X143.002 Y114.523 E.02107
G1 X112.646 Y84.166 E1.3512
G1 X112.562 Y84.618 E.01447
G1 X143.124 Y115.18 E1.36035
G1 X143.247 Y115.838 E.02107
G1 X112.478 Y85.069 E1.36956
G1 X112.394 Y85.521 E.01447
G1 X143.369 Y116.496 E1.37873
G1 X143.491 Y117.153 E.02103
G1 X112.31 Y85.972 E1.3879
G1 X112.226 Y86.423 E.01444
G1 X143.614 Y117.811 E1.39712
G1 X143.736 Y118.469 E.02106
G1 X112.142 Y86.875 E1.40629
G1 X112.058 Y87.326 E.01444
G1 X143.858 Y119.126 E1.41546
G1 X143.981 Y119.784 E.02107
G1 X111.974 Y87.777 E1.42467
G1 X111.89 Y88.229 E.01447
G1 X144.103 Y120.442 E1.43384
G1 X144.225 Y121.099 E.02103
G1 X111.806 Y88.68 E1.44301
G1 X111.722 Y89.131 E.01444
G1 X144.348 Y121.757 E1.45222
G1 X144.47 Y122.415 E.02106
G1 X111.638 Y89.583 E1.46139
G1 X111.554 Y90.034 E.01444
M73 P5 R51
G1 X144.592 Y123.072 E1.47056
G1 X144.715 Y123.73 E.02107
M73 P5 R50
G1 X111.47 Y90.485 E1.47977
G1 X111.386 Y90.937 E.01447
G1 X144.837 Y124.388 E1.48894
G1 X144.959 Y125.045 E.02103
G1 X111.302 Y91.388 E1.49811
G1 X111.218 Y91.839 E.01444
G1 X145.082 Y125.703 E1.50733
G1 X145.204 Y126.361 E.02106
G1 X111.134 Y92.291 E1.5165
G1 X111.05 Y92.742 E.01444
G1 X145.326 Y127.018 E1.52566
G1 X145.449 Y127.676 E.02107
G1 X127.471 Y109.698 E.80022
G1 X127.326 Y109.327 E.01254
G1 X127.216 Y109.137 E.00691
G1 X126.833 Y108.658 E.0193
G1 X126.342 Y108.282 E.01946
G1 X125.832 Y108.06 E.01751
G1 X110.966 Y93.193 E.66173
G1 X110.882 Y93.645 E.01447
G1 X125.182 Y107.945 E.63651
G1 X124.915 Y107.919 E.00844
G1 X124.658 Y107.955 E.00817
G1 X110.798 Y94.096 E.6169
G1 X110.714 Y94.547 E.01444
G1 X124.213 Y108.046 E.60086
G1 X123.831 Y108.199 E.01295
G1 X110.63 Y94.999 E.58757
G1 X110.546 Y95.45 E.01444
G1 X123.499 Y108.403 E.57655
G1 X123.201 Y108.64 E.01198
G1 X110.462 Y95.901 E.56703
G1 X110.378 Y96.353 E.01447
G1 X122.951 Y108.925 E.55962
G1 X122.725 Y109.235 E.01207
G1 X110.294 Y96.804 E.55332
G1 X110.211 Y97.255 E.01443
G1 X122.562 Y109.607 E.54978
G1 X122.497 Y109.756 E.00512
G1 X122.435 Y110.015 E.00838
G1 X110.127 Y97.707 E.54784
G1 X110.043 Y98.158 E.01444
G1 X122.376 Y110.491 E.54896
G1 X122.446 Y111.097 E.0192
G1 X109.813 Y98.464 E.56231
M204 S1000
;WIPE_START
G1 F8640
M73 P6 R50
G1 X112.263 Y100.914 E-.8
;WIPE_END
G1 Z.6 F720
G1 X127.413 Y110.175 F10800
G1 Z.2 F720
G1 E.8 F2100
M204 S800
G1 F1200
G1 X145.571 Y128.334 E.80826
G1 X145.693 Y128.991 E.02103
G1 X127.588 Y110.886 E.80587
G1 X127.561 Y111.116 E.00729
G1 X127.501 Y111.334 E.00712
G1 X145.816 Y129.649 E.81522
G1 X145.938 Y130.307 E.02106
G1 X127.338 Y111.706 E.82793
G1 X127.258 Y111.889 E.00629
G1 X127.139 Y112.042 E.0061
G1 X146.061 Y130.964 E.84224
G1 X146.183 Y131.622 E.02106
G1 X126.905 Y112.343 E.85811
G1 X126.857 Y112.404 E.00244
G1 X126.618 Y112.592 E.00957
G1 X146.305 Y132.28 E.87631
G1 X146.374 Y132.647 E.01175
G1 X146.374 Y132.883 E.00743
G1 X126.306 Y112.816 E.89323
G1 X125.934 Y112.979 E.01278
G1 X146.374 Y133.418 E.90979
G1 X146.374 Y133.954 E.01687
G1 X125.526 Y113.106 E.92797
G1 X125.052 Y113.168 E.01505
G1 X146.374 Y134.489 E.94904
G1 X146.374 Y135.024 E.01684
G1 X124.209 Y112.86 E.98657
M204 S1000
;WIPE_START
G1 F8640
G1 X126.659 Y115.31 E-.8
;WIPE_END
G1 Z.6 F720
G1 X109.729 Y98.915 F10800
G1 Z.2 F720
G1 E.8 F2100
M204 S800
G1 F1200
G1 X146.374 Y135.56 E1.63111
G1 X146.374 Y136.095 E.01684
G1 X109.791 Y99.512 E1.62835
G1 X109.707 Y99.964 E.01447
G1 X146.374 Y136.63 E1.63207
G1 X146.374 Y137.166 E.01687
G1 X109.623 Y100.415 E1.63583
G1 X109.539 Y100.866 E.01444
G1 X146.374 Y137.701 E1.63957
G1 X146.374 Y138.236 E.01684
M73 P6 R49
G1 X109.455 Y101.318 E1.64329
G1 X109.371 Y101.769 E.01444
M73 P7 R49
G1 X146.374 Y138.772 E1.64705
G1 X146.374 Y139.307 E.01684
G1 X109.287 Y102.22 E1.65079
G1 X109.203 Y102.672 E.01447
G1 X146.374 Y139.842 E1.6545
G1 X146.374 Y140.377 E.01684
G1 X109.119 Y103.123 E1.65824
G1 X109.035 Y103.574 E.01444
G1 X146.374 Y140.913 E1.662
G1 X146.374 Y141.416 E.01583
G1 X146.342 Y141.416 E.00101
G1 X108.951 Y104.026 E1.66429
G1 X108.867 Y104.477 E.01444
G1 X145.807 Y141.416 E1.64422
G1 X145.271 Y141.416 E.01687
G1 X108.783 Y104.928 E1.62412
G1 X108.699 Y105.38 E.01447
G1 X144.736 Y141.416 E1.60403
G1 X144.201 Y141.416 E.01684
G1 X108.615 Y105.831 E1.58395
G1 X108.531 Y106.282 E.01444
G1 X143.665 Y141.416 E1.56386
G1 X143.13 Y141.416 E.01684
G1 X108.447 Y106.734 E1.54376
G1 X108.363 Y107.185 E.01444
M73 P8 R49
G1 X142.595 Y141.416 E1.52368
G1 X142.059 Y141.416 E.01687
G1 X108.279 Y107.636 E1.50359
G1 X108.195 Y108.088 E.01447
G1 X141.524 Y141.416 E1.48349
G1 X140.989 Y141.416 E.01684
G1 X108.111 Y108.539 E1.46342
G1 X108.027 Y108.99 E.01444
G1 X140.453 Y141.416 E1.44332
G1 X139.918 Y141.416 E.01684
G1 X107.943 Y109.442 E1.42322
G1 X107.859 Y109.893 E.01444
G1 X139.383 Y141.416 E1.40315
G1 X138.848 Y141.416 E.01684
G1 X107.776 Y110.344 E1.38305
G1 X107.692 Y110.796 E.01447
G1 X138.312 Y141.416 E1.36293
G1 X137.777 Y141.416 E.01684
G1 X107.608 Y111.247 E1.34286
G1 X107.524 Y111.698 E.01444
G1 X137.242 Y141.416 E1.32278
G1 X136.706 Y141.416 E.01687
M73 P8 R48
G1 X107.44 Y112.15 E1.30266
G1 X107.356 Y112.601 E.01444
