; generated by PrusaSlicer 2.8.1+win64 on 2025-02-13 at 22:59:46 UTC


;
;
; 

; external perimeters extrusion width = 0.45mm
; perimeters extrusion width = 0.45mm
; infill extrusion width = 0.45mm
; solid infill extrusion width = 0.45mm
; top infill extrusion width = 0.40mm
; support material extrusion width = 0.35mm
; first layer extrusion width = 0.42mm

M73 P0 R28
M201 X9000 Y9000 Z500 E10000 ; sets maximum accelerations, mm/sec^2
M203 X500 Y500 Z12 E120 ; sets maximum feedrates, mm / sec
M204 S2000 T1500 ; sets acceleration (S) and retract acceleration (R), mm/sec^2
M205 X10.00 Y10.00 Z0.20 E4.50 ; sets the jerk limits, mm/sec
M205 S0 T0 ; sets the minimum extruding and travel feed rate, mm/sec

; printing object inkwell v4 id:0 copy 0
; stop printing object inkwell v4 id:0 copy 0

;TYPE:Custom
M862.3 P "MK2.5S" ; printer model check
M862.1 P0.4 ; nozzle diameter check
M115 U3.14.0 ; tell printer latest fw version
G90 ; use absolute coordinates
M83 ; extruder relative mode
M104 S215 ; set extruder temp
M140 S60 ; set bed temp
M190 S60 ; wait for bed temp
M109 S215 ; wait for extruder temp
G28 W ; home all without mesh bed level
G80 X106.031 Y85.2771 W38.342 H37.9364 ; mesh bed levelling

G1 Z0.2 F720
G1 Y-3 F1000 ; go outside print area
G92 E0
G1 X60 E9 F1000 ; intro line
G1 X100 E12.5 F1000 ; intro line

G92 E0
G21 ; set units to millimeters
G90 ; use absolute coordinates
M83 ; use relative distances for extrusion

M900 K0.05 ; Filament gcode LA 1.5
M900 K30 ; Filament gcode LA 1.0




M107
;LAYER_CHANGE
;Z:0.2
;HEIGHT:0.2
G1 E-.8 F2100
G1 Z.6 F720
G1 X111.092 Y91.434 F10800
G1 Z.2 F720
G1 E.8 F2100
M204 S800
;TYPE:Skirt/Brim
;WIDTH:0.42
G1 F1200
G1 X111.843 Y90.574 E.0358
G1 X113.068 Y89.545 E.05016
G1 X114.745 Y88.618 E.06008
G1 X121.123 Y86.143 E.21451
G1 X122.344 Y85.742 E.0403
G1 X123.924 Y85.486 E.05019
G1 X125.041 Y85.495 E.03502
G1 X125.98 Y85.578 E.02956
G1 X127.093 Y85.832 E.03579
G1 X128.812 Y86.537 E.05825
G1 X137.084 Y91.106 E.2963
G1 X138.631 Y92.258 E.06048
G1 X139.707 Y93.497 E.05145
G1 X140.515 Y94.933 E.05166
G1 X144.001 Y105.938 E.36195
G1 X144.185 Y107.528 E.05019
G1 X144.001 Y109.577 E.0645
G1 X143.535 Y111.109 E.05021
G1 X142.804 Y112.532 E.05016
G1 X137.325 Y119.832 E.28618
G1 X136.224 Y120.931 E.04878
G1 X134.507 Y122.065 E.06452
G1 X133.019 Y122.656 E.0502
G1 X131.906 Y122.91 E.03579
G1 X130.162 Y123.025 E.0548
G1 X119.966 Y122.877 E.31972
G1 X118.329 Y122.62 E.05196
G1 X117.242 Y122.254 E.03596
G1 X115.781 Y121.466 E.05205
G1 X114.504 Y120.401 E.05214
G1 X113.385 Y118.984 E.05661
G1 X107.232 Y109.224 E.36175
G1 X106.594 Y107.741 E.05062
G1 X106.449 Y107.234 E.01653
G1 X106.258 Y106.144 E.0347
G1 X106.22 Y104.815 E.04169
G1 X106.561 Y102.867 E.06201
G1 X110.037 Y93.201 E.32207
G1 X111.061 Y91.486 E.06263
M204 S1000
G1 X111.061 Y91.486 F10800
G1 X111.376 Y91.682
M204 S800
G1 F1200
G1 X112.411 Y90.551 E.04807
G1 X113.303 Y89.839 E.03579
G1 X114.882 Y88.969 E.05653
G1 X121.26 Y86.494 E.21451
G1 X122.461 Y86.1 E.03963
M73 P0 R27
G1 X123.975 Y85.86 E.04806
G1 X125.024 Y85.872 E.03289
G1 X125.896 Y85.946 E.02744
G1 X127.009 Y86.2 E.03579
G1 X128.63 Y86.867 E.05496
G1 X136.901 Y91.436 E.29627
G1 X138.025 Y92.223 E.04302
G1 X139.118 Y93.338 E.04896
G1 X140.159 Y95.059 E.06306
G1 X143.637 Y106.039 E.36113
G1 X143.81 Y107.954 E.06029
G1 X143.637 Y109.477 E.04806
G1 X143.196 Y110.945 E.04806
G1 X142.499 Y112.31 E.04806
G1 X136.789 Y119.87 E.29705
G1 X135.657 Y120.903 E.04805
G1 X134.358 Y121.718 E.04808
G1 X133.309 Y122.167 E.03578
G1 X131.822 Y122.542 E.04808
G1 X130.167 Y122.648 E.052
G1 X120.013 Y122.503 E.3184
G1 X118.45 Y122.263 E.04958
G1 X117.362 Y121.897 E.03599
M73 P1 R27
G1 X115.97 Y121.14 E.04968
G1 X114.754 Y120.119 E.04978
G1 X113.704 Y118.783 E.05328
G1 X107.551 Y109.023 E.36175
G1 X106.821 Y107.168 E.0625
G1 X106.63 Y106.079 E.03467
G1 X106.597 Y104.815 E.03965
G1 X106.916 Y102.994 E.05797
G1 X110.39 Y93.333 E.3219
G1 X111.345 Y91.734 E.0584
M204 S1000
;WIPE_START
G1 F8640
G1 X111.376 Y91.682 E-.01398
G1 X112.411 Y90.551 E-.354
G1 X113.303 Y89.839 E-.26353
G1 X113.942 Y89.487 E-.16849
;WIPE_END
G1 Z.6 F720
; printing object inkwell v4 id:0 copy 0
G1 X124.926 Y88.058 F10800
G1 Z.2 F720
G1 E.8 F2100
M204 S800
;TYPE:Support material
G1 F1200
G1 X125.409 Y88.08 E.01516
G1 X126.522 Y88.334 E.03579
G1 X127.572 Y88.782 E.03579
G1 X128.525 Y89.411 E.0358
G1 X129.35 Y90.2 E.03579
G1 X130.021 Y91.124 E.0358
G1 X130.516 Y92.153 E.0358
G1 X130.813 Y93.226 E.03491
G1 X131.203 Y93.023 E.01379
G1 X132.396 Y92.695 E.03879
G1 X133.632 Y92.64 E.03879
G1 X134.805 Y92.884 E.03757
G1 X135.843 Y93.352 E.0357
G1 X136.749 Y94.001 E.03494
G1 X137.512 Y94.825 E.03521
G1 X138.097 Y95.791 E.03541
G1 X138.475 Y96.857 E.03546
G1 X138.636 Y98.011 E.03653
G1 X138.529 Y99.239 E.03865
G1 X138.129 Y100.382 E.03797
G1 X137.53 Y101.364 E.03607
G1 X137.217 Y101.696 E.01431
G1 X138.28 Y102.15 E.03624
G1 X139.232 Y102.779 E.03578
G1 X140.058 Y103.568 E.03582
G1 X140.729 Y104.492 E.0358
G1 X141.224 Y105.52 E.03577
G1 X141.528 Y106.621 E.03581
G1 X141.63 Y107.758 E.03579
G1 X141.528 Y108.895 E.03579
G1 X141.224 Y109.995 E.03578
G1 X140.729 Y111.024 E.0358
G1 X140.058 Y111.948 E.0358
G1 X139.232 Y112.737 E.03582
G1 X138.28 Y113.366 E.03578
G1 X137.23 Y113.814 E.03579
G1 X136.831 Y113.905 E.01283
G1 X136.746 Y115.235 E.04179
G1 X136.443 Y116.335 E.03577
G1 X135.947 Y117.364 E.03582
G1 X135.276 Y118.288 E.0358
G1 X134.451 Y119.077 E.03579
G1 X133.498 Y119.706 E.0358
G1 X132.448 Y120.154 E.03579
G1 X131.335 Y120.408 E.03579
G1 X130.195 Y120.46 E.03578
G1 X129.064 Y120.306 E.03579
G1 X127.978 Y119.953 E.0358
G1 X126.972 Y119.413 E.0358
G1 X126.08 Y118.701 E.03579
G1 X125.241 Y117.741 E.03998
G1 X124.443 Y118.696 E.03902
G1 X123.549 Y119.412 E.03591
G1 X122.531 Y119.935 E.03588
G1 X121.428 Y120.246 E.03593
G1 X120.286 Y120.332 E.03591
G1 X119.148 Y120.189 E.03596
G1 X118.061 Y119.823 E.03596
G1 X117.067 Y119.246 E.03604
G1 X116.207 Y118.483 E.03605
G1 X115.556 Y117.615 E.03402
G1 X115.036 Y116.53 E.03772
G1 X114.759 Y115.414 E.03605
G1 X114.71 Y114.265 E.03606
G1 X114.893 Y113.128 E.03611
G1 X115.301 Y112.051 E.03611
G1 X116.108 Y110.843 E.04555
G1 X115.946 Y110.586 E.00953
G1 X115.114 Y110.793 E.02688
G1 X113.978 Y110.836 E.03564
G1 X112.858 Y110.646 E.03562
G1 X111.798 Y110.233 E.03567
G1 X110.844 Y109.612 E.03569
G1 X110.034 Y108.809 E.03576
G1 X109.402 Y107.856 E.03585
G1 X108.976 Y106.79 E.03599
G1 X108.785 Y105.701 E.03467
G1 X108.786 Y104.816 E.02775
G1 X108.977 Y103.731 E.03454
G1 X109.4 Y102.668 E.03587
G1 X110.029 Y101.717 E.03575
G1 X110.836 Y100.915 E.03567
G1 X111.787 Y100.295 E.0356
G1 X112.637 Y99.961 E.02863
G1 X112.439 Y99.628 E.01215
G1 X112.038 Y98.559 E.0358
G1 X111.834 Y97.436 E.03579
G1 X111.834 Y96.294 E.03581
G1 X112.038 Y95.171 E.03579
G1 X112.439 Y94.102 E.0358
G1 X113.024 Y93.122 E.03579
G1 X113.775 Y92.262 E.0358
G1 X114.668 Y91.551 E.03579
G1 X115.673 Y91.01 E.03579
G1 X116.759 Y90.657 E.0358
G1 X117.89 Y90.504 E.03578
G1 X119.031 Y90.555 E.03581
G1 X119.408 Y90.641 E.01212
G1 X120.153 Y89.787 E.03553
G1 X121.046 Y89.075 E.03581
G1 X122.051 Y88.534 E.03579
G1 X123.137 Y88.182 E.03579
G1 X124.268 Y88.028 E.03579
G1 X124.869 Y88.055 E.01886
M204 S1000
G1 X124.869 Y88.055 F10800
G1 X124.993 Y98.17
M204 S800
G1 F1200
G1 X126.137 Y98.265 E.03599
G1 X127.244 Y98.549 E.03583
G1 X128.73 Y99.277 E.05188
G1 X129.636 Y99.982 E.03599
G1 X130.399 Y100.813 E.03537
G1 X131.253 Y102.247 E.05233
G1 X131.626 Y103.333 E.036
G1 X131.833 Y104.99 E.05236
G1 X131.738 Y106.134 E.03599
G1 X131.261 Y107.735 E.05238
G1 X130.726 Y108.727 E.03534
G1 X130.021 Y109.633 E.03599
G1 X129.19 Y110.396 E.03537
G1 X127.755 Y111.251 E.05237
G1 X126.67 Y111.623 E.03596
G1 X125.013 Y111.83 E.05236
G1 X123.869 Y111.735 E.03599
G1 X122.268 Y111.259 E.05237
G1 X120.8 Y110.384 E.05358
G1 X119.984 Y109.633 E.03477
G1 X119.455 Y108.974 E.0265
G1 X118.697 Y109.159 E.02446
G1 X118.516 Y108.895 E.01004
G1 X119.021 Y108.294 E.02461
G1 X118.744 Y107.735 E.01956
G1 X118.384 Y106.686 E.03477
G1 X118.173 Y105.01 E.05296
G1 X118.268 Y103.866 E.03599
G1 X118.552 Y102.759 E.03583
G1 X119.279 Y101.273 E.05187
G1 X119.984 Y100.367 E.03599
G1 X120.828 Y99.595 E.03586
G1 X122.25 Y98.749 E.05188
G1 X123.336 Y98.377 E.03599
G1 X124.936 Y98.172 E.05058
M204 S1000
;WIPE_START
G1 F8640
G1 X123.336 Y98.377 E-.37246
G1 X122.25 Y98.749 E-.26506
G1 X121.645 Y99.109 E-.16248
;WIPE_END
G1 Z.6 F720
G1 X140.921 Y110.233 F10800
G1 Z.2 F720
G1 E.8 F2100
M204 S800
G1 F1200
G1 X140.921 Y105.699 E.14216
G1 X140.502 Y104.804 E.03099
G1 X140.502 Y110.712 E.18524
G1 X140.083 Y111.335 E.02354
G1 X140.083 Y104.181 E.22431
G1 X139.664 Y103.662 E.02091
G1 X139.664 Y111.854 E.25685
G1 X139.245 Y112.255 E.01818
G1 X139.245 Y103.261 E.282
G1 X138.826 Y102.918 E.01698
G1 X138.826 Y112.598 E.30351
G1 X138.407 Y112.875 E.01575
G1 X138.407 Y102.641 E.32088
G1 X137.988 Y102.395 E.01523
G1 X137.988 Y113.121 E.33631
G1 X137.569 Y113.3 E.01429
G1 X137.569 Y102.216 E.34753
G1 X137.15 Y102.037 E.01429
G1 X137.15 Y113.479 E.35876
G1 X136.731 Y113.58 E.01351
G1 X136.731 Y94.482 E.5988
G1 X136.312 Y94.106 E.01765
G1 X136.312 Y115.532 E.6718
G1 X136.124 Y116.216 E.02224
M73 P2 R27
G1 X135.893 Y116.694 E.01665
G1 X135.893 Y93.805 E.71767
G1 X135.474 Y93.558 E.01525
G1 X135.474 Y117.437 E.74871
G1 X135.055 Y118.014 E.02236
G1 X135.055 Y93.369 E.77273
G1 X134.636 Y93.195 E.01423
G1 X134.636 Y118.43 E.79123
G1 X134.217 Y118.824 E.01803
G1 X134.217 Y93.108 E.80631
G1 X133.799 Y93.021 E.01339
G1 X133.799 Y119.101 E.81772
G1 X133.38 Y119.377 E.01573
G1 X133.38 Y92.991 E.82731
G1 X132.961 Y93.01 E.01315
G1 X132.961 Y119.566 E.83264
G1 X132.542 Y119.745 E.01429
G1 X132.542 Y93.028 E.83769
G1 X132.123 Y93.117 E.01343
G1 X132.123 Y119.881 E.83917
G1 X131.704 Y119.976 E.01347
G1 X131.704 Y107.535 E.39008
G1 X131.285 Y108.453 E.03164
G1 X131.285 Y120.071 E.36427
G1 X130.866 Y120.09 E.01315
G1 X130.866 Y109.117 E.34405
G1 X130.447 Y109.657 E.02143
G1 X130.447 Y120.109 E.32772
G1 X130.028 Y120.094 E.01315
G1 X130.028 Y110.106 E.31317
G1 X129.609 Y110.487 E.01776
M73 P3 R27
G1 X129.609 Y120.038 E.29946
G1 X129.19 Y119.981 E.01326
G1 X129.19 Y110.813 E.28746
G1 X128.771 Y111.094 E.01582
G1 X128.771 Y119.854 E.27466
G1 X128.352 Y119.718 E.01381
G1 X128.352 Y111.337 E.26278
G1 X127.933 Y111.542 E.01463
G1 X127.933 Y119.544 E.2509
G1 X127.514 Y119.318 E.01493
G1 X127.514 Y111.71 E.23854
G1 X127.095 Y111.852 E.01387
G1 X127.095 Y119.076 E.2265
G1 X126.676 Y118.742 E.0168
G1 X126.676 Y111.969 E.21236
G1 X126.257 Y112.057 E.01342
G1 X126.257 Y118.388 E.1985
G1 X125.838 Y117.908 E.01998
G1 X125.838 Y112.115 E.18164
G1 X125.419 Y112.153 E.01319
G1 X125.419 Y117.428 E.16539
G1 X125.236 Y117.219 E.00871
G1 X125 Y117.501 E.01153
G1 X125 Y112.169 E.16718
G1 X124.581 Y112.153 E.01315
G1 X124.581 Y118.002 E.18339
G1 X124.162 Y118.487 E.0201
G1 X124.162 Y112.115 E.19979
G1 X123.743 Y112.056 E.01327
G1 X123.743 Y118.822 E.21214
G1 X123.324 Y119.146 E.01661
G1 X123.324 Y111.968 E.22506
G1 X122.905 Y111.85 E.01365
G1 X122.905 Y119.361 E.2355
G1 X122.486 Y119.577 E.01478
G1 X122.486 Y111.708 E.24673
G1 X122.067 Y111.539 E.01417
G1 X122.067 Y119.713 E.25629
G1 X121.648 Y119.831 E.01365
G1 X121.648 Y111.334 E.26642
G1 X121.229 Y111.091 E.01519
G1 X121.229 Y119.921 E.27686
G1 X120.81 Y119.952 E.01317
G1 X120.81 Y110.809 E.28667
G1 X120.391 Y110.482 E.01666
G1 X120.391 Y119.984 E.29793
G1 X119.972 Y119.95 E.01318
G1 X119.972 Y110.101 E.30881
G1 X119.553 Y109.65 E.0193
G1 X119.553 Y119.898 E.32132
G1 X119.134 Y119.826 E.01333
G1 X119.134 Y109.366 E.32797
G1 X118.715 Y109.512 E.01391
G1 X118.715 Y119.685 E.31897
G1 X118.296 Y119.544 E.01386
G1 X118.296 Y106.986 E.39375
M204 S1000
;WIPE_START
G1 F8640
G1 X118.296 Y110.451 E-.8
;WIPE_END
G1 Z.6 F720
G1 X137.988 Y100.269 F10800
G1 Z.2 F720
G1 E.8 F2100
M204 S800
G1 F1200
G1 X137.988 Y96.499 E.11821
G1 X137.789 Y95.937 E.01869
G1 X137.569 Y95.575 E.01328
G1 X137.569 Y100.648 E.15906
G1 X137.15 Y101.272 E.02357
G1 X137.15 Y94.684 E.20656
M204 S1000
G1 X137.15 Y94.684 F10800
G1 X131.704 Y102.996
M204 S800
G1 F1200
G1 X131.704 Y93.227 E.3063
G1 X131.285 Y93.363 E.01381
G1 X131.285 Y101.547 E.2566
G1 X130.866 Y100.883 E.02462
G1 X130.866 Y93.581 E.22895
G1 X130.597 Y93.721 E.00951
G1 X130.447 Y93.176 E.01772
G1 X130.447 Y100.343 E.22472
G1 X130.028 Y99.894 E.01926
G1 X130.028 Y91.92 E.25002
G1 X129.609 Y91.134 E.02793
G1 X129.609 Y99.513 E.26272
G1 X129.19 Y99.187 E.01665
G1 X129.19 Y90.557 E.27059
G1 X128.771 Y90.116 E.01907
M73 P4 R27
G1 X128.771 Y98.906 E.2756
G1 X128.352 Y98.663 E.01519
G1 X128.352 Y89.716 E.28053
G1 X127.933 Y89.427 E.01596
G1 X127.933 Y98.458 E.28316
G1 X127.514 Y98.29 E.01415
G1 X127.514 Y89.151 E.28655
G1 X127.095 Y88.948 E.0146
G1 X127.095 Y98.148 E.28846
G1 X126.676 Y98.031 E.01364
G1 X126.676 Y88.769 E.2904
G1 X126.257 Y88.621 E.01393
G1 X126.257 Y97.943 E.29228
G1 X125.838 Y97.885 E.01326
G1 X125.838 Y88.526 E.29344
G1 X125.419 Y88.43 E.01348
G1 X125.419 Y97.847 E.29526
G1 X125 Y97.831 E.01315
G1 X125 Y88.401 E.29567
G1 X124.581 Y88.382 E.01315
G1 X124.581 Y97.847 E.29677
G1 X124.162 Y97.885 E.01319
M73 P4 R26
G1 X124.162 Y88.385 E.29787
G1 X123.743 Y88.442 E.01326
G1 X123.743 Y97.944 E.29793
G1 X123.324 Y98.032 E.01342
G1 X123.324 Y88.499 E.2989
G1 X122.905 Y88.614 E.01362
G1 X122.905 Y98.15 E.29899
G1 X122.486 Y98.292 E.01387
G1 X122.486 Y88.75 E.29918
G1 X122.067 Y88.911 E.01407
G1 X122.067 Y98.461 E.29943
G1 X121.648 Y98.666 E.01463
G1 X121.648 Y89.137 E.29878
G1 X121.229 Y89.363 E.01493
G1 X121.229 Y98.909 E.29931
G1 X120.81 Y99.191 E.01584
G1 X120.81 Y89.698 E.29765
G1 X120.391 Y90.032 E.0168
G1 X120.391 Y99.518 E.29743
G1 X119.972 Y99.899 E.01776
G1 X119.972 Y90.51 E.29439
G1 X119.553 Y90.99 E.01998
G1 X119.553 Y100.35 E.29348
G1 X119.134 Y100.89 E.02143
G1 X119.134 Y90.926 E.31241
G1 X118.715 Y90.88 E.01322
G1 X118.715 Y101.556 E.33474
G1 X118.296 Y102.479 E.03178
G1 X118.296 Y90.861 E.36427
G1 X117.877 Y90.848 E.01314
G1 X117.877 Y119.324 E.89284
G1 X117.458 Y119.081 E.01519
G1 X117.458 Y90.905 E.88344
G1 X117.039 Y90.961 E.01325
G1 X117.039 Y118.768 E.87187
G1 X116.62 Y118.396 E.01757
M73 P5 R26
G1 X116.62 Y91.059 E.85713
G1 X116.201 Y91.195 E.01381
G1 X116.201 Y110.355 E.60075
G1 X116.102 Y110.198 E.00582
G1 X115.783 Y110.277 E.0103
G1 X115.783 Y91.336 E.59388
G1 X115.364 Y91.562 E.01493
G1 X115.364 Y110.381 E.59006
G1 X115.067 Y110.455 E.0096
G1 X114.945 Y110.46 E.00383
G1 X114.945 Y91.787 E.58548
G1 X114.526 Y92.098 E.01636
G1 X114.526 Y110.475 E.5762
G1 X114.107 Y110.491 E.01315
G1 X114.107 Y92.432 E.56623
G1 X113.688 Y92.879 E.01921
G1 X113.688 Y110.442 E.55068
G1 X113.269 Y110.371 E.01332
G1 X113.269 Y93.375 E.5329
G1 X112.85 Y94.076 E.02561
G1 X112.85 Y99.654 E.17489
G1 X112.431 Y98.641 E.03437
G1 X112.431 Y94.606 E.12651
M204 S1000
;WIPE_START
G1 F8640
G1 X112.431 Y98.071 E-.8
;WIPE_END
G1 Z.6 F720
G1 X116.201 Y118.193 F10800
G1 Z.2 F720
G1 E.8 F2100
M204 S800
G1 F1200
G1 X116.201 Y111.264 E.21725
G1 X115.783 Y111.87 E.02308
G1 X115.783 Y117.32 E.17088
G1 X115.364 Y116.433 E.03076
G1 X115.364 Y112.33 E.12865
M204 S1000
;WIPE_START
G1 F8640
G1 X115.364 Y115.795 E-.8
;WIPE_END
G1 Z.6 F720
G1 X112.85 Y110.461 F10800
G1 Z.2 F720
G1 E.8 F2100
M204 S800
G1 F1200
G1 X112.85 Y100.242 E.32041
G1 X112.431 Y100.407 E.01412
G1 X112.431 Y110.115 E.30439
G1 X112.012 Y109.952 E.0141
G1 X112.012 Y100.571 E.29413
G1 X111.593 Y100.827 E.0154
G1 X111.593 Y109.694 E.27802
G1 X111.174 Y109.422 E.01566
G1 X111.174 Y101.1 E.26093
G1 X110.755 Y101.474 E.01761
G1 X110.755 Y109.046 E.23741
G1 X110.336 Y108.631 E.01849
G1 X110.336 Y101.891 E.21133
G1 X109.917 Y102.502 E.02323
G1 X109.917 Y108.019 E.17298
G1 X109.498 Y107.181 E.02938
G1 X109.498 Y102.882 E.13479
M204 S1000
;WIPE_START
G1 F8640
G1 X109.498 Y106.347 E-.8
;WIPE_END
G1 Z.6 F720
G1 X124.168 Y101.414 F10800
G1 Z.2 F720
G1 E.8 F2100
M204 S800
;TYPE:Perimeter
;WIDTH:0.419999
G1 F1200
G1 X124.19 Y101.407 E.00072
G1 X124.921 Y101.317 E.02309
G1 X125.65 Y101.388 E.02297
G1 X125.956 Y101.442 E.00974
